; generated by SuperSlicer 2.5.59.13 on 2025-08-08 at 17:41:43 UTC


;
;

;
;
; 

; external perimeters extrusion width = 0.50mm
; perimeters extrusion width = 0.50mm
; infill extrusion width = 0.50mm
; solid infill extrusion width = 0.50mm
; top infill extrusion width = 0.50mm
; first layer extrusion width = 0.50mm

; external perimeters extrusion width = 0.50mm
; perimeters extrusion width = 0.50mm
; infill extrusion width = 0.50mm
; solid infill extrusion width = 0.50mm
; top infill extrusion width = 0.50mm
; first layer extrusion width = 0.50mm

; object:{"name":"3mmsquare","id":"3mmsquare.stl id:0 copy 0","object_center":[204.759804,135.171682,0.000000],"boundingbox_center":[204.759804,135.171682,1.500000],"boundingbox_size":[35.000000,35.000000,3.000000]}
EXCLUDE_OBJECT_DEFINE NAME=3mmsquare_stl_id_0_copy_0 CENTER=204.759804,135.171682 POLYGON=[[187.26,117.67],[222.26,117.67],[222.26,152.67],[187.26,152.67],[187.26,117.67]]
; object:{"name":"3mmsquare","id":"3mmsquare.stl id:1 copy 0","object_center":[154.500001,175.000000,0.000000],"boundingbox_center":[154.500001,175.000000,1.500000],"boundingbox_size":[35.000000,35.000000,3.000000]}
EXCLUDE_OBJECT_DEFINE NAME=3mmsquare_stl_id_1_copy_0 CENTER=154.500001,175.000000 POLYGON=[[137.00,157.50],[172.00,157.50],[172.00,192.50],[137.00,192.50],[137.00,157.50]]
; plater:{"center":[179.629903,155.085841,0.000000],"boundingbox_center":[179.629903,155.085841,1.500000],"boundingbox_size":[85.259803,74.828318,3.000000]}

M73 P0 R15
M107
;TYPE:Custom
; custom gcode: start_gcode
PRINT_START  TOOL_TEMP=293 BED_TEMP=97 TOOL=1 CHAMBER=48
; custom gcode end: start_gcode

G21 ; set units to millimeters
G90 ; use absolute coordinates
M83 ; use relative distances for extrusion
; custom gcode: toolchange_gcode
CURRENT_TOOL=1
NEXT_TOOL=1
; custom gcode end: toolchange_gcode
; custom gcode: start_filament_gcode
EXTRUDER=1
WARMUP_TIME=60
WARMUP_FROM_OFF_TIME=90
DORMANT_TIME=90
; custom gcode end: start_filament_gcode
M109 S293 T1 ; set temperature and wait for it to be reached
M104 S280 T1 ; set temperature
M104 S240 T2 ; set temperature
M109 S293 T1 ; set temperature and wait for it to be reached
M190 S97 ; set bed temperature and wait for it to be reached
;LAYER_CHANGE
;Z:0.25
;HEIGHT:0.25
G1 Z0.25 F27000
; custom gcode: layer_gcode
VERIFY_TOOL_DETECTED ASYNC=1 
; custom gcode end: layer_gcode

G92 E0
M73 P2 R15
G1 E-0.5 F1800
G1 Z0.45 F27000
M204 S2000
G1 X133.954 Y153.656
G1 Z0.25
G1 E0.5 F1800
;TYPE:Skirt
;WIDTH:0.4
G1 X132.491 Y155.569 E0.08671
G1 X132.095 Y157.5 E0.07094
G1 X132.095 Y192.5 E1.25996
G1 X132.405 Y194.215 E0.06273
G1 X133.45 Y195.885 E0.07095
G1 X135.069 Y197.009 E0.07094
G1 X137 Y197.405 E0.07095
G1 X172 Y197.405 E1.25996
G1 X173.287 Y197.233 E0.04675
G1 X175.046 Y196.344 E0.07095
G1 X225.306 Y156.516 E2.30851
G1 X226.769 Y154.602 E0.08671
G1 X227.165 Y152.672 E0.07095
G1 X227.165 Y117.672 E1.25996
G1 X226.855 Y115.957 E0.06272
G1 X225.809 Y114.287 E0.07095
G1 X224.19 Y113.163 E0.07095
G1 X222.26 Y112.767 E0.07094
G1 X187.26 Y112.767 E1.25996
M73 P3 R15
G1 X185.972 Y112.939 E0.04675
G1 X184.213 Y113.827 E0.07095
G1 X133.954 Y153.656 E2.30852
G1 X134.169 Y153.927 F27000
G1 F1800
G1 X132.837 Y155.642 E0.07817
G1 X132.441 Y157.5 E0.06837
G1 X132.441 Y192.5 E1.25996
G1 X132.661 Y193.898 E0.05095
G1 X133.607 Y195.545 E0.06837
G1 X135.142 Y196.663 E0.06836
G1 X137 Y197.059 E0.06837
G1 X172 Y197.059 E1.25996
G1 X173.13 Y196.916 E0.04099
G1 X174.831 Y196.073 E0.06837
G1 X225.091 Y156.244 E2.30852
M73 P3 R14
G1 X226.423 Y154.529 E0.07817
G1 X226.818 Y152.672 E0.06837
G1 X226.818 Y117.672 E1.25996
G1 X226.599 Y116.274 E0.05095
G1 X225.652 Y114.627 E0.06836
G1 X224.117 Y113.509 E0.06837
G1 X222.26 Y113.113 E0.06837
M73 P4 R14
G1 X187.26 Y113.113 E1.25996
G1 X186.13 Y113.255 E0.04099
G1 X184.429 Y114.099 E0.06837
G1 X134.169 Y153.927 E2.30852
G1 X134.384 Y154.199 F27000
G1 F1800
G1 X133.183 Y155.719 E0.06973
G1 X132.788 Y157.5 E0.06569
G1 X132.788 Y192.5 E1.25995
G1 X132.93 Y193.586 E0.03944
G1 X133.771 Y195.205 E0.06569
G1 X135.219 Y196.317 E0.06569
G1 X137 Y196.712 E0.06569
G1 X172 Y196.712 E1.25996
G1 X172.974 Y196.598 E0.03531
G1 X174.616 Y195.801 E0.06569
G1 X224.876 Y155.973 E2.30852
G1 X226.077 Y154.453 E0.06973
G1 X226.472 Y152.672 E0.06569
G1 X226.472 Y117.672 E1.25996
M73 P5 R14
G1 X226.33 Y116.586 E0.03943
G1 X225.488 Y114.966 E0.06569
G1 X224.041 Y113.855 E0.06569
G1 X222.26 Y113.459 E0.06569
G1 X187.26 Y113.459 E1.25996
G1 X186.285 Y113.574 E0.03532
G1 X184.644 Y114.37 E0.06569
G1 X134.384 Y154.199 E2.30852
G1 E-0.5
M204 S4000
G1 Z0.45 F27000
; printing object 3mmsquare.stl id:0 copy 0
EXCLUDE_OBJECT_START NAME=3mmsquare_stl_id_0_copy_0
; acceleration to travel
M204 S10000
G1 X206.206 Y151.519
; decel to extrusion
M204 S2000
G1 X220.571 Y150.983
; end travel
G1 Z0.25
G1 E0.5 F1800
;TYPE:Internal perimeter
;WIDTH:0.5
G1 X188.949 Y150.983 E1.46702
G1 X188.949 Y119.361 E1.46703
G1 X220.571 Y119.361 E1.46702
G1 X220.571 Y150.983 E1.46703
G1 X221.017 Y151.429 F27000
G1 F1800
G1 X188.503 Y151.429 E1.50843
M73 P6 R14
G1 X188.503 Y118.914 E1.50844
G1 X221.017 Y118.914 E1.50844
G1 X221.017 Y151.429 E1.50844
G1 X221.463 Y151.875 F27000
G1 F1800
G1 X188.056 Y151.875 E1.54985
G1 X188.056 Y118.468 E1.54986
G1 X221.463 Y118.468 E1.54985
G1 X221.463 Y151.875 E1.54985
M204 S1000
G1 X221.91 Y152.322 F27000
;TYPE:External perimeter
G1 F1800
G1 X187.61 Y152.322 E1.59127
M73 P7 R14
G1 X187.61 Y118.022 E1.59127
G1 X221.91 Y118.022 E1.59126
G1 X221.91 Y152.322 E1.59127
;WIPE_START
M204 S4000
G1 X221.563 Y152.122 F27000
;WIPE_END
; acceleration to travel
M204 S10000
G1 X219.877 Y124.994
; decel to extrusion
M204 S2000
G1 X219.535 Y119.495
; end travel
;TYPE:Solid infill
;WIDTH:0.49441
G1 F3600
G1 X220.437 Y120.397 E0.05854
G1 X220.437 Y121.028 F27000
G1 F3600
G1 X218.903 Y119.495 E0.09949
G1 X218.272 Y119.495 F27000
G1 F3600
G1 X220.437 Y121.659 E0.14044
G1 X220.437 Y122.291 F27000
G1 F3600
G1 X217.641 Y119.495 E0.18139
G1 X217.01 Y119.495 F27000
G1 F3600
G1 X220.437 Y122.922 E0.22234
G1 X220.437 Y123.553 F27000
G1 F3600
G1 X216.378 Y119.495 E0.26329
G1 X215.747 Y119.495 F27000
G1 F3600
G1 X220.437 Y124.184 E0.30425
G1 X220.437 Y124.816 F27000
G1 F3600
G1 X215.116 Y119.495 E0.3452
G1 X214.485 Y119.495 F27000
G1 F3600
G1 X220.437 Y125.447 E0.38615
G1 X220.437 Y126.078 F27000
G1 F3600
G1 X213.853 Y119.495 E0.4271
G1 X213.222 Y119.495 F27000
G1 F3600
G1 X220.437 Y126.709 E0.46805
G1 X220.437 Y127.34 F27000
G1 F3600
G1 X212.591 Y119.495 E0.50901
G1 X211.96 Y119.495 F27000
G1 F3600
G1 X220.437 Y127.972 E0.54995
G1 X220.437 Y128.603 F27000
G1 F3600
G1 X211.329 Y119.495 E0.59091
G1 X210.697 Y119.495 F27000
G1 F3600
G1 X220.437 Y129.234 E0.63186
G1 X220.437 Y129.865 F27000
G1 F3600
G1 X210.066 Y119.495 E0.67281
G1 X209.435 Y119.495 F27000
G1 F3600
G1 X220.437 Y130.497 E0.71376
G1 X220.437 Y131.128 F27000
G1 F3600
G1 X208.804 Y119.495 E0.75471
G1 X208.172 Y119.495 F27000
G1 F3600
G1 X220.437 Y131.759 E0.79567
G1 X220.437 Y132.39 F27000
G1 F3600
G1 X207.541 Y119.495 E0.83662
G1 X206.91 Y119.495 F27000
G1 F3600
G1 X220.437 Y133.022 E0.87757
G1 X220.437 Y133.653 F27000
G1 F3600
G1 X206.279 Y119.495 E0.91852
G1 X205.647 Y119.495 F27000
G1 F3600
G1 X220.437 Y134.284 E0.95947
G1 X220.437 Y134.915 F27000
M73 P8 R14
G1 F3600
G1 X205.016 Y119.495 E1.00042
G1 X204.385 Y119.495 F27000
G1 F3600
G1 X220.437 Y135.546 E1.04138
G1 X220.437 Y136.178 F27000
G1 F3600
G1 X203.754 Y119.495 E1.08233
G1 X203.123 Y119.495 F27000
G1 F3600
G1 X220.437 Y136.809 E1.12327
G1 X220.437 Y137.44 F27000
G1 F3600
G1 X202.491 Y119.495 E1.16423
G1 X201.86 Y119.495 F27000
G1 F3600
G1 X220.437 Y138.071 E1.20519
G1 X220.437 Y138.703 F27000
G1 F3600
G1 X201.229 Y119.495 E1.24613
G1 X200.598 Y119.495 F27000
G1 F3600
G1 X220.437 Y139.334 E1.28709
G1 X220.437 Y139.965 F27000
G1 F3600
G1 X199.966 Y119.495 E1.32803
G1 X199.335 Y119.495 F27000
G1 F3600
G1 X220.437 Y140.596 E1.36899
G1 X220.437 Y141.228 F27000
G1 F3600
G1 X198.704 Y119.495 E1.40994
G1 X198.073 Y119.495 F27000
G1 F3600
G1 X220.437 Y141.859 E1.45089
G1 X220.437 Y142.49 F27000
G1 F3600
G1 X197.441 Y119.495 E1.49185
G1 X196.81 Y119.495 F27000
G1 F3600
G1 X220.437 Y143.121 E1.53279
G1 X220.437 Y143.753 F27000
G1 F3600
G1 X196.179 Y119.495 E1.57375
G1 X195.548 Y119.495 F27000
G1 F3600
G1 X220.437 Y144.384 E1.6147
G1 X220.437 Y145.015 F27000
G1 F3600
G1 X194.917 Y119.495 E1.65565
G1 X194.285 Y119.495 F27000
G1 F3600
G1 X220.437 Y145.646 E1.6966
M73 P9 R14
G1 X220.437 Y146.277 F27000
G1 F3600
G1 X193.654 Y119.495 E1.73755
G1 X193.023 Y119.495 F27000
G1 F3600
G1 X220.437 Y146.909 E1.77851
G1 X220.437 Y147.54 F27000
G1 F3600
G1 X192.392 Y119.495 E1.81945
G1 X191.76 Y119.495 F27000
G1 F3600
G1 X220.437 Y148.171 E1.86041
G1 X220.437 Y148.802 F27000
G1 F3600
G1 X191.129 Y119.495 E1.90136
G1 X190.498 Y119.495 F27000
G1 F3600
G1 X220.437 Y149.434 E1.94231
G1 X220.437 Y150.065 F27000
G1 F3600
G1 X189.867 Y119.495 E1.98326
G1 X189.235 Y119.495 F27000
G1 F3600
G1 X220.437 Y150.696 E2.02422
G1 X219.958 Y150.849 F27000
G1 F3600
G1 X189.083 Y119.973 E2.00307
G1 X189.083 Y120.604 F27000
G1 F3600
G1 X219.327 Y150.849 E1.96212
G1 X218.696 Y150.849 F27000
G1 F3600
G1 X189.083 Y121.236 E1.92117
G1 X189.083 Y121.867 F27000
G1 F3600
G1 X218.065 Y150.849 E1.88022
M73 P10 R14
G1 X217.433 Y150.849 F27000
G1 F3600
G1 X189.083 Y122.498 E1.83927
G1 X189.083 Y123.129 F27000
G1 F3600
G1 X216.802 Y150.849 E1.79832
G1 X216.171 Y150.849 F27000
G1 F3600
G1 X189.083 Y123.761 E1.75736
M73 P10 R13
G1 X189.083 Y124.392 F27000
G1 F3600
G1 X215.54 Y150.849 E1.71641
G1 X214.908 Y150.849 F27000
G1 F3600
G1 X189.083 Y125.023 E1.67546
G1 X189.083 Y125.654 F27000
G1 F3600
G1 X214.277 Y150.849 E1.63451
G1 X213.646 Y150.849 F27000
G1 F3600
G1 X189.083 Y126.285 E1.59356
G1 X189.083 Y126.917 F27000
G1 F3600
G1 X213.015 Y150.849 E1.5526
G1 X212.384 Y150.849 F27000
G1 F3600
G1 X189.083 Y127.548 E1.51166
G1 X189.083 Y128.179 F27000
G1 F3600
G1 X211.752 Y150.849 E1.4707
G1 X211.121 Y150.849 F27000
G1 F3600
G1 X189.083 Y128.81 E1.42975
G1 X189.083 Y129.442 F27000
G1 F3600
G1 X210.49 Y150.849 E1.3888
G1 X209.859 Y150.849 F27000
G1 F3600
G1 X189.083 Y130.073 E1.34785
G1 X189.083 Y130.704 F27000
G1 F3600
G1 X209.227 Y150.849 E1.30689
G1 X208.596 Y150.849 F27000
G1 F3600
G1 X189.083 Y131.335 E1.26595
G1 X189.083 Y131.967 F27000
M73 P11 R13
G1 F3600
G1 X207.965 Y150.849 E1.22499
G1 X207.334 Y150.849 F27000
G1 F3600
G1 X189.083 Y132.598 E1.18404
G1 X189.083 Y133.229 F27000
G1 F3600
G1 X206.702 Y150.849 E1.14309
G1 X206.071 Y150.849 F27000
G1 F3600
G1 X189.083 Y133.86 E1.10214
G1 X189.083 Y134.492 F27000
G1 F3600
G1 X205.44 Y150.849 E1.06118
G1 X204.809 Y150.849 F27000
G1 F3600
G1 X189.083 Y135.123 E1.02024
G1 X189.083 Y135.754 F27000
G1 F3600
G1 X204.178 Y150.849 E0.97928
G1 X203.546 Y150.849 F27000
G1 F3600
G1 X189.083 Y136.385 E0.93833
G1 X189.083 Y137.016 F27000
G1 F3600
G1 X202.915 Y150.849 E0.89738
G1 X202.284 Y150.849 F27000
G1 F3600
G1 X189.083 Y137.648 E0.85643
G1 X189.083 Y138.279 F27000
G1 F3600
G1 X201.653 Y150.849 E0.81548
G1 X201.021 Y150.849 F27000
G1 F3600
G1 X189.083 Y138.91 E0.77452
G1 X189.083 Y139.541 F27000
G1 F3600
G1 X200.39 Y150.849 E0.73357
G1 X199.759 Y150.849 F27000
G1 F3600
G1 X189.083 Y140.173 E0.69263
G1 X189.083 Y140.804 F27000
G1 F3600
G1 X199.128 Y150.849 E0.65166
G1 X198.496 Y150.849 F27000
G1 F3600
G1 X189.083 Y141.435 E0.61072
G1 X189.083 Y142.066 F27000
G1 F3600
G1 X197.865 Y150.849 E0.56977
G1 X197.234 Y150.849 F27000
G1 F3600
G1 X189.083 Y142.698 E0.52881
G1 X189.083 Y143.329 F27000
G1 F3600
G1 X196.603 Y150.849 E0.48787
G1 X195.971 Y150.849 F27000
G1 F3600
G1 X189.083 Y143.96 E0.44691
G1 X189.083 Y144.591 F27000
G1 F3600
G1 X195.34 Y150.849 E0.40596
G1 X194.709 Y150.849 F27000
G1 F3600
G1 X189.083 Y145.222 E0.36501
G1 X189.083 Y145.854 F27000
G1 F3600
G1 X194.078 Y150.849 E0.32405
G1 X193.447 Y150.849 F27000
G1 F3600
G1 X189.083 Y146.485 E0.28311
G1 X189.083 Y147.116 F27000
G1 F3600
G1 X192.815 Y150.849 E0.24215
G1 X192.184 Y150.849 F27000
G1 F3600
G1 X189.083 Y147.747 E0.2012
G1 X189.083 Y148.379 F27000
G1 F3600
G1 X191.553 Y150.849 E0.16025
G1 X190.922 Y150.849 F27000
G1 F3600
G1 X189.083 Y149.01 E0.1193
G1 X189.083 Y149.641 F27000
G1 F3600
G1 X190.29 Y150.849 E0.07835
G1 X189.659 Y150.849 F27000
G1 F3600
G1 X189.083 Y150.272 E0.03739
G1 E-10.000000 F1800
M204 S4000
G1 Z0.45 F27000
G1 X209.076 Y171.437
M104 S280 T1 ; set temperature
; custom gcode: toolchange_gcode
CURRENT_TOOL=1
NEXT_TOOL=2
; custom gcode end: toolchange_gcode
; custom gcode: start_filament_gcode
EXTRUDER=2
WARMUP_TIME=60
WARMUP_FROM_OFF_TIME=90
DORMANT_TIME=90
; custom gcode end: start_filament_gcode
M109 S253 T2 ; set temperature and wait for it to be reached
G1 E-0.5 F1800
; stop printing object 3mmsquare.stl id:0 copy 0
EXCLUDE_OBJECT_END NAME=3mmsquare_stl_id_0_copy_0
; acceleration to travel
M204 S10000
G1 X218.797 Y154.807 F27000
; decel to extrusion
M204 S2000
G1 X224.661 Y155.702
; end travel
G1 Z0.25
G1 E0.5 F1800
;TYPE:Skirt
;WIDTH:0.4
M73 P12 R13
G1 X225.731 Y154.374 E0.06139
G1 X226.126 Y152.672 E0.0629
G1 X226.126 Y117.672 E1.25996
G1 X225.316 Y115.304 E0.09006
G1 X223.962 Y114.201 E0.0629
G1 X222.26 Y113.806 E0.06289
G1 X187.26 Y113.806 E1.25996
G1 X184.859 Y114.642 E0.09153
G1 X134.599 Y154.47 E2.30851
G1 X133.529 Y155.798 E0.06139
G1 X133.134 Y157.5 E0.0629
G1 X133.134 Y192.5 E1.25996
G1 X133.944 Y194.867 E0.09006
G1 X135.298 Y195.971 E0.0629
G1 X137 Y196.366 E0.0629
G1 X172 Y196.366 E1.25996
G1 X174.401 Y195.53 E0.09152
G1 X224.661 Y155.702 E2.30852
M73 P13 R13
G1 X224.446 Y155.43 F27000
G1 F1800
G1 X225.385 Y154.29 E0.05317
G1 X225.779 Y152.672 E0.05997
G1 X225.779 Y117.672 E1.25996
G1 X225.134 Y115.641 E0.0767
G1 X223.878 Y114.546 E0.05997
G1 X222.26 Y114.152 E0.05998
G1 X187.26 Y114.152 E1.25996
G1 X185.074 Y114.913 E0.08332
G1 X134.814 Y154.742 E2.30852
G1 X133.875 Y155.881 E0.05317
G1 X133.48 Y157.5 E0.05997
G1 X133.48 Y192.5 E1.25996
G1 X134.125 Y194.531 E0.0767
G1 X135.381 Y195.625 E0.05997
G1 X137 Y196.02 E0.05998
G1 X172 Y196.02 E1.25996
G1 X174.186 Y195.258 E0.08332
G1 X224.446 Y155.43 E2.30852
M73 P14 R13
G1 X224.231 Y155.159 F27000
G1 F1800
G1 X225.039 Y154.203 E0.04508
G1 X225.433 Y152.672 E0.0569
G1 X225.433 Y117.672 E1.25996
G1 X224.942 Y115.976 E0.06357
G1 X223.791 Y114.892 E0.0569
G1 X222.26 Y114.499 E0.0569
G1 X187.26 Y114.499 E1.25996
G1 X185.289 Y115.185 E0.07513
G1 X135.029 Y155.013 E2.30851
G1 X134.221 Y155.969 E0.04508
G1 X133.827 Y157.5 E0.05691
G1 X133.827 Y192.5 E1.25996
G1 X134.318 Y194.196 E0.06356
G1 X135.469 Y195.279 E0.05691
G1 X137 Y195.673 E0.0569
G1 X172 Y195.673 E1.25996
G1 X173.971 Y194.987 E0.07512
G1 X224.231 Y155.159 E2.30852
M73 P15 R13
G1 E-0.5
M204 S4000
G1 Z0.45 F27000
; printing object 3mmsquare.stl id:1 copy 0
EXCLUDE_OBJECT_START NAME=3mmsquare_stl_id_1_copy_0
; acceleration to travel
M204 S10000
G1 X179.298 Y184.869
; decel to extrusion
M204 S2000
G1 X170.311 Y190.811
; end travel
G1 Z0.25
G1 E0.5 F1800
;TYPE:Internal perimeter
;WIDTH:0.5
G1 X138.689 Y190.811 E1.46702
G1 X138.689 Y159.189 E1.46703
G1 X170.311 Y159.189 E1.46702
G1 X170.311 Y190.811 E1.46703
G1 X170.757 Y191.257 F27000
G1 F1800
G1 X138.243 Y191.257 E1.50843
G1 X138.243 Y158.743 E1.50844
G1 X170.757 Y158.743 E1.50844
G1 X170.757 Y191.257 E1.50844
M73 P16 R13
G1 X171.204 Y191.704 F27000
G1 F1800
G1 X137.796 Y191.704 E1.54985
G1 X137.796 Y158.296 E1.54986
G1 X171.204 Y158.296 E1.54985
G1 X171.204 Y191.704 E1.54985
M204 S1000
G1 X171.65 Y192.15 F27000
;TYPE:External perimeter
G1 F1800
G1 X137.35 Y192.15 E1.59127
M73 P16 R12
G1 X137.35 Y157.85 E1.59127
G1 X171.65 Y157.85 E1.59126
G1 X171.65 Y192.15 E1.59127
;WIPE_START
M204 S4000
M73 P17 R12
G1 X171.304 Y191.95 F27000
;WIPE_END
; acceleration to travel
M204 S10000
G1 X169.617 Y164.822
; decel to extrusion
M204 S2000
G1 X169.275 Y159.323
; end travel
;TYPE:Solid infill
;WIDTH:0.49441
G1 F3600
G1 X170.177 Y160.225 E0.05854
G1 X170.177 Y160.856 F27000
G1 F3600
G1 X168.644 Y159.323 E0.09949
G1 X168.012 Y159.323 F27000
G1 F3600
