; generated by SuperSlicer 2.5.59.13 on 2025-07-27 at 20:28:37 UTC


;
;

;
;
; 

; external perimeters extrusion width = 0.50mm
; perimeters extrusion width = 0.50mm
; infill extrusion width = 0.50mm
; solid infill extrusion width = 0.50mm
; top infill extrusion width = 0.50mm
; first layer extrusion width = 0.50mm

; external perimeters extrusion width = 0.50mm
; perimeters extrusion width = 0.50mm
; infill extrusion width = 0.50mm
; solid infill extrusion width = 0.50mm
; top infill extrusion width = 0.50mm
; first layer extrusion width = 0.50mm

; external perimeters extrusion width = 0.50mm
; perimeters extrusion width = 0.50mm
; infill extrusion width = 0.50mm
; solid infill extrusion width = 0.50mm
; top infill extrusion width = 0.50mm
; first layer extrusion width = 0.50mm

; object:{"name":"3mmsquare","id":"3mmsquare.stl id:0 copy 0","object_center":[197.364779,151.732036,0.000000],"boundingbox_center":[197.364779,151.732036,1.500000],"boundingbox_size":[35.000000,35.000000,3.000000]}
EXCLUDE_OBJECT_DEFINE NAME=3mmsquare_stl_id_0_copy_0 CENTER=197.364779,151.732036 POLYGON=[[179.86,134.23],[214.86,134.23],[214.86,169.23],[179.86,169.23],[179.86,134.23]]
; object:{"name":"point45block","id":"point45block.stl id:1 copy 0","object_center":[190.500000,195.500000,0.000000],"boundingbox_center":[190.500000,195.500000,0.225000],"boundingbox_size":[35.000000,35.000000,0.450000]}
EXCLUDE_OBJECT_DEFINE NAME=point45block_stl_id_1_copy_0 CENTER=190.500000,195.500000 POLYGON=[[173.00,178.00],[208.00,178.00],[208.00,213.00],[173.00,213.00],[173.00,178.00]]
; object:{"name":"First_Layer_Patch-0","id":"First_Layer_Patch-0.25mm.stl id:2 copy 0","object_center":[154.500000,175.000001,0.000000],"boundingbox_center":[154.500000,175.000001,0.125000],"boundingbox_size":[25.000000,25.000000,0.250000]}
EXCLUDE_OBJECT_DEFINE NAME=First_Layer_Patch_0_25mm_stl_id_2_copy_0 CENTER=154.500000,175.000001 POLYGON=[[142.00,162.50],[167.00,162.50],[167.00,187.50],[142.00,187.50],[142.00,162.50]]
; plater:{"center":[178.432390,173.616018,0.000000],"boundingbox_center":[178.432390,173.616018,1.500000],"boundingbox_size":[72.864779,78.767964,3.000000]}

M73 P0 R12
M107
;TYPE:Custom
; custom gcode: start_gcode
PRINT_START  TOOL_TEMP=273 BED_TEMP=99 TOOL=0 CHAMBER=49
; custom gcode end: start_gcode

G21 ; set units to millimeters
G90 ; use absolute coordinates
M83 ; use relative distances for extrusion
; custom gcode: toolchange_gcode
0
0
; custom gcode end: toolchange_gcode
; custom gcode: start_filament_gcode
0
; custom gcode end: start_filament_gcode
M109 S273 T0 ; set temperature and wait for it to be reached
M104 S260 T0 ; set temperature
M104 S280 T1 ; set temperature
M104 S240 T2 ; set temperature
M109 S273 T0 ; set temperature and wait for it to be reached
M190 S99 ; set bed temperature and wait for it to be reached
;LAYER_CHANGE
;Z:0.25
;HEIGHT:0.25
; custom gcode: before_layer_gcode
0
; custom gcode end: before_layer_gcode

G1 Z0.25 F27000
; custom gcode: layer_gcode
0
VERIFY_TOOL_DETECTED ASYNC=1 
; custom gcode end: layer_gcode

G92 E0
M73 P2 R11
G1 E-0.5 F1800
G1 Z0.45 F27000
M204 S2000
G1 X139.154 Y158.678
G1 Z0.25
G1 E0.5 F1800


;TYPE:Skirt
;WIDTH:0.4
G1 X137.591 Y160.669 E0.09113
G1 X137.195 Y162.6 E0.07094
G1 X137.195 Y187.4 E0.89277
M73 P3 R11
G1 X137.742 Y189.651 E0.08338
G1 X138.98 Y191.184 E0.07095
G1 X169.946 Y216.718 E1.44484
G1 X171.136 Y217.442 E0.05015
G1 X173.067 Y217.838 E0.07095
G1 X207.933 Y217.838 E1.25516
G1 X210.721 Y216.969 E0.1051
G1 X212.084 Y215.546 E0.07095
G1 X212.778 Y213.702 E0.07094
G1 X219.709 Y170 E1.59286
G1 X219.77 Y169.232 E0.02775
G1 X219.77 Y134.232 E1.25996
G1 X219.46 Y132.517 E0.06273
G1 X218.414 Y130.847 E0.07094
G1 X216.795 Y129.723 E0.07095
G1 X214.865 Y129.327 E0.07094
G1 X179.865 Y129.327 E1.25996
M73 P4 R11
G1 X178.7 Y129.467 E0.04223
G1 X176.919 Y130.31 E0.07094
G1 X139.154 Y158.678 E1.70032
G1 X139.362 Y158.955 F27000
G1 F1800
G1 X137.937 Y160.742 E0.08229
G1 X137.541 Y162.6 E0.06837
G1 X137.541 Y187.4 E0.89277
G1 X138.018 Y189.43 E0.07508
G1 X139.2 Y190.917 E0.06837
G1 X170.167 Y216.45 E1.44484
G1 X171.209 Y217.096 E0.04415
G1 X173.067 Y217.492 E0.06836
G1 X207.933 Y217.492 E1.25516
G1 X210.409 Y216.761 E0.09293
G1 X211.754 Y215.42 E0.06837
G1 X212.436 Y213.647 E0.06837
G1 X219.367 Y169.946 E1.59286
G1 X219.423 Y169.232 E0.02579
G1 X219.423 Y134.232 E1.25995
M73 P5 R11
G1 X219.204 Y132.834 E0.05095
G1 X218.257 Y131.187 E0.06837
G1 X216.722 Y130.069 E0.06837
G1 X214.865 Y129.673 E0.06837
G1 X179.865 Y129.673 E1.25996
G1 X178.85 Y129.788 E0.03677
G1 X177.127 Y130.587 E0.06837
G1 X139.362 Y158.955 E1.70032
G1 E-0.5
M204 S4000
G1 Z0.45 F27000
; printing object 3mmsquare.stl id:0 copy 0
EXCLUDE_OBJECT_START NAME=3mmsquare_stl_id_0_copy_0
; acceleration to travel
M204 S10000
G1 X200.873 Y166.112
; decel to extrusion
M204 S2000
G1 X213.176 Y167.543
; end travel
G1 Z0.25
G1 E0.5 F1800


;TYPE:Internal perimeter
;WIDTH:0.5
G1 X181.554 Y167.543 E1.46702
G1 X181.554 Y135.921 E1.46703
G1 X213.176 Y135.921 E1.46702
M73 P6 R11
G1 X213.176 Y167.543 E1.46703
G1 X213.622 Y167.989 F27000
G1 F1800
G1 X181.107 Y167.989 E1.50843
G1 X181.107 Y135.475 E1.50844
G1 X213.622 Y135.475 E1.50844
G1 X213.622 Y167.989 E1.50844
G1 X214.068 Y168.436 F27000
G1 F1800
G1 X180.661 Y168.436 E1.54985
G1 X180.661 Y135.028 E1.54986
M73 P7 R11
G1 X214.068 Y135.028 E1.54985
G1 X214.068 Y168.436 E1.54985
M204 S1000
G1 X214.515 Y168.882 F27000


;TYPE:External perimeter
G1 F1800
G1 X180.215 Y168.882 E1.59127
G1 X180.215 Y134.582 E1.59127
G1 X214.515 Y134.582 E1.59126
G1 X214.515 Y168.882 E1.59127
;WIPE_START
M204 S4000
M73 P8 R11
G1 X214.168 Y168.682 F27000
;WIPE_END
; acceleration to travel
M204 S10000
G1 X212.482 Y141.554
; decel to extrusion
M204 S2000
G1 X212.14 Y136.055
; end travel


;TYPE:Solid infill
;WIDTH:0.49441
G1 F3600
G1 X213.042 Y136.957 E0.05854
G1 X213.042 Y137.588 F27000
G1 F3600
G1 X211.508 Y136.055 E0.09949
G1 X210.877 Y136.055 F27000
G1 F3600
G1 X213.042 Y138.22 E0.14044
G1 X213.042 Y138.851 F27000
G1 F3600
G1 X210.246 Y136.055 E0.18139
G1 X209.615 Y136.055 F27000
G1 F3600
G1 X213.042 Y139.482 E0.22234
G1 X213.042 Y140.113 F27000
G1 F3600
G1 X208.983 Y136.055 E0.26329
G1 X208.352 Y136.055 F27000
G1 F3600
G1 X213.042 Y140.745 E0.30425
G1 X213.042 Y141.376 F27000
G1 F3600
G1 X207.721 Y136.055 E0.3452
G1 X207.09 Y136.055 F27000
G1 F3600
G1 X213.042 Y142.007 E0.38615
G1 X213.042 Y142.638 F27000
G1 F3600
G1 X206.458 Y136.055 E0.4271
G1 X205.827 Y136.055 F27000
G1 F3600
G1 X213.042 Y143.27 E0.46805
G1 X213.042 Y143.901 F27000
G1 F3600
G1 X205.196 Y136.055 E0.50901
G1 X204.565 Y136.055 F27000
G1 F3600
G1 X213.042 Y144.532 E0.54995
G1 X213.042 Y145.163 F27000
G1 F3600
G1 X203.934 Y136.055 E0.59091
G1 X203.302 Y136.055 F27000
G1 F3600
G1 X213.042 Y145.795 E0.63186
G1 X213.042 Y146.426 F27000
G1 F3600
G1 X202.671 Y136.055 E0.67281
G1 X202.04 Y136.055 F27000
G1 F3600
G1 X213.042 Y147.057 E0.71376
G1 X213.042 Y147.688 F27000
G1 F3600
G1 X201.409 Y136.055 E0.75471
G1 X200.777 Y136.055 F27000
G1 F3600
G1 X213.042 Y148.319 E0.79567
G1 X213.042 Y148.951 F27000
G1 F3600
G1 X200.146 Y136.055 E0.83662
G1 X199.515 Y136.055 F27000
G1 F3600
G1 X213.042 Y149.582 E0.87757
G1 X213.042 Y150.213 F27000
G1 F3600
G1 X198.884 Y136.055 E0.91852
G1 X198.252 Y136.055 F27000
G1 F3600
G1 X213.042 Y150.844 E0.95947
G1 X213.042 Y151.476 F27000
G1 F3600
G1 X197.621 Y136.055 E1.00042
M73 P8 R10
G1 X196.99 Y136.055 F27000
G1 F3600
G1 X213.042 Y152.107 E1.04138
M73 P9 R10
G1 X213.042 Y152.738 F27000
G1 F3600
G1 X196.359 Y136.055 E1.08233
G1 X195.728 Y136.055 F27000
G1 F3600
G1 X213.042 Y153.369 E1.12327
G1 X213.042 Y154.001 F27000
G1 F3600
G1 X195.096 Y136.055 E1.16423
G1 X194.465 Y136.055 F27000
G1 F3600
G1 X213.042 Y154.632 E1.20519
G1 X213.042 Y155.263 F27000
G1 F3600
G1 X193.834 Y136.055 E1.24613
G1 X193.203 Y136.055 F27000
G1 F3600
G1 X213.042 Y155.894 E1.28709
G1 X213.042 Y156.525 F27000
G1 F3600
G1 X192.571 Y136.055 E1.32803
G1 X191.94 Y136.055 F27000
G1 F3600
G1 X213.042 Y157.157 E1.36899
G1 X213.042 Y157.788 F27000
G1 F3600
G1 X191.309 Y136.055 E1.40994
G1 X190.678 Y136.055 F27000
G1 F3600
G1 X213.042 Y158.419 E1.45089
G1 X213.042 Y159.05 F27000
G1 F3600
G1 X190.046 Y136.055 E1.49185
G1 X189.415 Y136.055 F27000
G1 F3600
G1 X213.042 Y159.682 E1.53279
G1 X213.042 Y160.313 F27000
G1 F3600
G1 X188.784 Y136.055 E1.57375
G1 X188.153 Y136.055 F27000
G1 F3600
G1 X213.042 Y160.944 E1.6147
M73 P10 R10
G1 X213.042 Y161.575 F27000
G1 F3600
G1 X187.521 Y136.055 E1.65565
G1 X186.89 Y136.055 F27000
G1 F3600
G1 X213.042 Y162.207 E1.6966
G1 X213.042 Y162.838 F27000
G1 F3600
G1 X186.259 Y136.055 E1.73755
G1 X185.628 Y136.055 F27000
G1 F3600
G1 X213.042 Y163.469 E1.77851
G1 X213.042 Y164.1 F27000
G1 F3600
G1 X184.997 Y136.055 E1.81945
G1 X184.365 Y136.055 F27000
G1 F3600
G1 X213.042 Y164.731 E1.86041
G1 X213.042 Y165.363 F27000
G1 F3600
G1 X183.734 Y136.055 E1.90136
G1 X183.103 Y136.055 F27000
G1 F3600
G1 X213.042 Y165.994 E1.94231
G1 X213.042 Y166.625 F27000
G1 F3600
G1 X182.472 Y136.055 E1.98326
G1 X181.84 Y136.055 F27000
G1 F3600
G1 X213.042 Y167.256 E2.02422
M73 P11 R10
G1 X212.563 Y167.409 F27000
G1 F3600
G1 X181.688 Y136.534 E2.00307
G1 X181.688 Y137.165 F27000
G1 F3600
G1 X211.932 Y167.409 E1.96212
G1 X211.301 Y167.409 F27000
G1 F3600
G1 X181.688 Y137.796 E1.92117
G1 X181.688 Y138.427 F27000
G1 F3600
G1 X210.67 Y167.409 E1.88022
G1 X210.038 Y167.409 F27000
G1 F3600
G1 X181.688 Y139.058 E1.83927
G1 X181.688 Y139.69 F27000
G1 F3600
G1 X209.407 Y167.409 E1.79832
G1 X208.776 Y167.409 F27000
G1 F3600
G1 X181.688 Y140.321 E1.75736
G1 X181.688 Y140.952 F27000
G1 F3600
G1 X208.145 Y167.409 E1.71641
G1 X207.513 Y167.409 F27000
G1 F3600
G1 X181.688 Y141.583 E1.67546
G1 X181.688 Y142.215 F27000
G1 F3600
G1 X206.882 Y167.409 E1.63451
M73 P12 R10
G1 X206.251 Y167.409 F27000
G1 F3600
G1 X181.688 Y142.846 E1.59356
G1 X181.688 Y143.477 F27000
G1 F3600
G1 X205.62 Y167.409 E1.5526
G1 X204.989 Y167.409 F27000
G1 F3600
G1 X181.688 Y144.108 E1.51166
G1 X181.688 Y144.74 F27000
G1 F3600
G1 X204.357 Y167.409 E1.4707
G1 X203.726 Y167.409 F27000
G1 F3600
G1 X181.688 Y145.371 E1.42975
G1 X181.688 Y146.002 F27000
G1 F3600
G1 X203.095 Y167.409 E1.3888
G1 X202.464 Y167.409 F27000
G1 F3600
G1 X181.688 Y146.633 E1.34785
G1 X181.688 Y147.264 F27000
G1 F3600
G1 X201.832 Y167.409 E1.30689
G1 X201.201 Y167.409 F27000
G1 F3600
G1 X181.688 Y147.896 E1.26595
G1 X181.688 Y148.527 F27000
G1 F3600
G1 X200.57 Y167.409 E1.22499
G1 X199.939 Y167.409 F27000
G1 F3600
G1 X181.688 Y149.158 E1.18404
G1 X181.688 Y149.789 F27000
G1 F3600
G1 X199.307 Y167.409 E1.14309
G1 X198.676 Y167.409 F27000
G1 F3600
G1 X181.688 Y150.421 E1.10214
M73 P13 R10
G1 X181.688 Y151.052 F27000
G1 F3600
G1 X198.045 Y167.409 E1.06118
G1 X197.414 Y167.409 F27000
G1 F3600
G1 X181.688 Y151.683 E1.02024
G1 X181.688 Y152.314 F27000
G1 F3600
G1 X196.782 Y167.409 E0.97928
G1 X196.151 Y167.409 F27000
G1 F3600
G1 X181.688 Y152.946 E0.93833
G1 X181.688 Y153.577 F27000
G1 F3600
G1 X195.52 Y167.409 E0.89738
G1 X194.889 Y167.409 F27000
G1 F3600
G1 X181.688 Y154.208 E0.85643
G1 X181.688 Y154.839 F27000
G1 F3600
G1 X194.258 Y167.409 E0.81548
G1 X193.626 Y167.409 F27000
G1 F3600
G1 X181.688 Y155.471 E0.77452
G1 X181.688 Y156.102 F27000
G1 F3600
G1 X192.995 Y167.409 E0.73357
G1 X192.364 Y167.409 F27000
G1 F3600
G1 X181.688 Y156.733 E0.69263
G1 X181.688 Y157.364 F27000
G1 F3600
G1 X191.733 Y167.409 E0.65166
G1 X191.101 Y167.409 F27000
G1 F3600
G1 X181.688 Y157.995 E0.61072
G1 X181.688 Y158.627 F27000
G1 F3600
G1 X190.47 Y167.409 E0.56977
G1 X189.839 Y167.409 F27000
G1 F3600
G1 X181.688 Y159.258 E0.52881
G1 X181.688 Y159.889 F27000
G1 F3600
G1 X189.208 Y167.409 E0.48787
G1 X188.576 Y167.409 F27000
G1 F3600
G1 X181.688 Y160.52 E0.44691
G1 X181.688 Y161.152 F27000
G1 F3600
G1 X187.945 Y167.409 E0.40596
G1 X187.314 Y167.409 F27000
G1 F3600
G1 X181.688 Y161.783 E0.36501
G1 X181.688 Y162.414 F27000
G1 F3600
G1 X186.683 Y167.409 E0.32405
G1 X186.052 Y167.409 F27000
G1 F3600
G1 X181.688 Y163.045 E0.28311
G1 X181.688 Y163.677 F27000
G1 F3600
G1 X185.42 Y167.409 E0.24215
G1 X184.789 Y167.409 F27000
G1 F3600
G1 X181.688 Y164.308 E0.2012
G1 X181.688 Y164.939 F27000
G1 F3600
G1 X184.158 Y167.409 E0.16025
G1 X183.527 Y167.409 F27000
G1 F3600
G1 X181.688 Y165.57 E0.1193
G1 X181.688 Y166.201 F27000
G1 F3600
G1 X182.895 Y167.409 E0.07835
G1 X182.264 Y167.409 F27000
G1 F3600
G1 X181.688 Y166.833 E0.03739
G1 E-10.000000 F1800
M204 S4000
G1 Z0.45 F27000
; custom gcode: end_filament_gcode
0
; custom gcode end: end_filament_gcode
M73 P14 R10
G1 X160.01 Y140.992
; custom gcode: toolchange_gcode
0
1
; custom gcode end: toolchange_gcode
; custom gcode: start_filament_gcode
1
; custom gcode end: start_filament_gcode
M109 S293 T1 ; set temperature and wait for it to be reached
G1 E-0.5 F1800
; stop printing object 3mmsquare.stl id:0 copy 0
EXCLUDE_OBJECT_END NAME=3mmsquare_stl_id_0_copy_0
; acceleration to travel
M204 S10000
G1 X178.052 Y136.792 F27000
; decel to extrusion
M204 S2000
G1 X177.335 Y130.864
; end travel
G1 Z0.25
G1 E0.5 F1800


;TYPE:Skirt
;WIDTH:0.4
G1 X139.57 Y159.232 E1.70032
G1 X138.283 Y160.819 E0.07354
G1 X137.888 Y162.6 E0.06569
G1 X137.888 Y187.4 E0.89277
G1 X138.297 Y189.212 E0.06687
G1 X139.42 Y190.65 E0.06568
G1 X170.387 Y216.183 E1.44485
G1 X171.285 Y216.75 E0.03824
G1 X173.067 Y217.146 E0.06569
G1 X207.933 Y217.146 E1.25516
G1 X210.1 Y216.546 E0.08091
G1 X211.424 Y215.291 E0.06569
G1 X212.094 Y213.593 E0.06569
G1 X219.025 Y169.892 E1.59286
M73 P15 R10
G1 X219.077 Y169.232 E0.02383
G1 X219.077 Y134.232 E1.25996
G1 X218.935 Y133.146 E0.03943
G1 X218.093 Y131.527 E0.06569
G1 X216.646 Y130.415 E0.06569
G1 X214.865 Y130.02 E0.06569
G1 X179.865 Y130.02 E1.25996
G1 X177.335 Y130.864 E0.09601
G1 X177.543 Y131.141 F27000
G1 F1800
G1 X139.778 Y159.509 E1.70032
G1 X138.629 Y160.898 E0.0649
G1 X138.234 Y162.6 E0.0629
G1 X138.234 Y187.4 E0.89277
G1 X138.579 Y188.995 E0.05875
G1 X139.641 Y190.383 E0.0629
G1 X170.607 Y215.916 E1.44484
G1 X171.365 Y216.404 E0.03244
G1 X173.067 Y216.799 E0.0629
G1 X207.933 Y216.799 E1.25516
M73 P16 R10
G1 X209.793 Y216.323 E0.06909
G1 X211.095 Y215.158 E0.0629
G1 X211.751 Y213.539 E0.0629
G1 X218.683 Y169.838 E1.59286
G1 X218.731 Y169.232 E0.02187
G1 X218.731 Y134.232 E1.25996
G1 X217.921 Y131.865 E0.09006
G1 X216.567 Y130.761 E0.06289
G1 X214.865 Y130.366 E0.0629
G1 X179.865 Y130.366 E1.25996
G1 X177.543 Y131.141 E0.08812
G1 E-0.5
M204 S4000
G1 Z0.45 F27000
; printing object point45block.stl id:1 copy 0
EXCLUDE_OBJECT_START NAME=point45block_stl_id_1_copy_0
; acceleration to travel
M204 S10000
G1 X201.516 Y197.949
; decel to extrusion
M204 S2000
G1 X206.311 Y211.311
; end travel
G1 Z0.25
G1 E0.5 F1800


;TYPE:Internal perimeter
;WIDTH:0.5
G1 X174.689 Y211.311 E1.46702
G1 X174.689 Y179.689 E1.46703
M73 P17 R10
G1 X206.311 Y179.689 E1.46702
M73 P17 R9
G1 X206.311 Y211.311 E1.46703
G1 X206.757 Y211.757 F27000
G1 F1800
G1 X174.243 Y211.757 E1.50843
G1 X174.243 Y179.243 E1.50844
G1 X206.757 Y179.243 E1.50844
G1 X206.757 Y211.757 E1.50844
G1 X207.204 Y212.204 F27000
G1 F1800
G1 X173.796 Y212.204 E1.54985
M73 P18 R9
G1 X173.796 Y178.796 E1.54986
G1 X207.204 Y178.796 E1.54985
G1 X207.204 Y212.204 E1.54985
M204 S1000
G1 X207.65 Y212.65 F27000


;TYPE:External perimeter
G1 F1800
G1 X173.35 Y212.65 E1.59127
G1 X173.35 Y178.35 E1.59127
G1 X207.65 Y178.35 E1.59126
M73 P19 R9
G1 X207.65 Y212.65 E1.59127
;WIPE_START
M204 S4000
G1 X207.304 Y212.45 F27000
;WIPE_END
; acceleration to travel
M204 S10000
G1 X205.617 Y185.322
; decel to extrusion
M204 S2000
G1 X205.275 Y179.823
; end travel


;TYPE:Solid infill
;WIDTH:0.49441
G1 F3600
G1 X206.177 Y180.725 E0.05854
G1 X206.177 Y181.356 F27000
G1 F3600
G1 X204.644 Y179.823 E0.09949
G1 X204.012 Y179.823 F27000
G1 F3600
G1 X206.177 Y181.988 E0.14044
G1 X206.177 Y182.619 F27000
G1 F3600
G1 X203.381 Y179.823 E0.18139
G1 X202.75 Y179.823 F27000
G1 F3600
G1 X206.177 Y183.25 E0.22234
G1 X206.177 Y183.881 F27000
G1 F3600
G1 X202.119 Y179.823 E0.26329
G1 X201.487 Y179.823 F27000
