; generated by SuperSlicer 2.5.59.13 on 2025-08-07 at 14:30:07 UTC
;
;
;
;
; 
; external perimeters extrusion width = 0.50mm
; perimeters extrusion width = 0.50mm
; infill extrusion width = 0.50mm
; solid infill extrusion width = 0.50mm
; top infill extrusion width = 0.50mm
; first layer extrusion width = 0.50mm
; external perimeters extrusion width = 0.50mm
; perimeters extrusion width = 0.50mm
; infill extrusion width = 0.50mm
; solid infill extrusion width = 0.50mm
; top infill extrusion width = 0.50mm
; first layer extrusion width = 0.50mm
; external perimeters extrusion width = 0.50mm
; perimeters extrusion width = 0.50mm
; infill extrusion width = 0.50mm
; solid infill extrusion width = 0.50mm
; top infill extrusion width = 0.50mm
; first layer extrusion width = 0.50mm
; object:{"name":"3mmsquare","id":"3mmsquare.stl id:0 copy 0","object_center":[188.089861,141.742257,0.000000],"boundingbox_center":[188.089861,141.742257,1.500000],"boundingbox_size":[35.000000,35.000000,3.000000]}
EXCLUDE_OBJECT_DEFINE NAME=3mmsquare_stl_id_0_copy_0 CENTER=188.089861,141.742257 POLYGON=[[170.59,124.24],[205.59,124.24],[205.59,159.24],[170.59,159.24],[170.59,124.24]]
; object:{"name":"First_Layer_Patch-0","id":"First_Layer_Patch-0.25mm.stl id:1 copy 0","object_center":[154.500000,175.000001,0.000000],"boundingbox_center":[154.500000,175.000001,0.125000],"boundingbox_size":[25.000000,25.000000,0.250000]}
EXCLUDE_OBJECT_DEFINE NAME=First_Layer_Patch_0_25mm_stl_id_1_copy_0 CENTER=154.500000,175.000001 POLYGON=[[142.00,162.50],[167.00,162.50],[167.00,187.50],[142.00,187.50],[142.00,162.50]]
; object:{"name":"point45block","id":"point45block.stl id:2 copy 0","object_center":[190.500000,195.500000,0.000000],"boundingbox_center":[190.500000,195.500000,0.225000],"boundingbox_size":[35.000000,35.000000,0.450000]}
EXCLUDE_OBJECT_DEFINE NAME=point45block_stl_id_2_copy_0 CENTER=190.500000,195.500000 POLYGON=[[173.00,178.00],[208.00,178.00],[208.00,213.00],[173.00,213.00],[173.00,178.00]]
; plater:{"center":[175.000000,168.621129,0.000000],"boundingbox_center":[175.000000,168.621129,1.500000],"boundingbox_size":[66.000000,88.757743,3.000000]}
M73 P0 R12
M107
;TYPE:Custom

; custom gcode: pre_start_gcode
T0 ; select T0
M140 S99 ; set bed temperature
M109 S150 T0 ; set T0 temperature and wait
M190 S99 ; set bed temperature and wait
; custom gcode end: pre_start_gcode

; custom gcode: start_gcode
PRINT_START BED_TEMP=99 TOOL_TEMP=273 ; call print_start
; custom gcode end: start_gcode


; custom gcode: preheat_section T1
M104 S293 T1 ; set tool temperature to preheat
; custom gcode end: preheat_section T1

; custom gcode: first_tool_temperature
M109 S273 T0 ; set T0 temperature and wait
; custom gcode end: first_tool_temperature

G21 ; set units to millimeters
G90 ; use absolute coordinates
M83 ; use relative distances for extrusion
;LAYER_CHANGE
;Z:0.25
;HEIGHT:0.25
G1 Z0.25 F27000
; custom gcode: layer_gcode
VERIFY_TOOL_DETECTED ASYNC=1 
; custom gcode end: layer_gcode
G92 E0
M73 P2 R11
G1 E-0.5 F1800
G1 Z0.45 F27000
M204 S2000
G1 X166.652 Y121.318
G1 Z0.25
G1 E0.5 F1800
;TYPE:Skirt
;WIDTH:0.4
G1 X138.162 Y159.675 E1.72005
M73 P3 R11
G1 X137.591 Y160.669 E0.04127
G1 X137.195 Y162.6 E0.07095
G1 X137.195 Y187.4 E0.89277
G1 X137.742 Y189.651 E0.08338
G1 X138.98 Y191.184 E0.07095
G1 X169.946 Y216.718 E1.44484
G1 X171.136 Y217.442 E0.05015
G1 X173.067 Y217.838 E0.07094
G1 X207.933 Y217.838 E1.25516
G1 X209.648 Y217.529 E0.06273
G1 X211.318 Y216.483 E0.07095
G1 X212.442 Y214.864 E0.07094
G1 X212.838 Y212.933 E0.07095
G1 X212.838 Y178.067 E1.25516
G1 X210.49 Y124.029 E1.94713
M73 P4 R11
G1 X210.185 Y122.527 E0.05515
G1 X209.139 Y120.857 E0.07095
G1 X207.52 Y119.733 E0.07095
G1 X205.59 Y119.337 E0.07094
G1 X170.59 Y119.337 E1.25996
G1 X168.121 Y120.004 E0.09205
G1 X166.652 Y121.318 E0.07095
G1 X166.93 Y121.524 F27000
G1 F1800
G1 X138.44 Y159.882 E1.72004
G1 X137.937 Y160.742 E0.03589
G1 X137.541 Y162.6 E0.06837
G1 X137.541 Y187.4 E0.89277
G1 X138.018 Y189.43 E0.07508
G1 X139.2 Y190.917 E0.06837
G1 X170.167 Y216.45 E1.44484
G1 X171.209 Y217.096 E0.04415
G1 X173.067 Y217.492 E0.06837
G1 X207.933 Y217.492 E1.25516
G1 X209.331 Y217.272 E0.05095
G1 X210.978 Y216.326 E0.06836
G1 X212.096 Y214.791 E0.06837
M73 P5 R11
G1 X212.492 Y212.933 E0.06837
G1 X212.492 Y178.067 E1.25516
G1 X210.144 Y124.044 E1.94659
G1 X209.929 Y122.844 E0.04388
G1 X208.982 Y121.197 E0.06837
G1 X207.447 Y120.079 E0.06837
G1 X205.59 Y119.684 E0.06837
G1 X170.59 Y119.684 E1.25996
G1 X168.355 Y120.269 E0.08315
G1 X166.93 Y121.524 E0.06836
G1 E-0.5
M204 S4000
G1 Z0.45 F27000
; printing object 3mmsquare.stl id:0 copy 0
EXCLUDE_OBJECT_START NAME=3mmsquare_stl_id_0_copy_0
; acceleration to travel
M204 S10000
G1 X197.739 Y151.548
; decel to extrusion
M204 S2000
G1 X203.901 Y157.553
; end travel
G1 Z0.25
G1 E0.5 F1800
;TYPE:Internal perimeter
;WIDTH:0.5
G1 X172.279 Y157.553 E1.46702
G1 X172.279 Y125.931 E1.46703
G1 X203.901 Y125.931 E1.46702
M73 P6 R11
G1 X203.901 Y157.553 E1.46703
G1 X204.347 Y158 F27000
G1 F1800
G1 X171.833 Y158 E1.50843
G1 X171.833 Y125.485 E1.50844
G1 X204.347 Y125.485 E1.50844
G1 X204.347 Y158 E1.50844
G1 X204.794 Y158.446 F27000
G1 F1800
G1 X171.386 Y158.446 E1.54985
M73 P7 R11
G1 X171.386 Y125.039 E1.54986
G1 X204.794 Y125.039 E1.54985
G1 X204.794 Y158.446 E1.54985
M204 S1000
G1 X205.24 Y158.892 F27000
;TYPE:External perimeter
G1 F1800
G1 X170.94 Y158.892 E1.59127
G1 X170.94 Y124.592 E1.59127
G1 X205.24 Y124.592 E1.59126
G1 X205.24 Y158.892 E1.59127
;WIPE_START
M204 S4000
M73 P8 R11
G1 X204.893 Y158.692 F27000
;WIPE_END
; acceleration to travel
M204 S10000
G1 X203.207 Y131.564
; decel to extrusion
M204 S2000
G1 X202.865 Y126.065
; end travel
;TYPE:Solid infill
;WIDTH:0.49441

; custom gcode: preheat_section T2
M104 S253 T2 ; set tool temperature to preheat
; custom gcode end: preheat_section T2

G1 F3600
G1 X203.767 Y126.967 E0.05854
G1 X203.767 Y127.599 F27000
G1 F3600
G1 X202.233 Y126.065 E0.09949
G1 X201.602 Y126.065 F27000
G1 F3600
G1 X203.767 Y128.23 E0.14044
G1 X203.767 Y128.861 F27000
G1 F3600
G1 X200.971 Y126.065 E0.18139
G1 X200.34 Y126.065 F27000
G1 F3600
G1 X203.767 Y129.492 E0.22234
G1 X203.767 Y130.124 F27000
G1 F3600
G1 X199.708 Y126.065 E0.26329
G1 X199.077 Y126.065 F27000
G1 F3600
G1 X203.767 Y130.755 E0.30425
G1 X203.767 Y131.386 F27000
G1 F3600
G1 X198.446 Y126.065 E0.3452
G1 X197.815 Y126.065 F27000
G1 F3600
G1 X203.767 Y132.017 E0.38615
G1 X203.767 Y132.649 F27000
G1 F3600
G1 X197.184 Y126.065 E0.4271
G1 X196.552 Y126.065 F27000
G1 F3600
G1 X203.767 Y133.28 E0.46805
G1 X203.767 Y133.911 F27000
G1 F3600
G1 X195.921 Y126.065 E0.50901
G1 X195.29 Y126.065 F27000
G1 F3600
G1 X203.767 Y134.542 E0.54995
G1 X203.767 Y135.173 F27000
G1 F3600
G1 X194.659 Y126.065 E0.59091
G1 X194.027 Y126.065 F27000
G1 F3600
G1 X203.767 Y135.805 E0.63186
G1 X203.767 Y136.436 F27000
G1 F3600
G1 X193.396 Y126.065 E0.67281
G1 X192.765 Y126.065 F27000
G1 F3600
G1 X203.767 Y137.067 E0.71376
G1 X203.767 Y137.698 F27000
G1 F3600
G1 X192.134 Y126.065 E0.75471
G1 X191.502 Y126.065 F27000
G1 F3600
G1 X203.767 Y138.33 E0.79567
G1 X203.767 Y138.961 F27000
G1 F3600
G1 X190.871 Y126.065 E0.83662
G1 X190.24 Y126.065 F27000
G1 F3600
G1 X203.767 Y139.592 E0.87757
G1 X203.767 Y140.223 F27000
G1 F3600
G1 X189.609 Y126.065 E0.91852
G1 X188.978 Y126.065 F27000
G1 F3600
G1 X203.767 Y140.855 E0.95947
G1 X203.767 Y141.486 F27000
G1 F3600
G1 X188.346 Y126.065 E1.00042
G1 X187.715 Y126.065 F27000
G1 F3600
G1 X203.767 Y142.117 E1.04138
M73 P9 R11
G1 X203.767 Y142.748 F27000
G1 F3600
G1 X187.084 Y126.065 E1.08233
G1 X186.453 Y126.065 F27000
G1 F3600
G1 X203.767 Y143.38 E1.12327
G1 X203.767 Y144.011 F27000
G1 F3600
G1 X185.821 Y126.065 E1.16423
G1 X185.19 Y126.065 F27000
G1 F3600
G1 X203.767 Y144.642 E1.20519
G1 X203.767 Y145.273 F27000
G1 F3600
G1 X184.559 Y126.065 E1.24613
G1 X183.928 Y126.065 F27000
G1 F3600
G1 X203.767 Y145.904 E1.28709
G1 X203.767 Y146.536 F27000
G1 F3600
G1 X183.296 Y126.065 E1.32803
G1 X182.665 Y126.065 F27000
G1 F3600
G1 X203.767 Y147.167 E1.36899
M73 P9 R10
G1 X203.767 Y147.798 F27000
G1 F3600
G1 X182.034 Y126.065 E1.40994
G1 X181.403 Y126.065 F27000
G1 F3600
G1 X203.767 Y148.429 E1.45089
G1 X203.767 Y149.061 F27000
G1 F3600
G1 X180.771 Y126.065 E1.49185
G1 X180.14 Y126.065 F27000
G1 F3600
G1 X203.767 Y149.692 E1.53279
G1 X203.767 Y150.323 F27000
G1 F3600
G1 X179.509 Y126.065 E1.57375
G1 X178.878 Y126.065 F27000
G1 F3600
G1 X203.767 Y150.954 E1.6147
M73 P10 R10
G1 X203.767 Y151.586 F27000
G1 F3600
G1 X178.247 Y126.065 E1.65565
G1 X177.615 Y126.065 F27000
G1 F3600
G1 X203.767 Y152.217 E1.6966
G1 X203.767 Y152.848 F27000
G1 F3600
G1 X176.984 Y126.065 E1.73755
G1 X176.353 Y126.065 F27000
G1 F3600
G1 X203.767 Y153.479 E1.77851
G1 X203.767 Y154.11 F27000
G1 F3600
G1 X175.722 Y126.065 E1.81945
G1 X175.09 Y126.065 F27000
G1 F3600
G1 X203.767 Y154.742 E1.86041
G1 X203.767 Y155.373 F27000
G1 F3600
G1 X174.459 Y126.065 E1.90136
G1 X173.828 Y126.065 F27000
G1 F3600
G1 X203.767 Y156.004 E1.94231
G1 X203.767 Y156.635 F27000
G1 F3600
G1 X173.197 Y126.065 E1.98326
G1 X172.565 Y126.065 F27000
G1 F3600
G1 X203.767 Y157.267 E2.02422
M73 P11 R10
G1 X203.288 Y157.419 F27000
G1 F3600
G1 X172.413 Y126.544 E2.00307
G1 X172.413 Y127.175 F27000
G1 F3600
G1 X202.657 Y157.419 E1.96212
G1 X202.026 Y157.419 F27000
G1 F3600
G1 X172.413 Y127.806 E1.92117
G1 X172.413 Y128.437 F27000
G1 F3600
G1 X201.395 Y157.419 E1.88022
G1 X200.763 Y157.419 F27000
G1 F3600
G1 X172.413 Y129.069 E1.83927
G1 X172.413 Y129.7 F27000
G1 F3600
G1 X200.132 Y157.419 E1.79832
G1 X199.501 Y157.419 F27000
G1 F3600
G1 X172.413 Y130.331 E1.75736
G1 X172.413 Y130.962 F27000
G1 F3600
G1 X198.87 Y157.419 E1.71641
G1 X198.239 Y157.419 F27000
G1 F3600
G1 X172.413 Y131.594 E1.67546
G1 X172.413 Y132.225 F27000
G1 F3600
G1 X197.607 Y157.419 E1.63451
M73 P12 R10
G1 X196.976 Y157.419 F27000
G1 F3600
G1 X172.413 Y132.856 E1.59356
G1 X172.413 Y133.487 F27000
G1 F3600
G1 X196.345 Y157.419 E1.5526
G1 X195.714 Y157.419 F27000
G1 F3600
G1 X172.413 Y134.119 E1.51166
G1 X172.413 Y134.75 F27000
G1 F3600
G1 X195.082 Y157.419 E1.4707
G1 X194.451 Y157.419 F27000
G1 F3600
G1 X172.413 Y135.381 E1.42975
G1 X172.413 Y136.012 F27000
G1 F3600
G1 X193.82 Y157.419 E1.3888
G1 X193.189 Y157.419 F27000
G1 F3600
G1 X172.413 Y136.643 E1.34785
G1 X172.413 Y137.275 F27000
G1 F3600
G1 X192.557 Y157.419 E1.30689
G1 X191.926 Y157.419 F27000
G1 F3600
G1 X172.413 Y137.906 E1.26595
G1 X172.413 Y138.537 F27000
G1 F3600
G1 X191.295 Y157.419 E1.22499
G1 X190.664 Y157.419 F27000
G1 F3600
G1 X172.413 Y139.168 E1.18404
G1 X172.413 Y139.8 F27000
G1 F3600
G1 X190.032 Y157.419 E1.14309
G1 X189.401 Y157.419 F27000
G1 F3600
G1 X172.413 Y140.431 E1.10214
M73 P13 R10
G1 X172.413 Y141.062 F27000
G1 F3600
G1 X188.77 Y157.419 E1.06118
G1 X188.139 Y157.419 F27000
G1 F3600
G1 X172.413 Y141.693 E1.02024
G1 X172.413 Y142.325 F27000
G1 F3600
G1 X187.508 Y157.419 E0.97928
G1 X186.876 Y157.419 F27000
G1 F3600
G1 X172.413 Y142.956 E0.93833
G1 X172.413 Y143.587 F27000
G1 F3600
G1 X186.245 Y157.419 E0.89738
G1 X185.614 Y157.419 F27000
G1 F3600
G1 X172.413 Y144.218 E0.85643
G1 X172.413 Y144.849 F27000
G1 F3600
G1 X184.983 Y157.419 E0.81548
G1 X184.351 Y157.419 F27000
G1 F3600
G1 X172.413 Y145.481 E0.77452
G1 X172.413 Y146.112 F27000
G1 F3600
G1 X183.72 Y157.419 E0.73357
G1 X183.089 Y157.419 F27000
G1 F3600
G1 X172.413 Y146.743 E0.69263
G1 X172.413 Y147.374 F27000
G1 F3600
G1 X182.458 Y157.419 E0.65166
G1 X181.826 Y157.419 F27000
G1 F3600
G1 X172.413 Y148.006 E0.61072
G1 X172.413 Y148.637 F27000
G1 F3600
G1 X181.195 Y157.419 E0.56977
G1 X180.564 Y157.419 F27000
G1 F3600
G1 X172.413 Y149.268 E0.52881
G1 X172.413 Y149.899 F27000
G1 F3600
G1 X179.933 Y157.419 E0.48787
G1 X179.302 Y157.419 F27000
G1 F3600
G1 X172.413 Y150.531 E0.44691
G1 X172.413 Y151.162 F27000
G1 F3600
G1 X178.67 Y157.419 E0.40596
G1 X178.039 Y157.419 F27000
G1 F3600
G1 X172.413 Y151.793 E0.36501
G1 X172.413 Y152.424 F27000
G1 F3600
G1 X177.408 Y157.419 E0.32405
G1 X176.777 Y157.419 F27000
G1 F3600
G1 X172.413 Y153.056 E0.28311
G1 X172.413 Y153.687 F27000
G1 F3600
G1 X176.145 Y157.419 E0.24215
G1 X175.514 Y157.419 F27000
G1 F3600
G1 X172.413 Y154.318 E0.2012
G1 X172.413 Y154.949 F27000
G1 F3600
G1 X174.883 Y157.419 E0.16025
G1 X174.252 Y157.419 F27000
G1 F3600
G1 X172.413 Y155.58 E0.1193
G1 X172.413 Y156.212 F27000
G1 F3600
G1 X173.62 Y157.419 E0.07835
G1 X172.989 Y157.419 F27000
G1 F3600
G1 X172.413 Y156.843 E0.03739
G1 E-10.000000 F1800
M204 S4000
G1 Z0.45 F27000
G1 X148.614 Y142.896

; custom gcode: toolchange_gcode
M104 S293 T1 ; set tool temperature
T1 ; select tool 1
VERIFY_TOOL_DETECTED ASYNC=1 ; verify tool detected
M104 S0 T0 ; turn off tool heater for now as it will not be used again soon
; custom gcode end: toolchange_gcode

M73 P14 R10
G1 E-0.5 F1800
; stop printing object 3mmsquare.stl id:0 copy 0
EXCLUDE_OBJECT_END NAME=3mmsquare_stl_id_0_copy_0
; acceleration to travel
M204 S10000
G1 X144.271 Y159.554 F27000
; decel to extrusion
M204 S2000
G1 X138.718 Y160.088
; end travel
G1 Z0.25
G1 E0.5 F1800
;TYPE:Skirt
;WIDTH:0.4
G1 X137.888 Y162.6 E0.09523
G1 X137.888 Y187.4 E0.89277
G1 X138.297 Y189.212 E0.06687
G1 X139.42 Y190.65 E0.06569
G1 X170.387 Y216.183 E1.44484
G1 X171.285 Y216.75 E0.03824
G1 X173.067 Y217.146 E0.06569
G1 X207.933 Y217.146 E1.25516
G1 X209.019 Y217.003 E0.03943
G1 X210.639 Y216.162 E0.06569
G1 X211.75 Y214.715 E0.06569
G1 X212.146 Y212.933 E0.06569
G1 X212.146 Y178.067 E1.25516
G1 X209.798 Y124.059 E1.94605
G1 X208.818 Y121.537 E0.0974
M73 P15 R10
G1 X207.371 Y120.425 E0.06569
G1 X205.59 Y120.03 E0.06569
G1 X170.59 Y120.03 E1.25996
G1 X168.588 Y120.536 E0.07434
G1 X167.208 Y121.731 E0.06569
G1 X138.718 Y160.088 E1.72005
G1 X138.997 Y160.295 F27000
G1 F1800
G1 X138.234 Y162.6 E0.0874
G1 X138.234 Y187.4 E0.89277
G1 X138.579 Y188.995 E0.05875
G1 X139.641 Y190.383 E0.0629
G1 X170.607 Y215.916 E1.44484
G1 X171.365 Y216.404 E0.03244
G1 X173.067 Y216.799 E0.0629
G1 X207.933 Y216.799 E1.25516
G1 X210.301 Y215.99 E0.09006
G1 X211.404 Y214.635 E0.0629
G1 X211.799 Y212.933 E0.0629
G1 X211.799 Y178.067 E1.25516
M73 P16 R10
G1 X209.452 Y124.074 E1.9455
G1 X208.646 Y121.875 E0.08431
G1 X207.292 Y120.771 E0.0629
G1 X205.59 Y120.376 E0.0629
G1 X170.59 Y120.376 E1.25996
G1 X168.818 Y120.806 E0.06563
G1 X167.486 Y121.937 E0.06289
G1 X138.997 Y160.295 E1.72005
G1 E-0.5
M204 S4000
G1 Z0.45 F27000
; printing object First_Layer_Patch-0.25mm.stl id:1 copy 0
EXCLUDE_OBJECT_START NAME=First_Layer_Patch_0_25mm_stl_id_1_copy_0
; acceleration to travel
M204 S10000
G1 X164.136 Y184.709
; decel to extrusion
M204 S1000
G1 X166.65 Y187.15
; end travel
G1 Z0.25
G1 E0.5 F1800
;TYPE:External perimeter
;WIDTH:0.5
G1 X142.35 Y187.15 E1.12734
G1 X142.35 Y162.85 E1.12734
M73 P17 R10
G1 X166.65 Y162.85 E1.12734
G1 X166.65 Y187.15 E1.12734
;WIPE_START
M204 S4000
G1 X166.304 Y186.95 F27000
;WIPE_END
; acceleration to travel
M204 S10000
G1 X165.73 Y167.023
; decel to extrusion
M204 S2000
G1 X165.614 Y162.984
; end travel
;TYPE:Solid infill
;WIDTH:0.492744
G1 F3600
G1 X166.516 Y163.886 E0.05834
G1 X166.516 Y164.517 F27000
G1 F3600
G1 X164.983 Y162.984 E0.09916
G1 X164.351 Y162.984 F27000
G1 F3600
G1 X166.516 Y165.149 E0.13996
G1 X166.516 Y165.78 F27000
G1 F3600
G1 X163.72 Y162.984 E0.18078
G1 X163.089 Y162.984 F27000
G1 F3600
G1 X166.516 Y166.411 E0.2216
G1 X166.516 Y167.042 F27000
G1 F3600
G1 X162.458 Y162.984 E0.2624
G1 X161.826 Y162.984 F27000
G1 F3600
G1 X166.516 Y167.674 E0.30322
G1 X166.516 Y168.305 F27000
G1 F3600
G1 X161.195 Y162.984 E0.34404
G1 X160.564 Y162.984 F27000
G1 F3600
G1 X166.516 Y168.936 E0.38484
G1 X166.516 Y169.567 F27000
G1 F3600
G1 X159.933 Y162.984 E0.42567
G1 X159.302 Y162.984 F27000
G1 F3600
G1 X166.516 Y170.198 E0.46647
G1 X166.516 Y170.83 F27000
G1 F3600
G1 X158.67 Y162.984 E0.50729
G1 X158.039 Y162.984 F27000
G1 F3600
G1 X166.516 Y171.461 E0.5481
G1 X166.516 Y172.092 F27000
G1 F3600
G1 X157.408 Y162.984 E0.58892
G1 X156.777 Y162.984 F27000
G1 F3600
G1 X166.516 Y172.723 E0.62973
