; generated by SuperSlicer 2.5.59.13 on 2025-07-26 at 19:05:17 UTC


;
;

;
;
; 

; external perimeters extrusion width = 0.50mm
; perimeters extrusion width = 0.50mm
; infill extrusion width = 0.50mm
; solid infill extrusion width = 0.50mm
; top infill extrusion width = 0.50mm
; first layer extrusion width = 0.50mm

; external perimeters extrusion width = 0.50mm
; perimeters extrusion width = 0.50mm
; infill extrusion width = 0.50mm
; solid infill extrusion width = 0.50mm
; top infill extrusion width = 0.50mm
; first layer extrusion width = 0.50mm

; external perimeters extrusion width = 0.50mm
; perimeters extrusion width = 0.50mm
; infill extrusion width = 0.50mm
; solid infill extrusion width = 0.50mm
; top infill extrusion width = 0.50mm
; first layer extrusion width = 0.50mm


M73 P0 R36
M107
;TYPE:Custom
; custom gcode: start_gcode
; 1234561 - start g-code
; custom gcode end: start_gcode

G21 ; set units to millimeters
G90 ; use absolute coordinates
M83 ; use relative distances for extrusion
; custom gcode: toolchange_gcode
; 9398578 - tool change g-code

next_extruder = 0
previous_extruder = -1

T0
; custom gcode end: toolchange_gcode
; custom gcode: start_filament_gcode
; 3323234 - start black g-code
; custom gcode end: start_filament_gcode
M109 S273 T0 ; set temperature and wait for it to be reached
M104 S260 T0 ; set temperature
M104 S280 T1 ; set temperature
M104 S240 T2 ; set temperature
M109 S273 T0 ; set temperature and wait for it to be reached
M190 S99 ; set bed temperature and wait for it to be reached
;LAYER_CHANGE
;Z:0.25
;HEIGHT:0.25
; custom gcode: before_layer_gcode
; 5456456 - before layer change g-code
; custom gcode end: before_layer_gcode

G1 Z0.25 F27000
; custom gcode: layer_gcode
; 6786875 - after layer change g-code
; custom gcode end: layer_gcode

G92 E0
G1 E-0.5 F1800
G1 Z0.45 F27000
M204 S2000
G1 X133.615 Y133.45
G1 Z0.25
G1 E0.5 F1800
; custom gcode: feature_gcode
; 6754523 - between extrusion role change g-code
; custom gcode end: feature_gcode

;TYPE:Skirt
;WIDTH:0.4
G1 X132.491 Y135.069 E0.07095
G1 X132.095 Y137.000000 E0.07094
G1 X132.095 Y213.000000 E2.73591
M73 P1 R36
G1 X132.405 Y214.715 E0.06273
G1 X133.45 Y216.385 E0.07095
G1 X135.069 Y217.509 E0.07094
G1 X137.000000 Y217.905 E0.07095
G1 X172.000000 Y217.905 E1.25996
G1 X174.194 Y217.387 E0.08113
G1 X215.194 Y196.887 E1.65017
G1 X216.385 Y196.05 E0.05243
G1 X217.509 Y194.431 E0.07095
G1 X217.905 Y192.5 E0.07094
G1 X217.905 Y157.5 E1.25996
G1 X217.689 Y156.06 E0.05244
G1 X216.743 Y154.33 E0.07094
G1 X215.194 Y153.113 E0.07095
G1 X174.194 Y132.613 E1.65016
G1 X172.000000 Y132.095 E0.08114
G1 X137.000000 Y132.095 E1.25996
G1 X135.285 Y132.405 E0.06273
G1 X133.615 Y133.45 E0.07094
G1 X133.955 Y133.607 F27000
G1 F1800
G1 X132.837 Y135.142 E0.06837
G1 X132.441 Y137.000000 E0.06837
G1 X132.441 Y213.000000 E2.73591
G1 X132.661 Y214.398 E0.05095
G1 X133.607 Y216.045 E0.06837
G1 X135.142 Y217.163 E0.06836
G1 X137.000000 Y217.559 E0.06837
G1 X172.000000 Y217.559 E1.25996
G1 X174.039 Y217.077 E0.07541
G1 X215.039 Y196.577 E1.65016
G1 X216.045 Y195.893 E0.04381
G1 X217.163 Y194.358 E0.06837
G1 X217.559 Y192.5 E0.06837
G1 X217.559 Y157.5 E1.25996
M73 P1 R35
G1 X217.396 Y156.294 E0.04381
G1 X216.523 Y154.607 E0.06837
G1 X215.039 Y153.423 E0.06837
G1 X174.039 Y132.923 E1.65016
G1 X172.000000 Y132.441 E0.07541
G1 X137.000000 Y132.441 E1.25996
G1 X135.602 Y132.661 E0.05095
G1 X133.955 Y133.607 E0.06837
G1 E-0.5
M204 S4000
G1 Z0.45 F27000
; acceleration to travel
M204 S10000
G1 X164.252 Y164.194
; decel to extrusion
M204 S2000
G1 X170.311 Y170.311
; end travel
G1 Z0.25
G1 E0.5 F1800
; custom gcode: feature_gcode
; 6754523 - between extrusion role change g-code
; custom gcode end: feature_gcode

;TYPE:Internal perimeter
;WIDTH:0.5
G1 X138.689 Y170.311 E1.46702
G1 X138.689 Y138.689 E1.46703
G1 X170.311 Y138.689 E1.46702
M73 P2 R35
G1 X170.311 Y170.311 E1.46703
G1 X170.757 Y170.757 F27000
G1 F1800
G1 X138.243 Y170.757 E1.50843
G1 X138.243 Y138.243 E1.50844
G1 X170.757 Y138.243 E1.50844
G1 X170.757 Y170.757 E1.50844
G1 X171.204 Y171.204 F27000
G1 F1800
G1 X137.796 Y171.204 E1.54985
G1 X137.796 Y137.796 E1.54986
G1 X171.204 Y137.796 E1.54985
G1 X171.204 Y171.204 E1.54985
M204 S1000
G1 X171.65 Y171.65 F27000
; custom gcode: feature_gcode
; 6754523 - between extrusion role change g-code
; custom gcode end: feature_gcode

;TYPE:External perimeter
G1 F1800
G1 X137.35 Y171.65 E1.59127
G1 X137.35 Y137.35 E1.59127
G1 X171.65 Y137.35 E1.59126
G1 X171.65 Y171.65 E1.59127
;WIPE_START
M204 S4000
G1 X171.304 Y171.45 F27000
;WIPE_END
; acceleration to travel
M204 S10000
G1 X169.617 Y144.322
; decel to extrusion
M204 S2000
G1 X169.275 Y138.823
; end travel
; custom gcode: feature_gcode
; 6754523 - between extrusion role change g-code
; custom gcode end: feature_gcode

;TYPE:Solid infill
;WIDTH:0.49441
G1 F3600
G1 X170.177 Y139.725 E0.05854
G1 X170.177 Y140.356 F27000
G1 F3600
G1 X168.644 Y138.823 E0.09949
G1 X168.012 Y138.823 F27000
G1 F3600
G1 X170.177 Y140.988 E0.14044
G1 X170.177 Y141.619 F27000
G1 F3600
G1 X167.381 Y138.823 E0.18139
G1 X166.75 Y138.823 F27000
G1 F3600
G1 X170.177 Y142.25 E0.22234
G1 X170.177 Y142.881 F27000
G1 F3600
G1 X166.119 Y138.823 E0.26329
G1 X165.487 Y138.823 F27000
G1 F3600
G1 X170.177 Y143.513 E0.30425
G1 X170.177 Y144.144 F27000
G1 F3600
G1 X164.856 Y138.823 E0.3452
G1 X164.225 Y138.823 F27000
G1 F3600
G1 X170.177 Y144.775 E0.38615
G1 X170.177 Y145.406 F27000
G1 F3600
G1 X163.594 Y138.823 E0.4271
G1 X162.962 Y138.823 F27000
G1 F3600
G1 X170.177 Y146.038 E0.46805
G1 X170.177 Y146.669 F27000
G1 F3600
G1 X162.331 Y138.823 E0.50901
G1 X161.7 Y138.823 F27000
G1 F3600
G1 X170.177 Y147.3 E0.54995
G1 X170.177 Y147.931 F27000
G1 F3600
G1 X161.069 Y138.823 E0.59091
G1 X160.438 Y138.823 F27000
G1 F3600
G1 X170.177 Y148.562 E0.63186
G1 X170.177 Y149.194 F27000
G1 F3600
G1 X159.806 Y138.823 E0.67281
G1 X159.175 Y138.823 F27000
G1 F3600
G1 X170.177 Y149.825 E0.71376
G1 X170.177 Y150.456 F27000
G1 F3600
G1 X158.544 Y138.823 E0.75471
G1 X157.913 Y138.823 F27000
G1 F3600
G1 X170.177 Y151.087 E0.79567
G1 X170.177 Y151.719 F27000
G1 F3600
G1 X157.281 Y138.823 E0.83662
G1 X156.65 Y138.823 F27000
G1 F3600
G1 X170.177 Y152.35 E0.87757
G1 X170.177 Y152.981 F27000
G1 F3600
G1 X156.019 Y138.823 E0.91852
G1 X155.388 Y138.823 F27000
G1 F3600
G1 X170.177 Y153.612 E0.95947
G1 X170.177 Y154.244 F27000
G1 F3600
G1 X154.756 Y138.823 E1.00042
G1 X154.125 Y138.823 F27000
G1 F3600
G1 X170.177 Y154.875 E1.04138
M73 P3 R35
G1 X170.177 Y155.506 F27000
G1 F3600
G1 X153.494 Y138.823 E1.08233
G1 X152.863 Y138.823 F27000
G1 F3600
G1 X170.177 Y156.137 E1.12327
G1 X170.177 Y156.768 F27000
G1 F3600
G1 X152.232 Y138.823 E1.16423
G1 X151.6 Y138.823 F27000
G1 F3600
G1 X170.177 Y157.4 E1.20519
G1 X170.177 Y158.031 F27000
G1 F3600
G1 X150.969 Y138.823 E1.24613
G1 X150.338 Y138.823 F27000
G1 F3600
G1 X170.177 Y158.662 E1.28709
G1 X170.177 Y159.293 F27000
G1 F3600
G1 X149.707 Y138.823 E1.32803
G1 X149.075 Y138.823 F27000
G1 F3600
G1 X170.177 Y159.925 E1.36899
G1 X170.177 Y160.556 F27000
G1 F3600
G1 X148.444 Y138.823 E1.40994
G1 X147.813 Y138.823 F27000
G1 F3600
G1 X170.177 Y161.187 E1.45089
G1 X170.177 Y161.818 F27000
G1 F3600
G1 X147.182 Y138.823 E1.49185
G1 X146.55 Y138.823 F27000
G1 F3600
G1 X170.177 Y162.45 E1.53279
G1 X170.177 Y163.081 F27000
G1 F3600
G1 X145.919 Y138.823 E1.57375
G1 X145.288 Y138.823 F27000
G1 F3600
G1 X170.177 Y163.712 E1.6147
G1 X170.177 Y164.343 F27000
G1 F3600
G1 X144.657 Y138.823 E1.65565
G1 X144.025 Y138.823 F27000
G1 F3600
G1 X170.177 Y164.975 E1.6966
G1 X170.177 Y165.606 F27000
G1 F3600
G1 X143.394 Y138.823 E1.73755
G1 X142.763 Y138.823 F27000
G1 F3600
G1 X170.177 Y166.237 E1.77851
G1 X170.177 Y166.868 F27000
G1 F3600
G1 X142.132 Y138.823 E1.81945
G1 X141.501 Y138.823 F27000
G1 F3600
G1 X170.177 Y167.499 E1.86041
G1 X170.177 Y168.131 F27000
G1 F3600
G1 X140.869 Y138.823 E1.90136
G1 X140.238 Y138.823 F27000
G1 F3600
G1 X170.177 Y168.762 E1.94231
G1 X170.177 Y169.393 F27000
G1 F3600
G1 X139.607 Y138.823 E1.98326
G1 X138.976 Y138.823 F27000
G1 F3600
G1 X170.177 Y170.024 E2.02422
G1 X169.699 Y170.177 F27000
G1 F3600
G1 X138.823 Y139.301 E2.00307
G1 X138.823 Y139.933 F27000
G1 F3600
G1 X169.067 Y170.177 E1.96212
G1 X168.436 Y170.177 F27000
G1 F3600
G1 X138.823 Y140.564 E1.92117
G1 X138.823 Y141.195 F27000
G1 F3600
G1 X167.805 Y170.177 E1.88022
G1 X167.174 Y170.177 F27000
G1 F3600
G1 X138.823 Y141.826 E1.83927
G1 X138.823 Y142.458 F27000
G1 F3600
G1 X166.542 Y170.177 E1.79832
G1 X165.911 Y170.177 F27000
G1 F3600
G1 X138.823 Y143.089 E1.75736
G1 X138.823 Y143.72 F27000
G1 F3600
G1 X165.28 Y170.177 E1.71641
G1 X164.649 Y170.177 F27000
G1 F3600
G1 X138.823 Y144.351 E1.67546
M73 P5 R34
G1 X138.823 Y144.983 F27000
G1 F3600
G1 X164.017 Y170.177 E1.63451
G1 X163.386 Y170.177 F27000
G1 F3600
G1 X138.823 Y145.614 E1.59356
G1 X138.823 Y146.245 F27000
G1 F3600
G1 X162.755 Y170.177 E1.5526
G1 X162.124 Y170.177 F27000
G1 F3600
G1 X138.823 Y146.876 E1.51166
G1 X138.823 Y147.508 F27000
G1 F3600
G1 X161.492 Y170.177 E1.4707
G1 X160.861 Y170.177 F27000
G1 F3600
G1 X138.823 Y148.139 E1.42975
G1 X138.823 Y148.77 F27000
G1 F3600
G1 X160.23 Y170.177 E1.3888
G1 X159.599 Y170.177 F27000
G1 F3600
G1 X138.823 Y149.401 E1.34785
G1 X138.823 Y150.032 F27000
G1 F3600
G1 X158.968 Y170.177 E1.30689
G1 X158.336 Y170.177 F27000
G1 F3600
G1 X138.823 Y150.664 E1.26595
G1 X138.823 Y151.295 F27000
G1 F3600
G1 X157.705 Y170.177 E1.22499
G1 X157.074 Y170.177 F27000
G1 F3600
G1 X138.823 Y151.926 E1.18404
G1 X138.823 Y152.557 F27000
G1 F3600
G1 X156.443 Y170.177 E1.14309
G1 X155.811 Y170.177 F27000
G1 F3600
G1 X138.823 Y153.189 E1.10214
G1 X138.823 Y153.82 F27000
G1 F3600
G1 X155.18 Y170.177 E1.06118
G1 X154.549 Y170.177 F27000
G1 F3600
G1 X138.823 Y154.451 E1.02024
G1 X138.823 Y155.082 F27000
G1 F3600
G1 X153.918 Y170.177 E0.97928
G1 X153.286 Y170.177 F27000
G1 F3600
G1 X138.823 Y155.714 E0.93833
G1 X138.823 Y156.345 F27000
G1 F3600
G1 X152.655 Y170.177 E0.89738
G1 X152.024 Y170.177 F27000
G1 F3600
G1 X138.823 Y156.976 E0.85643
G1 X138.823 Y157.607 F27000
G1 F3600
G1 X151.393 Y170.177 E0.81548
G1 X150.762 Y170.177 F27000
G1 F3600
G1 X138.823 Y158.238 E0.77452
G1 X138.823 Y158.87 F27000
G1 F3600
G1 X150.13 Y170.177 E0.73357
G1 X149.499 Y170.177 F27000
G1 F3600
G1 X138.823 Y159.501 E0.69263
G1 X138.823 Y160.132 F27000
G1 F3600
G1 X148.868 Y170.177 E0.65166
G1 X148.237 Y170.177 F27000
G1 F3600
G1 X138.823 Y160.763 E0.61072
G1 X138.823 Y161.395 F27000
G1 F3600
G1 X147.605 Y170.177 E0.56977
G1 X146.974 Y170.177 F27000
G1 F3600
G1 X138.823 Y162.026 E0.52881
G1 X138.823 Y162.657 F27000
G1 F3600
G1 X146.343 Y170.177 E0.48787
G1 X145.712 Y170.177 F27000
G1 F3600
G1 X138.823 Y163.288 E0.44691
G1 X138.823 Y163.92 F27000
G1 F3600
G1 X145.08 Y170.177 E0.40596
G1 X144.449 Y170.177 F27000
G1 F3600
G1 X138.823 Y164.551 E0.36501
G1 X138.823 Y165.182 F27000
G1 F3600
G1 X143.818 Y170.177 E0.32405
G1 X143.187 Y170.177 F27000
G1 F3600
G1 X138.823 Y165.813 E0.28311
G1 X138.823 Y166.444 F27000
G1 F3600
G1 X142.556 Y170.177 E0.24215
G1 X141.924 Y170.177 F27000
G1 F3600
G1 X138.823 Y167.076 E0.2012
G1 X138.823 Y167.707 F27000
G1 F3600
G1 X141.293 Y170.177 E0.16025
G1 X140.662 Y170.177 F27000
G1 F3600
G1 X138.823 Y168.338 E0.1193
G1 X138.823 Y168.969 F27000
G1 F3600
G1 X140.031 Y170.177 E0.07835
G1 X139.399 Y170.177 F27000
G1 F3600
G1 X138.823 Y169.601 E0.03739
G1 E-10.000000 F1800
M204 S4000
M73 P6 R34
G1 Z0.45 F27000
; custom gcode: end_filament_gcode
; 6666788 - end black g-code
; custom gcode end: end_filament_gcode
G1 X130.48 Y172.74
M104 S260 T0 ; set temperature
; custom gcode: toolchange_gcode
; 9398578 - tool change g-code

next_extruder = 1
previous_extruder = 0

T1
; custom gcode end: toolchange_gcode
; custom gcode: start_filament_gcode
; 3232455 - start white g-code

next_extruder = 1
previous_extruder = 1
; custom gcode end: start_filament_gcode
M109 S293 T1 ; set temperature and wait for it to be reached
G1 E-0.5 F1800
; acceleration to travel
M204 S10000
G1 X133.782 Y142.373 F27000
; decel to extrusion
M204 S2000
G1 X132.788 Y137.000000
; end travel
G1 Z0.25
G1 E0.5 F1800
; custom gcode: feature_gcode
; 6754523 - between extrusion role change g-code
; custom gcode end: feature_gcode

;TYPE:Skirt
;WIDTH:0.4
G1 X132.788 Y213.000000 E2.73591
G1 X132.93 Y214.086 E0.03944
G1 X133.771 Y215.705 E0.06568
G1 X135.219 Y216.817 E0.06569
G1 X137.000000 Y217.212 E0.06569
G1 X172.000000 Y217.212 E1.25996
G1 X173.884 Y216.768 E0.06968
G1 X214.884 Y196.268 E1.65017
G1 X215.705 Y195.729 E0.03537
G1 X216.817 Y194.281 E0.06569
G1 X217.212 Y192.5 E0.06569
G1 X217.212 Y157.5 E1.25996
G1 X217.098 Y156.524 E0.03537
G1 X216.3 Y154.883 E0.06569
G1 X214.884 Y153.732 E0.06569
G1 X173.884 Y133.232 E1.65017
G1 X172.000000 Y132.788 E0.06967
G1 X137.000000 Y132.788 E1.25996
G1 X135.914 Y132.93 E0.03944
G1 X134.295 Y133.771 E0.06569
G1 X133.183 Y135.219 E0.06568
G1 X132.788 Y137.000000 E0.06569
G1 X133.134 Y137.000000 F27000
G1 F1800
G1 X133.134 Y213.000000 E2.73592
G1 X133.944 Y215.367 E0.09006
G1 X135.298 Y216.471 E0.0629
G1 X137.000000 Y216.866 E0.06289
G1 X172.000000 Y216.866 E1.25996
G1 X173.729 Y216.458 E0.06395
G1 X214.729 Y195.958 E1.65017
G1 X216.471 Y194.202 E0.08904
G1 X216.866 Y192.5 E0.06289
G1 X216.866 Y157.5 E1.25996
G1 X216.075 Y155.157 E0.08904
G1 X214.729 Y154.042 E0.0629
G1 X173.729 Y133.542 E1.65017
G1 X172.000000 Y133.134 E0.06394
G1 X137.000000 Y133.134 E1.25996
G1 X134.633 Y133.944 E0.09007
G1 X133.529 Y135.298 E0.06289
G1 X133.134 Y137.000000 E0.0629
G1 E-0.5
M204 S4000
G1 Z0.45 F27000
; acceleration to travel
M204 S10000
G1 X164.115 Y198.926
; decel to extrusion
M204 S2000
G1 X170.311 Y211.311
; end travel
G1 Z0.25
G1 E0.5 F1800
; custom gcode: feature_gcode
; 6754523 - between extrusion role change g-code
; custom gcode end: feature_gcode

;TYPE:Internal perimeter
;WIDTH:0.5
G1 X138.689 Y211.311 E1.46702
M73 P7 R34
G1 X138.689 Y179.689 E1.46703
G1 X170.311 Y179.689 E1.46702
G1 X170.311 Y211.311 E1.46703
G1 X170.757 Y211.757 F27000
G1 F1800
G1 X138.243 Y211.757 E1.50843
M73 P7 R33
G1 X138.243 Y179.243 E1.50844
G1 X170.757 Y179.243 E1.50844
G1 X170.757 Y211.757 E1.50844
G1 X171.204 Y212.204 F27000
G1 F1800
G1 X137.796 Y212.204 E1.54985
G1 X137.796 Y178.796 E1.54986
G1 X171.204 Y178.796 E1.54985
G1 X171.204 Y212.204 E1.54985
M204 S1000
G1 X171.65 Y212.65 F27000
; custom gcode: feature_gcode
; 6754523 - between extrusion role change g-code
; custom gcode end: feature_gcode

;TYPE:External perimeter
G1 F1800
G1 X137.35 Y212.65 E1.59127
G1 X137.35 Y178.35 E1.59127
G1 X171.65 Y178.35 E1.59126
G1 X171.65 Y212.65 E1.59127
;WIPE_START
M204 S4000
G1 X171.304 Y212.45 F27000
;WIPE_END
; acceleration to travel
M204 S10000
G1 X169.617 Y185.322
; decel to extrusion
M204 S2000
G1 X169.275 Y179.823
; end travel
; custom gcode: feature_gcode
; 6754523 - between extrusion role change g-code
; custom gcode end: feature_gcode

;TYPE:Solid infill
;WIDTH:0.49441
G1 F3600
G1 X170.177 Y180.725 E0.05854
G1 X170.177 Y181.356 F27000
G1 F3600
G1 X168.644 Y179.823 E0.09949
G1 X168.012 Y179.823 F27000
G1 F3600
G1 X170.177 Y181.988 E0.14044
G1 X170.177 Y182.619 F27000
G1 F3600
G1 X167.381 Y179.823 E0.18139
G1 X166.75 Y179.823 F27000
G1 F3600
G1 X170.177 Y183.25 E0.22234
G1 X170.177 Y183.881 F27000
G1 F3600
G1 X166.119 Y179.823 E0.26329
G1 X165.487 Y179.823 F27000
G1 F3600
G1 X170.177 Y184.513 E0.30425
G1 X170.177 Y185.144 F27000
G1 F3600
G1 X164.856 Y179.823 E0.3452
G1 X164.225 Y179.823 F27000
G1 F3600
G1 X170.177 Y185.775 E0.38615
G1 X170.177 Y186.406 F27000
G1 F3600
G1 X163.594 Y179.823 E0.4271
G1 X162.962 Y179.823 F27000
G1 F3600
G1 X170.177 Y187.038 E0.46805
G1 X170.177 Y187.669 F27000
G1 F3600
G1 X162.331 Y179.823 E0.50901
G1 X161.7 Y179.823 F27000
G1 F3600
G1 X170.177 Y188.3 E0.54995
G1 X170.177 Y188.931 F27000
G1 F3600
G1 X161.069 Y179.823 E0.59091
G1 X160.438 Y179.823 F27000
G1 F3600
G1 X170.177 Y189.562 E0.63186
G1 X170.177 Y190.194 F27000
G1 F3600
G1 X159.806 Y179.823 E0.67281
G1 X159.175 Y179.823 F27000
