; generated by SuperSlicer 2.5.59.13 on 2025-08-07 at 14:42:54 UTC


;
;

;
;
; 

; external perimeters extrusion width = 0.50mm
; perimeters extrusion width = 0.50mm
; infill extrusion width = 0.50mm
; solid infill extrusion width = 0.50mm
; top infill extrusion width = 0.50mm
; first layer extrusion width = 0.50mm

; external perimeters extrusion width = 0.50mm
; perimeters extrusion width = 0.50mm
; infill extrusion width = 0.50mm
; solid infill extrusion width = 0.50mm
; top infill extrusion width = 0.50mm
; first layer extrusion width = 0.50mm

; external perimeters extrusion width = 0.50mm
; perimeters extrusion width = 0.50mm
; infill extrusion width = 0.50mm
; solid infill extrusion width = 0.50mm
; top infill extrusion width = 0.50mm
; first layer extrusion width = 0.50mm

; object:{"name":"3mmsquare","id":"3mmsquare.stl id:0 copy 0","object_center":[190.500000,154.500000,0.000000],"boundingbox_center":[190.500000,154.500000,1.500000],"boundingbox_size":[35.000000,35.000000,3.000000]}
EXCLUDE_OBJECT_DEFINE NAME=3mmsquare_stl_id_0_copy_0 CENTER=190.500000,154.500000 POLYGON=[[173.00,137.00],[208.00,137.00],[208.00,172.00],[173.00,172.00],[173.00,137.00]]
; object:{"name":"First_Layer_Patch-0","id":"First_Layer_Patch-0.25mm.stl id:1 copy 0","object_center":[154.500000,175.000001,0.000000],"boundingbox_center":[154.500000,175.000001,0.125000],"boundingbox_size":[25.000000,25.000000,0.250000]}
EXCLUDE_OBJECT_DEFINE NAME=First_Layer_Patch_0_25mm_stl_id_1_copy_0 CENTER=154.500000,175.000001 POLYGON=[[142.00,162.50],[167.00,162.50],[167.00,187.50],[142.00,187.50],[142.00,162.50]]
; object:{"name":"point45block","id":"point45block.stl id:2 copy 0","object_center":[190.500000,195.500000,0.000000],"boundingbox_center":[190.500000,195.500000,0.225000],"boundingbox_size":[35.000000,35.000000,0.450000]}
EXCLUDE_OBJECT_DEFINE NAME=point45block_stl_id_2_copy_0 CENTER=190.500000,195.500000 POLYGON=[[173.00,178.00],[208.00,178.00],[208.00,213.00],[173.00,213.00],[173.00,178.00]]
; plater:{"center":[175.000000,175.000000,0.000000],"boundingbox_center":[175.000000,175.000000,1.500000],"boundingbox_size":[66.000000,76.000000,3.000000]}

M73 P0 R10
M107
;TYPE:Custom
; custom gcode: start_gcode
PRINT_START  TOOL_TEMP=273 BED_TEMP=99 TOOL=0 CHAMBER=49
; custom gcode end: start_gcode

G21 ; set units to millimeters
G90 ; use absolute coordinates
M83 ; use relative distances for extrusion
; custom gcode: start_filament_gcode
EXTRUDER=0
WARMUP_TIME=90
DORMANT_TIME=120
; custom gcode end: start_filament_gcode
M104 S260 ; set temperature
M109 S273 ; set temperature and wait for it to be reached
M190 S99 ; set bed temperature and wait for it to be reached
;LAYER_CHANGE
;Z:0.25
;HEIGHT:0.25
G1 Z0.25 F27000
; custom gcode: layer_gcode
VERIFY_TOOL_DETECTED ASYNC=1 
; custom gcode end: layer_gcode

G92 E0
M73 P3 R9
G1 E-0.5 F1800
G1 Z0.45 F27000
M204 S2000
G1 X138.984 Y158.812
G1 Z0.25
G1 E0.5 F1800
;TYPE:Skirt
;WIDTH:0.4
G1 X137.591 Y160.669 E0.08358
G1 X137.195 Y162.6 E0.07095
G1 X137.195 Y187.4 E0.89277
G1 X137.745 Y189.656 E0.08358
G1 X138.984 Y191.188 E0.07094
G1 X169.984 Y216.688 E1.44501
G1 X171.169 Y217.409 E0.04995
G1 X173.1 Y217.805 E0.07094
G1 X207.9 Y217.805 E1.25276
M73 P4 R9
G1 X209.615 Y217.495 E0.06273
G1 X211.285 Y216.45 E0.07095
G1 X212.409 Y214.831 E0.07094
G1 X212.805 Y212.9 E0.07095
G1 X212.805 Y137.1 E2.72871
G1 X212.495 Y135.385 E0.06273
G1 X211.45 Y133.715 E0.07094
G1 X209.831 Y132.591 E0.07095
G1 X207.9 Y132.195 E0.07094
G1 X173.1 Y132.195 E1.25276
G1 X171.727 Y132.391 E0.04995
G1 X169.984 Y133.312 E0.07094
G1 X138.984 Y158.812 E1.44501
G1 X139.204 Y159.079 F27000
G1 F1800
G1 X137.937 Y160.742 E0.07526
G1 X137.541 Y162.6 E0.06837
M73 P5 R9
G1 X137.541 Y187.4 E0.89277
G1 X138.021 Y189.435 E0.07527
G1 X139.204 Y190.921 E0.06836
G1 X170.204 Y216.421 E1.44501
G1 X171.242 Y217.063 E0.04396
G1 X173.1 Y217.459 E0.06837
G1 X207.9 Y217.459 E1.25276
G1 X209.298 Y217.239 E0.05095
G1 X210.945 Y216.293 E0.06836
G1 X212.063 Y214.758 E0.06837
G1 X212.459 Y212.9 E0.06837
G1 X212.459 Y137.1 E2.72871
M73 P6 R9
G1 X212.239 Y135.702 E0.05095
G1 X211.293 Y134.055 E0.06837
G1 X209.758 Y132.937 E0.06837
G1 X207.9 Y132.541 E0.06837
G1 X173.1 Y132.541 E1.25276
G1 X171.89 Y132.705 E0.04395
G1 X170.204 Y133.579 E0.06837
G1 X139.204 Y159.079 E1.44501
G1 X139.424 Y159.347 F27000
G1 F1800
G1 X138.283 Y160.819 E0.06703
G1 X137.888 Y162.6 E0.06569
G1 X137.888 Y187.4 E0.89277
G1 X138.299 Y189.216 E0.06704
G1 X139.424 Y190.653 E0.06569
G1 X170.424 Y216.153 E1.44501
G1 X171.319 Y216.717 E0.03806
G1 X173.1 Y217.112 E0.06569
G1 X207.9 Y217.112 E1.25276
M73 P7 R9
G1 X208.986 Y216.97 E0.03943
G1 X210.605 Y216.129 E0.06569
G1 X211.717 Y214.681 E0.06569
G1 X212.112 Y212.9 E0.06569
G1 X212.112 Y137.1 E2.72872
G1 X211.97 Y136.014 E0.03943
G1 X211.129 Y134.395 E0.06569
G1 X209.681 Y133.283 E0.06569
G1 X207.9 Y132.888 E0.06569
G1 X173.1 Y132.888 E1.25276
G1 X172.051 Y133.02 E0.03806
G1 X170.424 Y133.847 E0.06569
G1 X139.424 Y159.347 E1.44501
M73 P8 R9
G1 X139.644 Y159.614 F27000
G1 F1800
G1 X138.629 Y160.898 E0.05891
G1 X138.234 Y162.6 E0.0629
G1 X138.234 Y187.4 E0.89277
G1 X138.581 Y188.999 E0.05891
G1 X139.644 Y190.386 E0.0629
G1 X170.644 Y215.886 E1.44501
G1 X171.398 Y216.371 E0.03227
G1 X173.1 Y216.766 E0.0629
G1 X207.9 Y216.766 E1.25276
G1 X210.267 Y215.956 E0.09006
G1 X211.371 Y214.602 E0.0629
G1 X211.766 Y212.9 E0.0629
G1 X211.766 Y137.1 E2.72871
M73 P9 R9
G1 X210.956 Y134.733 E0.09006
G1 X209.602 Y133.629 E0.0629
G1 X207.9 Y133.234 E0.0629
G1 X173.1 Y133.234 E1.25276
G1 X172.209 Y133.338 E0.03228
G1 X170.644 Y134.114 E0.06289
G1 X139.644 Y159.614 E1.44501
G1 X139.864 Y159.882 F27000
G1 F1800
G1 X138.975 Y160.981 E0.05091
G1 X138.58 Y162.6 E0.05997
G1 X138.58 Y187.4 E0.89277
G1 X138.865 Y188.785 E0.05091
G1 X139.864 Y190.118 E0.05997
G1 X170.864 Y215.618 E1.44501
G1 X173.1 Y216.42 E0.0855
G1 X207.9 Y216.42 E1.25276
M73 P10 R9
G1 X209.931 Y215.775 E0.0767
G1 X211.025 Y214.519 E0.05997
G1 X211.42 Y212.9 E0.05998
G1 X211.42 Y137.1 E2.72871
G1 X210.775 Y135.069 E0.0767
G1 X209.519 Y133.975 E0.05997
G1 X207.9 Y133.58 E0.05998
G1 X173.1 Y133.58 E1.25276
G1 X170.864 Y134.382 E0.0855
G1 X139.864 Y159.882 E1.44501
M73 P11 R9
G1 X140.084 Y160.149 F27000
G1 F1800
G1 X139.321 Y161.069 E0.04303
G1 X138.927 Y162.6 E0.05691
G1 X138.927 Y187.4 E0.89277
G1 X139.152 Y188.574 E0.04303
G1 X140.084 Y189.851 E0.05691
G1 X171.084 Y215.351 E1.445
G1 X173.1 Y216.073 E0.07709
G1 X207.9 Y216.073 E1.25276
M73 P11 R8
G1 X209.596 Y215.582 E0.06357
G1 X210.679 Y214.431 E0.0569
G1 X211.073 Y212.9 E0.0569
G1 X211.073 Y137.1 E2.72872
M73 P12 R8
G1 X210.582 Y135.404 E0.06356
G1 X209.431 Y134.321 E0.05691
G1 X207.9 Y133.927 E0.0569
G1 X173.1 Y133.927 E1.25276
G1 X171.084 Y134.649 E0.07709
G1 X140.084 Y160.149 E1.445
G1 E-0.5
M204 S4000
G1 Z0.45 F27000
; printing object 3mmsquare.stl id:0 copy 0
EXCLUDE_OBJECT_START NAME=3mmsquare_stl_id_0_copy_0
; acceleration to travel
M204 S10000
G1 X195.273 Y168.617
; decel to extrusion
M204 S2000
G1 X206.311 Y170.311
; end travel
G1 Z0.25
G1 E0.5 F1800
;TYPE:Internal perimeter
;WIDTH:0.5
G1 X174.689 Y170.311 E1.46702
G1 X174.689 Y138.689 E1.46703
G1 X206.311 Y138.689 E1.46702
M73 P13 R8
G1 X206.311 Y170.311 E1.46703
G1 X206.757 Y170.757 F27000
G1 F1800
G1 X174.243 Y170.757 E1.50843
G1 X174.243 Y138.243 E1.50844
G1 X206.757 Y138.243 E1.50844
G1 X206.757 Y170.757 E1.50844
M73 P14 R8
G1 X207.204 Y171.204 F27000
G1 F1800
G1 X173.796 Y171.204 E1.54985
G1 X173.796 Y137.796 E1.54986
G1 X207.204 Y137.796 E1.54985
G1 X207.204 Y171.204 E1.54985
M204 S1000
G1 X207.65 Y171.65 F27000
;TYPE:External perimeter
G1 F1800
G1 X173.35 Y171.65 E1.59127
G1 X173.35 Y137.35 E1.59127
M73 P15 R8
G1 X207.65 Y137.35 E1.59126
G1 X207.65 Y171.65 E1.59127
;WIPE_START
M204 S4000
G1 X207.304 Y171.45 F27000
;WIPE_END
; acceleration to travel
M204 S10000
G1 X205.617 Y144.322
; decel to extrusion
M204 S2000
G1 X205.275 Y138.823
; end travel
;TYPE:Solid infill
;WIDTH:0.49441
G1 F3600
G1 X206.177 Y139.725 E0.05854
G1 X206.177 Y140.356 F27000
G1 F3600
G1 X204.644 Y138.823 E0.09949
G1 X204.012 Y138.823 F27000
G1 F3600
G1 X206.177 Y140.988 E0.14044
G1 X206.177 Y141.619 F27000
G1 F3600
G1 X203.381 Y138.823 E0.18139
G1 X202.75 Y138.823 F27000
G1 F3600
G1 X206.177 Y142.25 E0.22234
G1 X206.177 Y142.881 F27000
G1 F3600
G1 X202.119 Y138.823 E0.26329
G1 X201.487 Y138.823 F27000
G1 F3600
G1 X206.177 Y143.513 E0.30425
G1 X206.177 Y144.144 F27000
G1 F3600
G1 X200.856 Y138.823 E0.3452
G1 X200.225 Y138.823 F27000
G1 F3600
G1 X206.177 Y144.775 E0.38615
G1 X206.177 Y145.406 F27000
G1 F3600
G1 X199.594 Y138.823 E0.4271
G1 X198.962 Y138.823 F27000
G1 F3600
G1 X206.177 Y146.038 E0.46805
G1 X206.177 Y146.669 F27000
G1 F3600
G1 X198.331 Y138.823 E0.50901
G1 X197.7 Y138.823 F27000
G1 F3600
G1 X206.177 Y147.3 E0.54995
G1 X206.177 Y147.931 F27000
G1 F3600
G1 X197.069 Y138.823 E0.59091
G1 X196.438 Y138.823 F27000
G1 F3600
G1 X206.177 Y148.562 E0.63186
M73 P16 R8
G1 X206.177 Y149.194 F27000
G1 F3600
G1 X195.806 Y138.823 E0.67281
G1 X195.175 Y138.823 F27000
G1 F3600
G1 X206.177 Y149.825 E0.71376
G1 X206.177 Y150.456 F27000
G1 F3600
G1 X194.544 Y138.823 E0.75471
G1 X193.913 Y138.823 F27000
G1 F3600
G1 X206.177 Y151.087 E0.79567
G1 X206.177 Y151.719 F27000
G1 F3600
G1 X193.281 Y138.823 E0.83662
G1 X192.65 Y138.823 F27000
G1 F3600
G1 X206.177 Y152.35 E0.87757
G1 X206.177 Y152.981 F27000
G1 F3600
G1 X192.019 Y138.823 E0.91852
G1 X191.388 Y138.823 F27000
G1 F3600
G1 X206.177 Y153.612 E0.95947
G1 X206.177 Y154.244 F27000
G1 F3600
G1 X190.756 Y138.823 E1.00042
G1 X190.125 Y138.823 F27000
G1 F3600
G1 X206.177 Y154.875 E1.04138
G1 X206.177 Y155.506 F27000
G1 F3600
G1 X189.494 Y138.823 E1.08233
G1 X188.863 Y138.823 F27000
G1 F3600
G1 X206.177 Y156.137 E1.12327
G1 X206.177 Y156.768 F27000
G1 F3600
G1 X188.232 Y138.823 E1.16423
G1 X187.6 Y138.823 F27000
G1 F3600
G1 X206.177 Y157.4 E1.20519
G1 X206.177 Y158.031 F27000
G1 F3600
G1 X186.969 Y138.823 E1.24613
M73 P17 R8
G1 X186.338 Y138.823 F27000
G1 F3600
G1 X206.177 Y158.662 E1.28709
G1 X206.177 Y159.293 F27000
G1 F3600
G1 X185.707 Y138.823 E1.32803
G1 X185.075 Y138.823 F27000
G1 F3600
G1 X206.177 Y159.925 E1.36899
G1 X206.177 Y160.556 F27000
G1 F3600
G1 X184.444 Y138.823 E1.40994
G1 X183.813 Y138.823 F27000
G1 F3600
G1 X206.177 Y161.187 E1.45089
G1 X206.177 Y161.818 F27000
G1 F3600
G1 X183.182 Y138.823 E1.49185
G1 X182.55 Y138.823 F27000
G1 F3600
G1 X206.177 Y162.45 E1.53279
G1 X206.177 Y163.081 F27000
G1 F3600
G1 X181.919 Y138.823 E1.57375
G1 X181.288 Y138.823 F27000
G1 F3600
G1 X206.177 Y163.712 E1.6147
G1 X206.177 Y164.343 F27000
G1 F3600
G1 X180.657 Y138.823 E1.65565
G1 X180.025 Y138.823 F27000
G1 F3600
G1 X206.177 Y164.975 E1.6966
M73 P18 R8
G1 X206.177 Y165.606 F27000
G1 F3600
G1 X179.394 Y138.823 E1.73755
G1 X178.763 Y138.823 F27000
G1 F3600
G1 X206.177 Y166.237 E1.77851
G1 X206.177 Y166.868 F27000
G1 F3600
G1 X178.132 Y138.823 E1.81945
G1 X177.501 Y138.823 F27000
G1 F3600
G1 X206.177 Y167.499 E1.86041
G1 X206.177 Y168.131 F27000
G1 F3600
G1 X176.869 Y138.823 E1.90136
G1 X176.238 Y138.823 F27000
G1 F3600
G1 X206.177 Y168.762 E1.94231
G1 X206.177 Y169.393 F27000
G1 F3600
G1 X175.607 Y138.823 E1.98326
G1 X174.976 Y138.823 F27000
G1 F3600
G1 X206.177 Y170.024 E2.02422
M73 P19 R8
G1 X205.699 Y170.177 F27000
G1 F3600
G1 X174.823 Y139.301 E2.00307
G1 X174.823 Y139.933 F27000
G1 F3600
G1 X205.067 Y170.177 E1.96212
G1 X204.436 Y170.177 F27000
G1 F3600
G1 X174.823 Y140.564 E1.92117
G1 X174.823 Y141.195 F27000
G1 F3600
G1 X203.805 Y170.177 E1.88022
G1 X203.174 Y170.177 F27000
G1 F3600
G1 X174.823 Y141.826 E1.83927
G1 X174.823 Y142.458 F27000
G1 F3600
G1 X202.542 Y170.177 E1.79832
G1 X201.911 Y170.177 F27000
G1 F3600
G1 X174.823 Y143.089 E1.75736
G1 X174.823 Y143.72 F27000
G1 F3600
G1 X201.28 Y170.177 E1.71641
M73 P20 R8
G1 X200.649 Y170.177 F27000
G1 F3600
G1 X174.823 Y144.351 E1.67546
G1 X174.823 Y144.983 F27000
G1 F3600
G1 X200.017 Y170.177 E1.63451
G1 X199.386 Y170.177 F27000
G1 F3600
G1 X174.823 Y145.614 E1.59356
G1 X174.823 Y146.245 F27000
G1 F3600
G1 X198.755 Y170.177 E1.5526
G1 X198.124 Y170.177 F27000
G1 F3600
G1 X174.823 Y146.876 E1.51166
G1 X174.823 Y147.508 F27000
G1 F3600
G1 X197.492 Y170.177 E1.4707
G1 X196.861 Y170.177 F27000
G1 F3600
G1 X174.823 Y148.139 E1.42975
G1 X174.823 Y148.77 F27000
G1 F3600
G1 X196.23 Y170.177 E1.3888
G1 X195.599 Y170.177 F27000
G1 F3600
G1 X174.823 Y149.401 E1.34785
G1 X174.823 Y150.032 F27000
G1 F3600
G1 X194.968 Y170.177 E1.30689
M73 P21 R8
G1 X194.336 Y170.177 F27000
G1 F3600
G1 X174.823 Y150.664 E1.26595
G1 X174.823 Y151.295 F27000
G1 F3600
G1 X193.705 Y170.177 E1.22499
G1 X193.074 Y170.177 F27000
G1 F3600
G1 X174.823 Y151.926 E1.18404
G1 X174.823 Y152.557 F27000
G1 F3600
G1 X192.443 Y170.177 E1.14309
M73 P21 R7
G1 X191.811 Y170.177 F27000
G1 F3600
G1 X174.823 Y153.189 E1.10214
G1 X174.823 Y153.82 F27000
G1 F3600
G1 X191.18 Y170.177 E1.06118
G1 X190.549 Y170.177 F27000
G1 F3600
G1 X174.823 Y154.451 E1.02024
G1 X174.823 Y155.082 F27000
G1 F3600
G1 X189.918 Y170.177 E0.97928
G1 X189.286 Y170.177 F27000
G1 F3600
G1 X174.823 Y155.714 E0.93833
G1 X174.823 Y156.345 F27000
G1 F3600
G1 X188.655 Y170.177 E0.89738
G1 X188.024 Y170.177 F27000
G1 F3600
G1 X174.823 Y156.976 E0.85643
G1 X174.823 Y157.607 F27000
G1 F3600
G1 X187.393 Y170.177 E0.81548
G1 X186.762 Y170.177 F27000
G1 F3600
G1 X174.823 Y158.238 E0.77452
G1 X174.823 Y158.87 F27000
G1 F3600
G1 X186.13 Y170.177 E0.73357
G1 X185.499 Y170.177 F27000
G1 F3600
G1 X174.823 Y159.501 E0.69263
M73 P22 R7
G1 X174.823 Y160.132 F27000
G1 F3600
G1 X184.868 Y170.177 E0.65166
G1 X184.237 Y170.177 F27000
G1 F3600
G1 X174.823 Y160.763 E0.61072
G1 X174.823 Y161.395 F27000
G1 F3600
G1 X183.605 Y170.177 E0.56977
G1 X182.974 Y170.177 F27000
G1 F3600
G1 X174.823 Y162.026 E0.52881
G1 X174.823 Y162.657 F27000
G1 F3600
G1 X182.343 Y170.177 E0.48787
G1 X181.712 Y170.177 F27000
G1 F3600
G1 X174.823 Y163.288 E0.44691
G1 X174.823 Y163.92 F27000
G1 F3600
G1 X181.08 Y170.177 E0.40596
G1 X180.449 Y170.177 F27000
G1 F3600
G1 X174.823 Y164.551 E0.36501
G1 X174.823 Y165.182 F27000
G1 F3600
G1 X179.818 Y170.177 E0.32405
G1 X179.187 Y170.177 F27000
G1 F3600
G1 X174.823 Y165.813 E0.28311
G1 X174.823 Y166.444 F27000
G1 F3600
G1 X178.556 Y170.177 E0.24215
G1 X177.924 Y170.177 F27000
G1 F3600
G1 X174.823 Y167.076 E0.2012
G1 X174.823 Y167.707 F27000
G1 F3600
G1 X177.293 Y170.177 E0.16025
G1 X176.662 Y170.177 F27000
G1 F3600
G1 X174.823 Y168.338 E0.1193
G1 X174.823 Y168.969 F27000
G1 F3600
G1 X176.031 Y170.177 E0.07835
G1 X175.399 Y170.177 F27000
G1 F3600
G1 X174.823 Y169.601 E0.03739
G1 E-0.5 F1800
M204 S4000
G1 Z0.45 F27000
; stop printing object 3mmsquare.stl id:0 copy 0
EXCLUDE_OBJECT_END NAME=3mmsquare_stl_id_0_copy_0
; printing object point45block.stl id:2 copy 0
EXCLUDE_OBJECT_START NAME=point45block_stl_id_2_copy_0
; acceleration to travel
M204 S10000
G1 X201.122 Y204.437
; decel to extrusion
M204 S2000
G1 X206.311 Y211.311
; end travel
G1 Z0.25
G1 E0.5 F1800
;TYPE:Internal perimeter
;WIDTH:0.5
G1 X174.689 Y211.311 E1.46702
G1 X174.689 Y179.689 E1.46703
G1 X206.311 Y179.689 E1.46702
M73 P23 R7
G1 X206.311 Y211.311 E1.46703
G1 X206.757 Y211.757 F27000
G1 F1800
G1 X174.243 Y211.757 E1.50843
G1 X174.243 Y179.243 E1.50844
G1 X206.757 Y179.243 E1.50844
G1 X206.757 Y211.757 E1.50844
G1 X207.204 Y212.204 F27000
G1 F1800
G1 X173.796 Y212.204 E1.54985
M73 P24 R7
G1 X173.796 Y178.796 E1.54986
G1 X207.204 Y178.796 E1.54985
G1 X207.204 Y212.204 E1.54985
M204 S1000
G1 X207.65 Y212.65 F27000
;TYPE:External perimeter
G1 F1800
G1 X173.35 Y212.65 E1.59127
G1 X173.35 Y178.35 E1.59127
M73 P25 R7
G1 X207.65 Y178.35 E1.59126
G1 X207.65 Y212.65 E1.59127
;WIPE_START
M204 S4000
G1 X207.304 Y212.45 F27000
;WIPE_END
; acceleration to travel
M204 S10000
G1 X205.617 Y185.322
; decel to extrusion
M204 S2000
G1 X205.275 Y179.823
; end travel
;TYPE:Solid infill
;WIDTH:0.49441
G1 F3600
G1 X206.177 Y180.725 E0.05854
G1 X206.177 Y181.356 F27000
G1 F3600
G1 X204.644 Y179.823 E0.09949
G1 X204.012 Y179.823 F27000
G1 F3600
