; generated by SuperSlicer 2.5.59.13 on 2025-08-08 at 17:13:59 UTC


;
;

;
;
; 

; external perimeters extrusion width = 0.50mm
; perimeters extrusion width = 0.50mm
; infill extrusion width = 0.50mm
; solid infill extrusion width = 0.50mm
; top infill extrusion width = 0.50mm
; first layer extrusion width = 0.50mm

; object:{"name":"3mmsquare","id":"3mmsquare.stl id:0 copy 0","object_center":[190.500000,154.500000,0.000000],"boundingbox_center":[190.500000,154.500000,1.500000],"boundingbox_size":[35.000000,35.000000,3.000000]}
EXCLUDE_OBJECT_DEFINE NAME=3mmsquare_stl_id_0_copy_0 CENTER=190.500000,154.500000 POLYGON=[[173.00,137.00],[208.00,137.00],[208.00,172.00],[173.00,172.00],[173.00,137.00]]
; plater:{"center":[190.500000,154.500000,0.000000],"boundingbox_center":[190.500000,154.500000,1.500000],"boundingbox_size":[35.000000,35.000000,3.000000]}

M73 P0 R7
M107
;TYPE:Custom
; custom gcode: start_gcode
PRINT_START  TOOL_TEMP=293 BED_TEMP=97 TOOL=1 CHAMBER=48
; custom gcode end: start_gcode

G21 ; set units to millimeters
G90 ; use absolute coordinates
M83 ; use relative distances for extrusion
; custom gcode: toolchange_gcode
CURRENT_TOOL=1
NEXT_TOOL=1
; custom gcode end: toolchange_gcode
; custom gcode: start_filament_gcode
EXTRUDER=1
WARMUP_TIME=60
WARMUP_FROM_OFF_TIME=90
DORMANT_TIME=90
; custom gcode end: start_filament_gcode
M109 S293 T1 ; set temperature and wait for it to be reached
M104 S280 T1 ; set temperature
M109 S293 T1 ; set temperature and wait for it to be reached
M190 S97 ; set bed temperature and wait for it to be reached
;LAYER_CHANGE
;Z:0.25
;HEIGHT:0.25
G1 Z0.25 F27000
; custom gcode: layer_gcode
VERIFY_TOOL_DETECTED ASYNC=1 
; custom gcode end: layer_gcode

G92 E0
M73 P4 R6
G1 E-0.5 F1800
G1 Z0.45 F27000
M204 S2000
G1 X169.715 Y133.55
G1 Z0.25
G1 E0.5 F1800
;TYPE:Skirt
;WIDTH:0.4
G1 X168.591 Y135.169 E0.07095
G1 X168.195 Y137.1 E0.07094
G1 X168.195 Y171.9 E1.25276
M73 P5 R6
G1 X168.505 Y173.615 E0.06273
G1 X169.55 Y175.285 E0.07094
G1 X171.169 Y176.409 E0.07095
G1 X173.1 Y176.805 E0.07095
G1 X207.9 Y176.805 E1.25276
G1 X209.615 Y176.495 E0.06272
G1 X211.285 Y175.45 E0.07095
G1 X212.409 Y173.831 E0.07094
G1 X212.805 Y171.9 E0.07095
G1 X212.805 Y137.1 E1.25276
G1 X212.495 Y135.385 E0.06273
G1 X211.45 Y133.715 E0.07094
G1 X209.831 Y132.591 E0.07095
G1 X207.9 Y132.195 E0.07094
G1 X173.1 Y132.195 E1.25276
M73 P6 R6
G1 X171.385 Y132.505 E0.06273
G1 X169.715 Y133.55 E0.07095
G1 X170.055 Y133.707 F27000
G1 F1800
G1 X168.937 Y135.242 E0.06837
G1 X168.541 Y137.1 E0.06836
G1 X168.541 Y171.9 E1.25276
G1 X168.761 Y173.298 E0.05095
G1 X169.707 Y174.945 E0.06837
G1 X171.242 Y176.063 E0.06837
G1 X173.1 Y176.459 E0.06837
G1 X207.9 Y176.459 E1.25276
G1 X209.298 Y176.239 E0.05095
G1 X210.945 Y175.293 E0.06836
G1 X212.063 Y173.758 E0.06837
G1 X212.459 Y171.9 E0.06837
G1 X212.459 Y137.1 E1.25276
M73 P7 R6
G1 X212.239 Y135.702 E0.05095
G1 X211.293 Y134.055 E0.06837
G1 X209.758 Y132.937 E0.06836
G1 X207.9 Y132.541 E0.06837
G1 X173.1 Y132.541 E1.25276
G1 X171.702 Y132.761 E0.05095
G1 X170.055 Y133.707 E0.06837
G1 X170.395 Y133.871 F27000
G1 F1800
G1 X169.283 Y135.319 E0.06569
G1 X168.888 Y137.1 E0.06569
G1 X168.888 Y171.9 E1.25276
G1 X169.03 Y172.986 E0.03943
G1 X169.871 Y174.605 E0.06569
G1 X171.319 Y175.717 E0.06569
G1 X173.1 Y176.112 E0.06569
G1 X207.9 Y176.112 E1.25276
M73 P8 R6
G1 X208.986 Y175.97 E0.03943
G1 X210.605 Y175.129 E0.06569
G1 X211.717 Y173.681 E0.06569
G1 X212.112 Y171.9 E0.06569
G1 X212.112 Y137.1 E1.25276
G1 X211.97 Y136.014 E0.03943
G1 X211.129 Y134.395 E0.06569
G1 X209.681 Y133.283 E0.06569
G1 X207.9 Y132.888 E0.06569
G1 X173.1 Y132.888 E1.25276
G1 X172.014 Y133.03 E0.03943
G1 X170.395 Y133.871 E0.06569
G1 X170.733 Y134.044 F27000
G1 F1800
G1 X169.629 Y135.398 E0.0629
G1 X169.234 Y137.1 E0.0629
G1 X169.234 Y171.9 E1.25276
M73 P9 R6
G1 X170.044 Y174.267 E0.09006
G1 X171.398 Y175.371 E0.0629
G1 X173.1 Y175.766 E0.06289
G1 X207.9 Y175.766 E1.25276
G1 X210.267 Y174.956 E0.09007
G1 X211.371 Y173.602 E0.06289
G1 X211.766 Y171.9 E0.0629
G1 X211.766 Y137.1 E1.25276
G1 X210.956 Y134.733 E0.09006
G1 X209.602 Y133.629 E0.0629
G1 X207.9 Y133.234 E0.0629
G1 X173.1 Y133.234 E1.25276
M73 P10 R6
G1 X170.733 Y134.044 E0.09006
G1 X171.069 Y134.225 F27000
G1 F1800
G1 X169.975 Y135.481 E0.05997
G1 X169.58 Y137.1 E0.05998
G1 X169.58 Y171.9 E1.25276
G1 X170.225 Y173.931 E0.0767
G1 X171.481 Y175.025 E0.05997
G1 X173.1 Y175.42 E0.05998
G1 X207.9 Y175.42 E1.25276
G1 X209.931 Y174.775 E0.07669
G1 X211.025 Y173.519 E0.05998
G1 X211.42 Y171.9 E0.05997
G1 X211.42 Y137.1 E1.25276
G1 X210.775 Y135.069 E0.0767
G1 X209.519 Y133.975 E0.05997
G1 X207.9 Y133.58 E0.05998
G1 X173.1 Y133.58 E1.25276
M73 P11 R6
G1 X171.069 Y134.225 E0.0767
G1 X171.404 Y134.418 F27000
G1 F1800
G1 X170.321 Y135.569 E0.0569
G1 X169.927 Y137.1 E0.0569
G1 X169.927 Y171.9 E1.25276
G1 X170.418 Y173.596 E0.06357
G1 X171.569 Y174.679 E0.0569
G1 X173.1 Y175.073 E0.0569
G1 X207.9 Y175.073 E1.25276
G1 X209.596 Y174.582 E0.06357
G1 X210.679 Y173.431 E0.0569
G1 X211.073 Y171.9 E0.05691
G1 X211.073 Y137.1 E1.25276
M73 P12 R6
G1 X210.582 Y135.404 E0.06356
G1 X209.431 Y134.321 E0.0569
G1 X207.9 Y133.927 E0.05691
G1 X173.1 Y133.927 E1.25276
G1 X171.404 Y134.418 E0.06356
G1 E-0.5
M204 S4000
G1 Z0.45 F27000
; printing object 3mmsquare.stl id:0 copy 0
EXCLUDE_OBJECT_START NAME=3mmsquare_stl_id_0_copy_0
; acceleration to travel
M204 S10000
G1 X200.493 Y164.329
; decel to extrusion
M204 S2000
G1 X206.311 Y170.311
; end travel
G1 Z0.25
G1 E0.5 F1800
;TYPE:Internal perimeter
;WIDTH:0.5
G1 X174.689 Y170.311 E1.46702
G1 X174.689 Y138.689 E1.46703
M73 P13 R6
G1 X206.311 Y138.689 E1.46702
G1 X206.311 Y170.311 E1.46703
G1 X206.757 Y170.757 F27000
G1 F1800
G1 X174.243 Y170.757 E1.50843
G1 X174.243 Y138.243 E1.50844
M73 P14 R6
G1 X206.757 Y138.243 E1.50844
G1 X206.757 Y170.757 E1.50844
G1 X207.204 Y171.204 F27000
G1 F1800
G1 X173.796 Y171.204 E1.54985
G1 X173.796 Y137.796 E1.54986
M73 P15 R6
G1 X207.204 Y137.796 E1.54985
G1 X207.204 Y171.204 E1.54985
M204 S1000
G1 X207.65 Y171.65 F27000
;TYPE:External perimeter
G1 F1800
G1 X173.35 Y171.65 E1.59127
G1 X173.35 Y137.35 E1.59127
M73 P16 R6
G1 X207.65 Y137.35 E1.59126
G1 X207.65 Y171.65 E1.59127
;WIPE_START
M204 S4000
G1 X207.304 Y171.45 F27000
;WIPE_END
; acceleration to travel
M204 S10000
G1 X205.617 Y144.322
; decel to extrusion
M204 S2000
G1 X205.275 Y138.823
; end travel
;TYPE:Solid infill
;WIDTH:0.49441
G1 F3600
G1 X206.177 Y139.725 E0.05854
G1 X206.177 Y140.356 F27000
G1 F3600
G1 X204.644 Y138.823 E0.09949
G1 X204.012 Y138.823 F27000
G1 F3600
G1 X206.177 Y140.988 E0.14044
G1 X206.177 Y141.619 F27000
G1 F3600
G1 X203.381 Y138.823 E0.18139
G1 X202.75 Y138.823 F27000
G1 F3600
G1 X206.177 Y142.25 E0.22234
G1 X206.177 Y142.881 F27000
G1 F3600
G1 X202.119 Y138.823 E0.26329
G1 X201.487 Y138.823 F27000
G1 F3600
G1 X206.177 Y143.513 E0.30425
G1 X206.177 Y144.144 F27000
M73 P16 R5
G1 F3600
G1 X200.856 Y138.823 E0.3452
M73 P17 R5
G1 X200.225 Y138.823 F27000
G1 F3600
G1 X206.177 Y144.775 E0.38615
G1 X206.177 Y145.406 F27000
G1 F3600
G1 X199.594 Y138.823 E0.4271
G1 X198.962 Y138.823 F27000
G1 F3600
G1 X206.177 Y146.038 E0.46805
G1 X206.177 Y146.669 F27000
G1 F3600
G1 X198.331 Y138.823 E0.50901
G1 X197.7 Y138.823 F27000
G1 F3600
G1 X206.177 Y147.3 E0.54995
G1 X206.177 Y147.931 F27000
G1 F3600
G1 X197.069 Y138.823 E0.59091
G1 X196.438 Y138.823 F27000
G1 F3600
G1 X206.177 Y148.562 E0.63186
G1 X206.177 Y149.194 F27000
G1 F3600
G1 X195.806 Y138.823 E0.67281
G1 X195.175 Y138.823 F27000
G1 F3600
G1 X206.177 Y149.825 E0.71376
G1 X206.177 Y150.456 F27000
G1 F3600
G1 X194.544 Y138.823 E0.75471
G1 X193.913 Y138.823 F27000
G1 F3600
G1 X206.177 Y151.087 E0.79567
G1 X206.177 Y151.719 F27000
G1 F3600
G1 X193.281 Y138.823 E0.83662
G1 X192.65 Y138.823 F27000
G1 F3600
G1 X206.177 Y152.35 E0.87757
G1 X206.177 Y152.981 F27000
G1 F3600
G1 X192.019 Y138.823 E0.91852
G1 X191.388 Y138.823 F27000
G1 F3600
G1 X206.177 Y153.612 E0.95947
M73 P18 R5
G1 X206.177 Y154.244 F27000
G1 F3600
G1 X190.756 Y138.823 E1.00042
G1 X190.125 Y138.823 F27000
G1 F3600
G1 X206.177 Y154.875 E1.04138
G1 X206.177 Y155.506 F27000
G1 F3600
G1 X189.494 Y138.823 E1.08233
G1 X188.863 Y138.823 F27000
G1 F3600
G1 X206.177 Y156.137 E1.12327
G1 X206.177 Y156.768 F27000
G1 F3600
G1 X188.232 Y138.823 E1.16423
G1 X187.6 Y138.823 F27000
G1 F3600
G1 X206.177 Y157.4 E1.20519
G1 X206.177 Y158.031 F27000
G1 F3600
G1 X186.969 Y138.823 E1.24613
G1 X186.338 Y138.823 F27000
G1 F3600
G1 X206.177 Y158.662 E1.28709
G1 X206.177 Y159.293 F27000
G1 F3600
G1 X185.707 Y138.823 E1.32803
M73 P19 R5
G1 X185.075 Y138.823 F27000
G1 F3600
G1 X206.177 Y159.925 E1.36899
G1 X206.177 Y160.556 F27000
G1 F3600
G1 X184.444 Y138.823 E1.40994
G1 X183.813 Y138.823 F27000
G1 F3600
G1 X206.177 Y161.187 E1.45089
G1 X206.177 Y161.818 F27000
G1 F3600
G1 X183.182 Y138.823 E1.49185
G1 X182.55 Y138.823 F27000
G1 F3600
G1 X206.177 Y162.45 E1.53279
G1 X206.177 Y163.081 F27000
G1 F3600
G1 X181.919 Y138.823 E1.57375
G1 X181.288 Y138.823 F27000
G1 F3600
G1 X206.177 Y163.712 E1.6147
M73 P20 R5
G1 X206.177 Y164.343 F27000
G1 F3600
G1 X180.657 Y138.823 E1.65565
G1 X180.025 Y138.823 F27000
G1 F3600
G1 X206.177 Y164.975 E1.6966
G1 X206.177 Y165.606 F27000
G1 F3600
G1 X179.394 Y138.823 E1.73755
G1 X178.763 Y138.823 F27000
G1 F3600
G1 X206.177 Y166.237 E1.77851
G1 X206.177 Y166.868 F27000
G1 F3600
G1 X178.132 Y138.823 E1.81945
G1 X177.501 Y138.823 F27000
G1 F3600
G1 X206.177 Y167.499 E1.86041
G1 X206.177 Y168.131 F27000
G1 F3600
G1 X176.869 Y138.823 E1.90136
M73 P21 R5
G1 X176.238 Y138.823 F27000
G1 F3600
G1 X206.177 Y168.762 E1.94231
G1 X206.177 Y169.393 F27000
G1 F3600
G1 X175.607 Y138.823 E1.98326
G1 X174.976 Y138.823 F27000
G1 F3600
G1 X206.177 Y170.024 E2.02422
G1 X205.699 Y170.177 F27000
G1 F3600
G1 X174.823 Y139.301 E2.00307
G1 X174.823 Y139.933 F27000
G1 F3600
G1 X205.067 Y170.177 E1.96212
M73 P22 R5
G1 X204.436 Y170.177 F27000
G1 F3600
G1 X174.823 Y140.564 E1.92117
G1 X174.823 Y141.195 F27000
G1 F3600
G1 X203.805 Y170.177 E1.88022
G1 X203.174 Y170.177 F27000
G1 F3600
G1 X174.823 Y141.826 E1.83927
G1 X174.823 Y142.458 F27000
G1 F3600
G1 X202.542 Y170.177 E1.79832
G1 X201.911 Y170.177 F27000
G1 F3600
G1 X174.823 Y143.089 E1.75736
G1 X174.823 Y143.72 F27000
G1 F3600
G1 X201.28 Y170.177 E1.71641
M73 P23 R5
G1 X200.649 Y170.177 F27000
G1 F3600
G1 X174.823 Y144.351 E1.67546
G1 X174.823 Y144.983 F27000
G1 F3600
G1 X200.017 Y170.177 E1.63451
G1 X199.386 Y170.177 F27000
G1 F3600
G1 X174.823 Y145.614 E1.59356
G1 X174.823 Y146.245 F27000
G1 F3600
G1 X198.755 Y170.177 E1.5526
G1 X198.124 Y170.177 F27000
G1 F3600
G1 X174.823 Y146.876 E1.51166
G1 X174.823 Y147.508 F27000
G1 F3600
G1 X197.492 Y170.177 E1.4707
G1 X196.861 Y170.177 F27000
G1 F3600
G1 X174.823 Y148.139 E1.42975
M73 P24 R5
G1 X174.823 Y148.77 F27000
G1 F3600
G1 X196.23 Y170.177 E1.3888
G1 X195.599 Y170.177 F27000
G1 F3600
G1 X174.823 Y149.401 E1.34785
G1 X174.823 Y150.032 F27000
G1 F3600
G1 X194.968 Y170.177 E1.30689
G1 X194.336 Y170.177 F27000
G1 F3600
G1 X174.823 Y150.664 E1.26595
G1 X174.823 Y151.295 F27000
G1 F3600
G1 X193.705 Y170.177 E1.22499
G1 X193.074 Y170.177 F27000
G1 F3600
G1 X174.823 Y151.926 E1.18404
G1 X174.823 Y152.557 F27000
G1 F3600
G1 X192.443 Y170.177 E1.14309
G1 X191.811 Y170.177 F27000
G1 F3600
G1 X174.823 Y153.189 E1.10214
G1 X174.823 Y153.82 F27000
G1 F3600
G1 X191.18 Y170.177 E1.06118
M73 P25 R5
G1 X190.549 Y170.177 F27000
G1 F3600
G1 X174.823 Y154.451 E1.02024
G1 X174.823 Y155.082 F27000
G1 F3600
G1 X189.918 Y170.177 E0.97928
G1 X189.286 Y170.177 F27000
G1 F3600
G1 X174.823 Y155.714 E0.93833
G1 X174.823 Y156.345 F27000
G1 F3600
G1 X188.655 Y170.177 E0.89738
G1 X188.024 Y170.177 F27000
G1 F3600
G1 X174.823 Y156.976 E0.85643
G1 X174.823 Y157.607 F27000
G1 F3600
G1 X187.393 Y170.177 E0.81548
G1 X186.762 Y170.177 F27000
G1 F3600
G1 X174.823 Y158.238 E0.77452
G1 X174.823 Y158.87 F27000
G1 F3600
G1 X186.13 Y170.177 E0.73357
G1 X185.499 Y170.177 F27000
G1 F3600
G1 X174.823 Y159.501 E0.69263
G1 X174.823 Y160.132 F27000
G1 F3600
G1 X184.868 Y170.177 E0.65166
G1 X184.237 Y170.177 F27000
G1 F3600
G1 X174.823 Y160.763 E0.61072
G1 X174.823 Y161.395 F27000
G1 F3600
G1 X183.605 Y170.177 E0.56977
M73 P26 R5
G1 X182.974 Y170.177 F27000
G1 F3600
G1 X174.823 Y162.026 E0.52881
G1 X174.823 Y162.657 F27000
G1 F3600
G1 X182.343 Y170.177 E0.48787
G1 X181.712 Y170.177 F27000
G1 F3600
G1 X174.823 Y163.288 E0.44691
G1 X174.823 Y163.92 F27000
G1 F3600
G1 X181.08 Y170.177 E0.40596
G1 X180.449 Y170.177 F27000
G1 F3600
G1 X174.823 Y164.551 E0.36501
G1 X174.823 Y165.182 F27000
G1 F3600
G1 X179.818 Y170.177 E0.32405
G1 X179.187 Y170.177 F27000
G1 F3600
G1 X174.823 Y165.813 E0.28311
G1 X174.823 Y166.444 F27000
G1 F3600
G1 X178.556 Y170.177 E0.24215
G1 X177.924 Y170.177 F27000
G1 F3600
G1 X174.823 Y167.076 E0.2012
G1 X174.823 Y167.707 F27000
G1 F3600
G1 X177.293 Y170.177 E0.16025
G1 X176.662 Y170.177 F27000
G1 F3600
G1 X174.823 Y168.338 E0.1193
G1 X174.823 Y168.969 F27000
G1 F3600
G1 X176.031 Y170.177 E0.07835
G1 X175.399 Y170.177 F27000
G1 F3600
G1 X174.823 Y169.601 E0.03739
M106 S127.5
;LAYER_CHANGE
;Z:0.45
;HEIGHT:0.2
; stop printing object 3mmsquare.stl id:0 copy 0
EXCLUDE_OBJECT_END NAME=3mmsquare_stl_id_0_copy_0
M204 S4000
G1 Z0.45 F27000
; custom gcode: layer_gcode
VERIFY_TOOL_DETECTED ASYNC=1 
; custom gcode end: layer_gcode

G92 E0
M104 S283 T1 ; set temperature
M140 S96 ; set bed temperature
; printing object 3mmsquare.stl id:0 copy 0
EXCLUDE_OBJECT_START NAME=3mmsquare_stl_id_0_copy_0
; acceleration to travel
M204 S10000
G1 X200.899 Y170.47
; decel to extrusion
M204 S2000
G1 X206.662 Y170.662
; end travel
;TYPE:Internal perimeter
;WIDTH:0.4
G1 F9000
G1 X174.338 Y170.662 E0.95975
G1 X174.338 Y138.338 E0.95975
G1 X206.662 Y138.338 E0.95975
G1 X206.662 Y170.662 E0.95974
G1 X207.019 Y171.019 F27000
G1 F9000
G1 X173.981 Y171.019 E0.98095
G1 X173.981 Y137.981 E0.98096
G1 X207.019 Y137.981 E0.98095
M73 P27 R5
G1 X207.019 Y171.019 E0.98095
G1 X207.376 Y171.376 F27000
G1 F9000
G1 X173.624 Y171.376 E1.00215
G1 X173.624 Y137.624 E1.00216
G1 X207.376 Y137.624 E1.00216
G1 X207.376 Y171.376 E1.00215
M204 S1000
G1 X207.733 Y171.733 F27000
;TYPE:External perimeter
G1 F4800
G1 X173.267 Y171.733 E1.02336
G1 X173.267 Y137.267 E1.02336
G1 X207.733 Y137.267 E1.02336
G1 X207.733 Y171.733 E1.02336
;WIPE_START
M204 S4000
G1 X207.387 Y171.533 F27000
;WIPE_END
; acceleration to travel
M204 S10000
G1 X206.863 Y170.266
; decel to extrusion
M204 S5000
G1 X206.547 Y169.502
; end travel
;TYPE:Solid infill
;WIDTH:0.555808
G1 F11454
G1 X205.502 Y170.547 E0.06308
G1 X204.77 Y170.547 F27000
G1 F11454
G1 X206.547 Y168.77 E0.10721
G1 X206.547 Y168.039 F27000
G1 F11454
G1 X204.039 Y170.547 E0.15135
G1 X203.308 Y170.547 F27000
G1 F11454
G1 X206.547 Y167.308 E0.19547
G1 X206.547 Y166.577 F27000
G1 F11454
G1 X202.577 Y170.547 E0.23961
G1 X201.845 Y170.547 F27000
G1 F11454
G1 X206.547 Y165.845 E0.28373
G1 X206.547 Y165.114 F27000
G1 F11454
G1 X201.114 Y170.547 E0.32787
G1 X200.383 Y170.547 F27000
G1 F11454
G1 X206.547 Y164.383 E0.372
G1 X206.547 Y163.652 F27000
M73 P28 R5
G1 F11454
G1 X199.652 Y170.547 E0.41613
G1 X198.92 Y170.547 F27000
G1 F11454
G1 X206.547 Y162.92 E0.46026
G1 X206.547 Y162.189 F27000
G1 F11454
G1 X198.189 Y170.547 E0.50439
G1 X197.458 Y170.547 F27000
G1 F11454
G1 X206.547 Y161.458 E0.54852
G1 X206.547 Y160.727 F27000
G1 F11454
G1 X196.727 Y170.547 E0.59266
G1 X195.995 Y170.547 F27000
G1 F11454
G1 X206.547 Y159.995 E0.63678
G1 X206.547 Y159.264 F27000
G1 F11454
G1 X195.264 Y170.547 E0.68092
G1 X194.533 Y170.547 F27000
G1 F11454
G1 X206.547 Y158.533 E0.72505
G1 X206.547 Y157.802 F27000
G1 F11454
G1 X193.802 Y170.547 E0.76918
G1 X193.07 Y170.547 F27000
G1 F11454
G1 X206.547 Y157.07 E0.81331
G1 X206.547 Y156.339 F27000
G1 F11454
G1 X192.339 Y170.547 E0.85744
G1 X191.608 Y170.547 F27000
G1 F11454
G1 X206.547 Y155.608 E0.90157
G1 X206.547 Y154.877 F27000
G1 F11454
G1 X190.877 Y170.547 E0.94571
G1 X190.145 Y170.547 F27000
G1 F11454
G1 X206.547 Y154.145 E0.98983
G1 X206.547 Y153.414 F27000
