; generated by SuperSlicer 2.5.59.13 on 2025-07-27 at 23:31:08 UTC


;
;

;
;
; 

; external perimeters extrusion width = 0.50mm
; perimeters extrusion width = 0.50mm
; infill extrusion width = 0.50mm
; solid infill extrusion width = 0.50mm
; top infill extrusion width = 0.50mm
; first layer extrusion width = 0.50mm

; external perimeters extrusion width = 0.50mm
; perimeters extrusion width = 0.50mm
; infill extrusion width = 0.50mm
; solid infill extrusion width = 0.50mm
; top infill extrusion width = 0.50mm
; first layer extrusion width = 0.50mm

; object:{"name":"point45block","id":"point45block.stl id:0 copy 0","object_center":[159.500001,195.500001,0.000000],"boundingbox_center":[159.500001,195.500001,0.225000],"boundingbox_size":[35.000000,35.000000,0.450000]}
EXCLUDE_OBJECT_DEFINE NAME=point45block_stl_id_0_copy_0 CENTER=159.500001,195.500001 POLYGON=[[142.00,178.00],[177.00,178.00],[177.00,213.00],[142.00,213.00],[142.00,178.00]]
; object:{"name":"3mmsquare","id":"3mmsquare.stl id:1 copy 0","object_center":[159.500001,154.500001,0.000000],"boundingbox_center":[159.500001,154.500001,1.500000],"boundingbox_size":[35.000000,35.000000,3.000000]}
EXCLUDE_OBJECT_DEFINE NAME=3mmsquare_stl_id_1_copy_0 CENTER=159.500001,154.500001 POLYGON=[[142.00,137.00],[177.00,137.00],[177.00,172.00],[142.00,172.00],[142.00,137.00]]
; plater:{"center":[159.500001,175.000001,0.000000],"boundingbox_center":[159.500001,175.000001,1.500000],"boundingbox_size":[35.000000,76.000000,3.000000]}

M73 P0 R11
M107
;TYPE:Custom
; custom gcode: start_gcode
PRINT_START  TOOL_TEMP=293 BED_TEMP=97 TOOL=1 CHAMBER=48
; custom gcode end: start_gcode

G21 ; set units to millimeters
G90 ; use absolute coordinates
M83 ; use relative distances for extrusion
; custom gcode: toolchange_gcode
1
1
; custom gcode end: toolchange_gcode
; custom gcode: start_filament_gcode
1
; custom gcode end: start_filament_gcode
M109 S293 T1 ; set temperature and wait for it to be reached
M104 S280 T1 ; set temperature
M104 S240 T2 ; set temperature
M109 S293 T1 ; set temperature and wait for it to be reached
M190 S97 ; set bed temperature and wait for it to be reached
;LAYER_CHANGE
;Z:0.25
;HEIGHT:0.25
; custom gcode: before_layer_gcode
1
; custom gcode end: before_layer_gcode

G1 Z0.25 F27000
; custom gcode: layer_gcode
1
VERIFY_TOOL_DETECTED ASYNC=1 
; custom gcode end: layer_gcode

G92 E0
M73 P3 R10
G1 E-0.5 F1800
G1 Z0.45 F27000
M204 S2000
G1 X138.615 Y133.45
G1 Z0.25
G1 E0.5 F1800
; custom gcode: feature_gcode
1
; custom gcode end: feature_gcode

;TYPE:Skirt
;WIDTH:0.4
G1 X137.491 Y135.069 E0.07095
G1 X137.095 Y137 E0.07094
G1 X137.162 Y212.941 E2.7338
G1 X137.471 Y214.648 E0.06245
G1 X138.517 Y216.318 E0.07094
G1 X140.136 Y217.442 E0.07095
G1 X142.067 Y217.838 E0.07094
G1 X176.933 Y217.838 E1.25516
G1 X178.641 Y217.532 E0.06245
G1 X180.313 Y216.488 E0.07094
G1 X181.439 Y214.871 E0.07095
G1 X181.838 Y212.941 E0.07095
G1 X181.905 Y137 E2.7338
M73 P4 R10
G1 X181.595 Y135.285 E0.06272
G1 X180.55 Y133.615 E0.07095
G1 X178.931 Y132.491 E0.07095
G1 X177 Y132.095 E0.07094
G1 X142 Y132.095 E1.25996
G1 X140.285 Y132.405 E0.06273
G1 X138.615 Y133.45 E0.07094
G1 X138.955 Y133.607 F27000
G1 F1800
G1 X137.837 Y135.142 E0.06837
G1 X137.441 Y137 E0.06837
G1 X137.508 Y212.941 E2.73378
G1 X137.728 Y214.331 E0.05069
G1 X138.674 Y215.978 E0.06836
G1 X140.209 Y217.096 E0.06837
G1 X142.067 Y217.492 E0.06837
G1 X176.933 Y217.492 E1.25516
M73 P5 R10
G1 X178.324 Y217.274 E0.05068
G1 X179.973 Y216.331 E0.06837
G1 X181.093 Y214.798 E0.06837
G1 X181.492 Y212.941 E0.06837
G1 X181.559 Y137 E2.73378
G1 X181.339 Y135.602 E0.05095
G1 X180.393 Y133.955 E0.06837
G1 X178.858 Y132.837 E0.06836
G1 X177 Y132.441 E0.06837
G1 X142 Y132.441 E1.25996
G1 X140.602 Y132.661 E0.05095
G1 X138.955 Y133.607 E0.06837
G1 X139.295 Y133.771 F27000
G1 F1800
G1 X138.183 Y135.219 E0.06569
G1 X137.788 Y137 E0.06569
G1 X137.854 Y212.94 E2.73376
M73 P6 R10
G1 X137.997 Y214.019 E0.03919
G1 X138.838 Y215.639 E0.06569
G1 X140.285 Y216.75 E0.06569
G1 X142.067 Y217.146 E0.06569
G1 X176.933 Y217.146 E1.25516
G1 X178.013 Y217.005 E0.03918
G1 X179.633 Y216.166 E0.06569
G1 X180.747 Y214.721 E0.06569
G1 X181.146 Y212.94 E0.06569
G1 X181.212 Y137 E2.73376
G1 X181.07 Y135.914 E0.03944
G1 X180.229 Y134.295 E0.06568
G1 X178.781 Y133.183 E0.06569
G1 X177 Y132.788 E0.06569
G1 X142 Y132.788 E1.25996
G1 X140.914 Y132.93 E0.03944
G1 X139.295 Y133.771 E0.06569
G1 E-0.5
M204 S4000
G1 Z0.45 F27000
; printing object point45block.stl id:0 copy 0
EXCLUDE_OBJECT_START NAME=point45block_stl_id_0_copy_0
; acceleration to travel
M204 S10000
G1 X169.308 Y198.388
; decel to extrusion
M204 S2000
G1 X175.311 Y211.311
; end travel
G1 Z0.25
G1 E0.5 F1800
; custom gcode: feature_gcode
1
; custom gcode end: feature_gcode

;TYPE:Internal perimeter
;WIDTH:0.5
G1 X143.689 Y211.311 E1.46702
M73 P7 R10
G1 X143.689 Y179.689 E1.46703
G1 X175.311 Y179.689 E1.46702
G1 X175.311 Y211.311 E1.46703
G1 X175.757 Y211.757 F27000
G1 F1800
G1 X143.243 Y211.757 E1.50843
G1 X143.243 Y179.243 E1.50844
G1 X175.757 Y179.243 E1.50844
M73 P8 R10
G1 X175.757 Y211.757 E1.50844
G1 X176.204 Y212.204 F27000
G1 F1800
G1 X142.796 Y212.204 E1.54985
G1 X142.796 Y178.796 E1.54986
G1 X176.204 Y178.796 E1.54985
G1 X176.204 Y212.204 E1.54985
M204 S1000
G1 X176.65 Y212.65 F27000
; custom gcode: feature_gcode
1
; custom gcode end: feature_gcode

;TYPE:External perimeter
G1 F1800
G1 X142.35 Y212.65 E1.59127
M73 P9 R10
G1 X142.35 Y178.35 E1.59127
G1 X176.65 Y178.35 E1.59126
G1 X176.65 Y212.65 E1.59127
;WIPE_START
M204 S4000
G1 X176.304 Y212.45 F27000
;WIPE_END
; acceleration to travel
M204 S10000
G1 X174.617 Y185.322
; decel to extrusion
M204 S2000
G1 X174.275 Y179.823
; end travel
; custom gcode: feature_gcode
1
; custom gcode end: feature_gcode

;TYPE:Solid infill
;WIDTH:0.49441
G1 F3600
G1 X175.177 Y180.725 E0.05854
G1 X175.177 Y181.356 F27000
G1 F3600
G1 X173.644 Y179.823 E0.09949
G1 X173.012 Y179.823 F27000
G1 F3600
G1 X175.177 Y181.988 E0.14044
G1 X175.177 Y182.619 F27000
G1 F3600
G1 X172.381 Y179.823 E0.18139
G1 X171.75 Y179.823 F27000
G1 F3600
G1 X175.177 Y183.25 E0.22234
G1 X175.177 Y183.881 F27000
G1 F3600
G1 X171.119 Y179.823 E0.26329
G1 X170.487 Y179.823 F27000
G1 F3600
G1 X175.177 Y184.513 E0.30425
G1 X175.177 Y185.144 F27000
G1 F3600
G1 X169.856 Y179.823 E0.3452
G1 X169.225 Y179.823 F27000
G1 F3600
G1 X175.177 Y185.775 E0.38615
G1 X175.177 Y186.406 F27000
G1 F3600
G1 X168.594 Y179.823 E0.4271
G1 X167.962 Y179.823 F27000
G1 F3600
G1 X175.177 Y187.038 E0.46805
G1 X175.177 Y187.669 F27000
G1 F3600
G1 X167.331 Y179.823 E0.50901
G1 X166.7 Y179.823 F27000
G1 F3600
G1 X175.177 Y188.3 E0.54995
M73 P10 R10
G1 X175.177 Y188.931 F27000
G1 F3600
G1 X166.069 Y179.823 E0.59091
M73 P10 R9
G1 X165.438 Y179.823 F27000
G1 F3600
G1 X175.177 Y189.562 E0.63186
G1 X175.177 Y190.194 F27000
G1 F3600
G1 X164.806 Y179.823 E0.67281
G1 X164.175 Y179.823 F27000
G1 F3600
G1 X175.177 Y190.825 E0.71376
G1 X175.177 Y191.456 F27000
G1 F3600
G1 X163.544 Y179.823 E0.75471
G1 X162.913 Y179.823 F27000
G1 F3600
G1 X175.177 Y192.087 E0.79567
G1 X175.177 Y192.719 F27000
G1 F3600
G1 X162.281 Y179.823 E0.83662
G1 X161.65 Y179.823 F27000
G1 F3600
G1 X175.177 Y193.35 E0.87757
G1 X175.177 Y193.981 F27000
G1 F3600
G1 X161.019 Y179.823 E0.91852
G1 X160.388 Y179.823 F27000
G1 F3600
G1 X175.177 Y194.612 E0.95947
G1 X175.177 Y195.244 F27000
G1 F3600
G1 X159.756 Y179.823 E1.00042
G1 X159.125 Y179.823 F27000
G1 F3600
G1 X175.177 Y195.875 E1.04138
G1 X175.177 Y196.506 F27000
G1 F3600
G1 X158.494 Y179.823 E1.08233
G1 X157.863 Y179.823 F27000
G1 F3600
G1 X175.177 Y197.137 E1.12327
G1 X175.177 Y197.769 F27000
G1 F3600
G1 X157.232 Y179.823 E1.16423
G1 X156.6 Y179.823 F27000
G1 F3600
G1 X175.177 Y198.4 E1.20519
G1 X175.177 Y199.031 F27000
G1 F3600
G1 X155.969 Y179.823 E1.24613
M73 P11 R9
G1 X155.338 Y179.823 F27000
G1 F3600
G1 X175.177 Y199.662 E1.28709
G1 X175.177 Y200.293 F27000
G1 F3600
G1 X154.707 Y179.823 E1.32803
G1 X154.075 Y179.823 F27000
G1 F3600
G1 X175.177 Y200.925 E1.36899
G1 X175.177 Y201.556 F27000
G1 F3600
G1 X153.444 Y179.823 E1.40994
G1 X152.813 Y179.823 F27000
G1 F3600
G1 X175.177 Y202.187 E1.45089
G1 X175.177 Y202.818 F27000
G1 F3600
G1 X152.182 Y179.823 E1.49185
G1 X151.55 Y179.823 F27000
G1 F3600
G1 X175.177 Y203.45 E1.53279
G1 X175.177 Y204.081 F27000
G1 F3600
G1 X150.919 Y179.823 E1.57375
G1 X150.288 Y179.823 F27000
G1 F3600
G1 X175.177 Y204.712 E1.6147
G1 X175.177 Y205.343 F27000
G1 F3600
G1 X149.657 Y179.823 E1.65565
G1 X149.025 Y179.823 F27000
G1 F3600
G1 X175.177 Y205.975 E1.6966
G1 X175.177 Y206.606 F27000
M73 P12 R9
G1 F3600
G1 X148.394 Y179.823 E1.73755
G1 X147.763 Y179.823 F27000
G1 F3600
G1 X175.177 Y207.237 E1.77851
G1 X175.177 Y207.868 F27000
G1 F3600
G1 X147.132 Y179.823 E1.81945
G1 X146.501 Y179.823 F27000
G1 F3600
G1 X175.177 Y208.499 E1.86041
G1 X175.177 Y209.131 F27000
G1 F3600
G1 X145.869 Y179.823 E1.90136
G1 X145.238 Y179.823 F27000
G1 F3600
G1 X175.177 Y209.762 E1.94231
G1 X175.177 Y210.393 F27000
G1 F3600
G1 X144.607 Y179.823 E1.98326
G1 X143.976 Y179.823 F27000
G1 F3600
G1 X175.177 Y211.024 E2.02422
G1 X174.699 Y211.177 F27000
G1 F3600
G1 X143.823 Y180.301 E2.00307
M73 P13 R9
G1 X143.823 Y180.933 F27000
G1 F3600
G1 X174.067 Y211.177 E1.96212
G1 X173.436 Y211.177 F27000
G1 F3600
G1 X143.823 Y181.564 E1.92117
G1 X143.823 Y182.195 F27000
G1 F3600
G1 X172.805 Y211.177 E1.88022
G1 X172.174 Y211.177 F27000
G1 F3600
G1 X143.823 Y182.826 E1.83927
G1 X143.823 Y183.458 F27000
G1 F3600
G1 X171.542 Y211.177 E1.79832
G1 X170.911 Y211.177 F27000
G1 F3600
G1 X143.823 Y184.089 E1.75736
G1 X143.823 Y184.72 F27000
G1 F3600
G1 X170.28 Y211.177 E1.71641
G1 X169.649 Y211.177 F27000
G1 F3600
G1 X143.823 Y185.351 E1.67546
G1 X143.823 Y185.983 F27000
G1 F3600
G1 X169.017 Y211.177 E1.63451
G1 X168.386 Y211.177 F27000
G1 F3600
G1 X143.823 Y186.614 E1.59356
M73 P14 R9
G1 X143.823 Y187.245 F27000
G1 F3600
G1 X167.755 Y211.177 E1.5526
G1 X167.124 Y211.177 F27000
G1 F3600
G1 X143.823 Y187.876 E1.51166
G1 X143.823 Y188.508 F27000
G1 F3600
G1 X166.492 Y211.177 E1.4707
G1 X165.861 Y211.177 F27000
G1 F3600
G1 X143.823 Y189.139 E1.42975
G1 X143.823 Y189.77 F27000
G1 F3600
G1 X165.23 Y211.177 E1.3888
G1 X164.599 Y211.177 F27000
G1 F3600
G1 X143.823 Y190.401 E1.34785
G1 X143.823 Y191.032 F27000
G1 F3600
G1 X163.968 Y211.177 E1.30689
G1 X163.336 Y211.177 F27000
G1 F3600
G1 X143.823 Y191.664 E1.26595
G1 X143.823 Y192.295 F27000
G1 F3600
G1 X162.705 Y211.177 E1.22499
G1 X162.074 Y211.177 F27000
G1 F3600
G1 X143.823 Y192.926 E1.18404
G1 X143.823 Y193.557 F27000
G1 F3600
G1 X161.443 Y211.177 E1.14309
G1 X160.811 Y211.177 F27000
G1 F3600
G1 X143.823 Y194.189 E1.10214
M73 P15 R9
G1 X143.823 Y194.82 F27000
G1 F3600
G1 X160.18 Y211.177 E1.06118
G1 X159.549 Y211.177 F27000
G1 F3600
G1 X143.823 Y195.451 E1.02024
G1 X143.823 Y196.082 F27000
G1 F3600
G1 X158.918 Y211.177 E0.97928
G1 X158.286 Y211.177 F27000
G1 F3600
G1 X143.823 Y196.714 E0.93833
G1 X143.823 Y197.345 F27000
G1 F3600
G1 X157.655 Y211.177 E0.89738
G1 X157.024 Y211.177 F27000
G1 F3600
G1 X143.823 Y197.976 E0.85643
G1 X143.823 Y198.607 F27000
G1 F3600
G1 X156.393 Y211.177 E0.81548
G1 X155.762 Y211.177 F27000
G1 F3600
G1 X143.823 Y199.238 E0.77452
G1 X143.823 Y199.87 F27000
G1 F3600
G1 X155.13 Y211.177 E0.73357
G1 X154.499 Y211.177 F27000
G1 F3600
G1 X143.823 Y200.501 E0.69263
G1 X143.823 Y201.132 F27000
G1 F3600
G1 X153.868 Y211.177 E0.65166
G1 X153.237 Y211.177 F27000
G1 F3600
G1 X143.823 Y201.763 E0.61072
G1 X143.823 Y202.395 F27000
G1 F3600
G1 X152.605 Y211.177 E0.56977
G1 X151.974 Y211.177 F27000
G1 F3600
G1 X143.823 Y203.026 E0.52881
G1 X143.823 Y203.657 F27000
G1 F3600
G1 X151.343 Y211.177 E0.48787
G1 X150.712 Y211.177 F27000
G1 F3600
G1 X143.823 Y204.288 E0.44691
G1 X143.823 Y204.92 F27000
G1 F3600
G1 X150.08 Y211.177 E0.40596
G1 X149.449 Y211.177 F27000
G1 F3600
G1 X143.823 Y205.551 E0.36501
G1 X143.823 Y206.182 F27000
G1 F3600
G1 X148.818 Y211.177 E0.32405
G1 X148.187 Y211.177 F27000
G1 F3600
G1 X143.823 Y206.813 E0.28311
G1 X143.823 Y207.444 F27000
G1 F3600
G1 X147.556 Y211.177 E0.24215
G1 X146.924 Y211.177 F27000
G1 F3600
G1 X143.823 Y208.076 E0.2012
G1 X143.823 Y208.707 F27000
G1 F3600
G1 X146.293 Y211.177 E0.16025
G1 X145.662 Y211.177 F27000
G1 F3600
G1 X143.823 Y209.338 E0.1193
G1 X143.823 Y209.969 F27000
G1 F3600
G1 X145.031 Y211.177 E0.07835
G1 X144.399 Y211.177 F27000
M73 P16 R9
G1 F3600
G1 X143.823 Y210.601 E0.03739
G1 E-10.000000 F1800
M204 S4000
G1 Z0.45 F27000
; custom gcode: end_filament_gcode
1
; custom gcode end: end_filament_gcode
G1 X135.546 Y211.384
M104 S280 T1 ; set temperature
; custom gcode: toolchange_gcode
1
2
; custom gcode end: toolchange_gcode
; custom gcode: start_filament_gcode
2
; custom gcode end: start_filament_gcode
M109 S253 T2 ; set temperature and wait for it to be reached
G1 E-0.5 F1800
; stop printing object point45block.stl id:0 copy 0
EXCLUDE_OBJECT_END NAME=point45block_stl_id_0_copy_0
; acceleration to travel
M204 S10000
G1 X139.127 Y212.554 F27000
; decel to extrusion
M204 S2000
G1 X138.201 Y212.94
; end travel
G1 Z0.25
G1 E0.5 F1800
; custom gcode: feature_gcode
2
; custom gcode end: feature_gcode

;TYPE:Skirt
;WIDTH:0.4
G1 X139.01 Y215.301 E0.08985
G1 X140.365 Y216.404 E0.06289
G1 X142.067 Y216.799 E0.0629
G1 X176.933 Y216.799 E1.25516
G1 X179.296 Y215.994 E0.08985
G1 X180.402 Y214.641 E0.0629
G1 X180.799 Y212.94 E0.06289
G1 X180.866 Y137 E2.73374
G1 X180.056 Y134.633 E0.09007
G1 X178.702 Y133.529 E0.06289
G1 X177 Y133.134 E0.0629
G1 X142 Y133.134 E1.25996
G1 X139.633 Y133.944 E0.09006
G1 X138.529 Y135.298 E0.0629
G1 X138.134 Y137 E0.0629
G1 X138.201 Y212.94 E2.73374
M73 P17 R9
G1 X138.547 Y212.939 F27000
G1 F1800
G1 X139.192 Y214.964 E0.0765
G1 X140.448 Y216.059 E0.05997
G1 X142.067 Y216.453 E0.05998
G1 X176.933 Y216.453 E1.25516
G1 X178.959 Y215.811 E0.0765
G1 X180.056 Y214.557 E0.05997
G1 X180.453 Y212.939 E0.05998
G1 X180.52 Y137 E2.73372
G1 X179.875 Y134.969 E0.07669
G1 X178.619 Y133.875 E0.05998
G1 X177 Y133.48 E0.05997
G1 X142 Y133.48 E1.25996
M73 P18 R9
G1 X139.969 Y134.125 E0.0767
G1 X138.875 Y135.381 E0.05997
G1 X138.48 Y137 E0.05998
G1 X138.547 Y212.939 E2.73372
G1 X138.893 Y212.939 F27000
G1 F1800
G1 X139.385 Y214.629 E0.06339
G1 X140.536 Y215.713 E0.0569
G1 X142.067 Y216.107 E0.0569
G1 X176.933 Y216.107 E1.25516
G1 X178.625 Y215.618 E0.06339
G1 X179.71 Y214.469 E0.0569
G1 X180.107 Y212.939 E0.05691
G1 X180.173 Y137 E2.7337
M73 P19 R8
G1 X179.682 Y135.304 E0.06356
G1 X178.531 Y134.221 E0.05691
G1 X177 Y133.827 E0.0569
G1 X142 Y133.827 E1.25996
G1 X140.304 Y134.318 E0.06357
G1 X139.221 Y135.469 E0.0569
G1 X138.827 Y137 E0.0569
G1 X138.893 Y212.939 E2.7337
G1 E-0.5
M204 S4000
G1 Z0.45 F27000
; printing object 3mmsquare.stl id:1 copy 0
EXCLUDE_OBJECT_START NAME=3mmsquare_stl_id_1_copy_0
; acceleration to travel
M204 S10000
G1 X169.241 Y177.416
; decel to extrusion
M204 S2000
G1 X175.311 Y170.311
; end travel
G1 Z0.25
G1 E0.5 F1800
; custom gcode: feature_gcode
2
; custom gcode end: feature_gcode

;TYPE:Internal perimeter
;WIDTH:0.5
G1 X143.689 Y170.311 E1.46702
M73 P20 R8
G1 X143.689 Y138.689 E1.46703
G1 X175.311 Y138.689 E1.46702
G1 X175.311 Y170.311 E1.46703
G1 X175.757 Y170.757 F27000
G1 F1800
G1 X143.243 Y170.757 E1.50843
G1 X143.243 Y138.243 E1.50844
G1 X175.757 Y138.243 E1.50844
G1 X175.757 Y170.757 E1.50844
M73 P21 R8
G1 X176.204 Y171.204 F27000
G1 F1800
G1 X142.796 Y171.204 E1.54985
G1 X142.796 Y137.796 E1.54986
G1 X176.204 Y137.796 E1.54985
G1 X176.204 Y171.204 E1.54985
M204 S1000
G1 X176.65 Y171.65 F27000
; custom gcode: feature_gcode
2
; custom gcode end: feature_gcode

;TYPE:External perimeter
G1 F1800
G1 X142.35 Y171.65 E1.59127
M73 P22 R8
G1 X142.35 Y137.35 E1.59127
G1 X176.65 Y137.35 E1.59126
G1 X176.65 Y171.65 E1.59127
;WIPE_START
M204 S4000
G1 X176.304 Y171.45 F27000
;WIPE_END
; acceleration to travel
M204 S10000
G1 X174.617 Y144.322
; decel to extrusion
M204 S2000
G1 X174.275 Y138.823
; end travel
; custom gcode: feature_gcode
2
; custom gcode end: feature_gcode

;TYPE:Solid infill
