; generated by SuperSlicer 2.5.59.13 on 2025-07-27 at 23:28:55 UTC


;
;

;
;
; 

; external perimeters extrusion width = 0.50mm
; perimeters extrusion width = 0.50mm
; infill extrusion width = 0.50mm
; solid infill extrusion width = 0.50mm
; top infill extrusion width = 0.50mm
; first layer extrusion width = 0.50mm

; external perimeters extrusion width = 0.50mm
; perimeters extrusion width = 0.50mm
; infill extrusion width = 0.50mm
; solid infill extrusion width = 0.50mm
; top infill extrusion width = 0.50mm
; first layer extrusion width = 0.50mm

; external perimeters extrusion width = 0.50mm
; perimeters extrusion width = 0.50mm
; infill extrusion width = 0.50mm
; solid infill extrusion width = 0.50mm
; top infill extrusion width = 0.50mm
; first layer extrusion width = 0.50mm

; object:{"name":"3mmsquare","id":"3mmsquare.stl id:0 copy 0","object_center":[159.500001,154.500001,0.000000],"boundingbox_center":[159.500001,154.500001,1.500000],"boundingbox_size":[35.000000,35.000000,3.000000]}
EXCLUDE_OBJECT_DEFINE NAME=3mmsquare_stl_id_0_copy_0 CENTER=159.500001,154.500001 POLYGON=[[142.00,137.00],[177.00,137.00],[177.00,172.00],[142.00,172.00],[142.00,137.00]]
; object:{"name":"point45block","id":"point45block.stl id:1 copy 0","object_center":[159.500001,195.500001,0.000000],"boundingbox_center":[159.500001,195.500001,0.225000],"boundingbox_size":[35.000000,35.000000,0.450000]}
EXCLUDE_OBJECT_DEFINE NAME=point45block_stl_id_1_copy_0 CENTER=159.500001,195.500001 POLYGON=[[142.00,178.00],[177.00,178.00],[177.00,213.00],[142.00,213.00],[142.00,178.00]]
; object:{"name":"First_Layer_Patch-0","id":"First_Layer_Patch-0.25mm.stl id:2 copy 0","object_center":[195.500001,175.000001,0.000000],"boundingbox_center":[195.500001,175.000001,0.125000],"boundingbox_size":[25.000000,25.000000,0.250000]}
EXCLUDE_OBJECT_DEFINE NAME=First_Layer_Patch_0_25mm_stl_id_2_copy_0 CENTER=195.500001,175.000001 POLYGON=[[183.00,162.50],[208.00,162.50],[208.00,187.50],[183.00,187.50],[183.00,162.50]]
; plater:{"center":[175.000001,175.000001,0.000000],"boundingbox_center":[175.000001,175.000001,1.500000],"boundingbox_size":[66.000000,76.000000,3.000000]}

M73 P0 R11
M107
;TYPE:Custom
; custom gcode: start_gcode
PRINT_START  TOOL_TEMP=273 BED_TEMP=99 TOOL=0 CHAMBER=49
; custom gcode end: start_gcode

G21 ; set units to millimeters
G90 ; use absolute coordinates
M83 ; use relative distances for extrusion
; custom gcode: toolchange_gcode
0
0
; custom gcode end: toolchange_gcode
; custom gcode: start_filament_gcode
0
; custom gcode end: start_filament_gcode
M109 S273 T0 ; set temperature and wait for it to be reached
M104 S260 T0 ; set temperature
M104 S280 T1 ; set temperature
M104 S240 T2 ; set temperature
M109 S273 T0 ; set temperature and wait for it to be reached
M190 S99 ; set bed temperature and wait for it to be reached
;LAYER_CHANGE
;Z:0.25
;HEIGHT:0.25
; custom gcode: before_layer_gcode
0
; custom gcode end: before_layer_gcode

G1 Z0.25 F27000
; custom gcode: layer_gcode
0
VERIFY_TOOL_DETECTED ASYNC=1 
; custom gcode end: layer_gcode

G92 E0
M73 P2 R11
G1 E-0.5 F1800
G1 Z0.45 F27000
M204 S2000
G1 X138.615 Y133.45
G1 Z0.25
G1 E0.5 F1800
; custom gcode: feature_gcode
0
; custom gcode end: feature_gcode

;TYPE:Skirt
;WIDTH:0.4
G1 X137.491 Y135.069 E0.07095
G1 X137.095 Y137 E0.07094
G1 X137.162 Y212.941 E2.7338
M73 P3 R11
G1 X137.471 Y214.648 E0.06245
G1 X138.517 Y216.318 E0.07094
G1 X140.136 Y217.442 E0.07095
G1 X142.067 Y217.838 E0.07094
G1 X176.933 Y217.838 E1.25516
G1 X178.312 Y217.64 E0.05015
G1 X180.054 Y216.718 E0.07095
G1 X211.02 Y191.184 E1.44484
G1 X212.409 Y189.331 E0.08338
G1 X212.805 Y187.4 E0.07095
G1 X212.805 Y162.6 E0.89277
G1 X212.263 Y160.359 E0.08298
G1 X211.029 Y158.823 E0.07094
G1 X180.129 Y133.223 E1.44453
M73 P4 R11
G1 X178.931 Y132.491 E0.05056
G1 X177 Y132.095 E0.07094
G1 X142 Y132.095 E1.25996
G1 X140.285 Y132.405 E0.06273
G1 X138.615 Y133.45 E0.07094
G1 X138.955 Y133.607 F27000
G1 F1800
G1 X137.837 Y135.142 E0.06837
G1 X137.441 Y137 E0.06837
G1 X137.508 Y212.941 E2.73378
G1 X137.728 Y214.331 E0.05069
G1 X138.674 Y215.978 E0.06836
G1 X140.209 Y217.096 E0.06837
G1 X142.067 Y217.492 E0.06837
G1 X176.933 Y217.492 E1.25516
G1 X178.149 Y217.327 E0.04415
G1 X179.833 Y216.45 E0.06836
G1 X210.8 Y190.917 E1.44485
G1 X212.063 Y189.258 E0.07507
M73 P5 R11
G1 X212.459 Y187.4 E0.06837
G1 X212.459 Y162.6 E0.89277
G1 X211.986 Y160.579 E0.07471
G1 X210.808 Y159.09 E0.06836
G1 X179.908 Y133.49 E1.44453
G1 X178.858 Y132.837 E0.04453
G1 X177 Y132.441 E0.06836
G1 X142 Y132.441 E1.25996
G1 X140.602 Y132.661 E0.05095
G1 X138.955 Y133.607 E0.06837
G1 E-0.5
M204 S4000
G1 Z0.45 F27000
; printing object 3mmsquare.stl id:0 copy 0
EXCLUDE_OBJECT_START NAME=3mmsquare_stl_id_0_copy_0
; acceleration to travel
M204 S10000
G1 X169.252 Y164.194
; decel to extrusion
M204 S2000
G1 X175.311 Y170.311
; end travel
G1 Z0.25
G1 E0.5 F1800
; custom gcode: feature_gcode
0
; custom gcode end: feature_gcode

;TYPE:Internal perimeter
;WIDTH:0.5
G1 X143.689 Y170.311 E1.46702
G1 X143.689 Y138.689 E1.46703
G1 X175.311 Y138.689 E1.46702
M73 P6 R11
G1 X175.311 Y170.311 E1.46703
G1 X175.757 Y170.757 F27000
G1 F1800
G1 X143.243 Y170.757 E1.50843
G1 X143.243 Y138.243 E1.50844
G1 X175.757 Y138.243 E1.50844
G1 X175.757 Y170.757 E1.50844
G1 X176.204 Y171.204 F27000
G1 F1800
G1 X142.796 Y171.204 E1.54985
G1 X142.796 Y137.796 E1.54986
M73 P7 R11
G1 X176.204 Y137.796 E1.54985
G1 X176.204 Y171.204 E1.54985
M204 S1000
G1 X176.65 Y171.65 F27000
; custom gcode: feature_gcode
0
; custom gcode end: feature_gcode

;TYPE:External perimeter
G1 F1800
G1 X142.35 Y171.65 E1.59127
G1 X142.35 Y137.35 E1.59127
G1 X176.65 Y137.35 E1.59126
G1 X176.65 Y171.65 E1.59127
;WIPE_START
M204 S4000
M73 P8 R10
G1 X176.304 Y171.45 F27000
;WIPE_END
; acceleration to travel
M204 S10000
G1 X174.617 Y144.322
; decel to extrusion
M204 S2000
G1 X174.275 Y138.823
; end travel
; custom gcode: feature_gcode
0
; custom gcode end: feature_gcode

;TYPE:Solid infill
;WIDTH:0.49441
G1 F3600
G1 X175.177 Y139.725 E0.05854
G1 X175.177 Y140.356 F27000
G1 F3600
G1 X173.644 Y138.823 E0.09949
G1 X173.012 Y138.823 F27000
G1 F3600
G1 X175.177 Y140.988 E0.14044
G1 X175.177 Y141.619 F27000
G1 F3600
G1 X172.381 Y138.823 E0.18139
G1 X171.75 Y138.823 F27000
G1 F3600
G1 X175.177 Y142.25 E0.22234
G1 X175.177 Y142.881 F27000
G1 F3600
G1 X171.119 Y138.823 E0.26329
G1 X170.487 Y138.823 F27000
G1 F3600
G1 X175.177 Y143.513 E0.30425
G1 X175.177 Y144.144 F27000
G1 F3600
G1 X169.856 Y138.823 E0.3452
G1 X169.225 Y138.823 F27000
G1 F3600
G1 X175.177 Y144.775 E0.38615
G1 X175.177 Y145.406 F27000
G1 F3600
G1 X168.594 Y138.823 E0.4271
G1 X167.962 Y138.823 F27000
G1 F3600
G1 X175.177 Y146.038 E0.46805
G1 X175.177 Y146.669 F27000
G1 F3600
G1 X167.331 Y138.823 E0.50901
G1 X166.7 Y138.823 F27000
G1 F3600
G1 X175.177 Y147.3 E0.54995
G1 X175.177 Y147.931 F27000
G1 F3600
G1 X166.069 Y138.823 E0.59091
G1 X165.438 Y138.823 F27000
G1 F3600
G1 X175.177 Y148.562 E0.63186
G1 X175.177 Y149.194 F27000
G1 F3600
G1 X164.806 Y138.823 E0.67281
G1 X164.175 Y138.823 F27000
G1 F3600
G1 X175.177 Y149.825 E0.71376
G1 X175.177 Y150.456 F27000
G1 F3600
G1 X163.544 Y138.823 E0.75471
G1 X162.913 Y138.823 F27000
G1 F3600
G1 X175.177 Y151.087 E0.79567
G1 X175.177 Y151.719 F27000
G1 F3600
G1 X162.281 Y138.823 E0.83662
G1 X161.65 Y138.823 F27000
G1 F3600
G1 X175.177 Y152.35 E0.87757
G1 X175.177 Y152.981 F27000
G1 F3600
G1 X161.019 Y138.823 E0.91852
G1 X160.388 Y138.823 F27000
G1 F3600
G1 X175.177 Y153.612 E0.95947
G1 X175.177 Y154.244 F27000
G1 F3600
G1 X159.756 Y138.823 E1.00042
G1 X159.125 Y138.823 F27000
G1 F3600
G1 X175.177 Y154.875 E1.04138
G1 X175.177 Y155.506 F27000
G1 F3600
G1 X158.494 Y138.823 E1.08233
M73 P9 R10
G1 X157.863 Y138.823 F27000
G1 F3600
G1 X175.177 Y156.137 E1.12327
G1 X175.177 Y156.769 F27000
G1 F3600
G1 X157.232 Y138.823 E1.16423
G1 X156.6 Y138.823 F27000
G1 F3600
G1 X175.177 Y157.4 E1.20519
G1 X175.177 Y158.031 F27000
G1 F3600
G1 X155.969 Y138.823 E1.24613
G1 X155.338 Y138.823 F27000
G1 F3600
G1 X175.177 Y158.662 E1.28709
G1 X175.177 Y159.293 F27000
G1 F3600
G1 X154.707 Y138.823 E1.32803
G1 X154.075 Y138.823 F27000
G1 F3600
G1 X175.177 Y159.925 E1.36899
G1 X175.177 Y160.556 F27000
G1 F3600
G1 X153.444 Y138.823 E1.40994
G1 X152.813 Y138.823 F27000
G1 F3600
G1 X175.177 Y161.187 E1.45089
G1 X175.177 Y161.818 F27000
G1 F3600
G1 X152.182 Y138.823 E1.49185
G1 X151.55 Y138.823 F27000
G1 F3600
G1 X175.177 Y162.45 E1.53279
G1 X175.177 Y163.081 F27000
G1 F3600
G1 X150.919 Y138.823 E1.57375
G1 X150.288 Y138.823 F27000
G1 F3600
G1 X175.177 Y163.712 E1.6147
M73 P10 R10
G1 X175.177 Y164.343 F27000
G1 F3600
G1 X149.657 Y138.823 E1.65565
G1 X149.025 Y138.823 F27000
G1 F3600
G1 X175.177 Y164.975 E1.6966
G1 X175.177 Y165.606 F27000
G1 F3600
G1 X148.394 Y138.823 E1.73755
G1 X147.763 Y138.823 F27000
G1 F3600
G1 X175.177 Y166.237 E1.77851
G1 X175.177 Y166.868 F27000
G1 F3600
G1 X147.132 Y138.823 E1.81945
G1 X146.501 Y138.823 F27000
G1 F3600
G1 X175.177 Y167.499 E1.86041
G1 X175.177 Y168.131 F27000
G1 F3600
G1 X145.869 Y138.823 E1.90136
G1 X145.238 Y138.823 F27000
G1 F3600
G1 X175.177 Y168.762 E1.94231
G1 X175.177 Y169.393 F27000
G1 F3600
G1 X144.607 Y138.823 E1.98326
G1 X143.976 Y138.823 F27000
G1 F3600
G1 X175.177 Y170.024 E2.02422
M73 P11 R10
G1 X174.699 Y170.177 F27000
G1 F3600
G1 X143.823 Y139.301 E2.00307
G1 X143.823 Y139.933 F27000
G1 F3600
G1 X174.067 Y170.177 E1.96212
G1 X173.436 Y170.177 F27000
G1 F3600
G1 X143.823 Y140.564 E1.92117
G1 X143.823 Y141.195 F27000
G1 F3600
G1 X172.805 Y170.177 E1.88022
G1 X172.174 Y170.177 F27000
G1 F3600
G1 X143.823 Y141.826 E1.83927
G1 X143.823 Y142.458 F27000
G1 F3600
G1 X171.542 Y170.177 E1.79832
G1 X170.911 Y170.177 F27000
G1 F3600
G1 X143.823 Y143.089 E1.75736
G1 X143.823 Y143.72 F27000
G1 F3600
G1 X170.28 Y170.177 E1.71641
G1 X169.649 Y170.177 F27000
G1 F3600
G1 X143.823 Y144.351 E1.67546
G1 X143.823 Y144.983 F27000
G1 F3600
G1 X169.017 Y170.177 E1.63451
M73 P12 R10
G1 X168.386 Y170.177 F27000
G1 F3600
G1 X143.823 Y145.614 E1.59356
G1 X143.823 Y146.245 F27000
G1 F3600
G1 X167.755 Y170.177 E1.5526
G1 X167.124 Y170.177 F27000
G1 F3600
G1 X143.823 Y146.876 E1.51166
G1 X143.823 Y147.508 F27000
G1 F3600
G1 X166.492 Y170.177 E1.4707
G1 X165.861 Y170.177 F27000
G1 F3600
G1 X143.823 Y148.139 E1.42975
G1 X143.823 Y148.77 F27000
G1 F3600
G1 X165.23 Y170.177 E1.3888
G1 X164.599 Y170.177 F27000
G1 F3600
G1 X143.823 Y149.401 E1.34785
G1 X143.823 Y150.032 F27000
G1 F3600
G1 X163.968 Y170.177 E1.30689
G1 X163.336 Y170.177 F27000
G1 F3600
G1 X143.823 Y150.664 E1.26595
G1 X143.823 Y151.295 F27000
G1 F3600
G1 X162.705 Y170.177 E1.22499
G1 X162.074 Y170.177 F27000
G1 F3600
G1 X143.823 Y151.926 E1.18404
G1 X143.823 Y152.557 F27000
G1 F3600
G1 X161.443 Y170.177 E1.14309
G1 X160.811 Y170.177 F27000
G1 F3600
G1 X143.823 Y153.189 E1.10214
M73 P13 R10
G1 X143.823 Y153.82 F27000
G1 F3600
G1 X160.18 Y170.177 E1.06118
G1 X159.549 Y170.177 F27000
G1 F3600
G1 X143.823 Y154.451 E1.02024
G1 X143.823 Y155.082 F27000
G1 F3600
G1 X158.918 Y170.177 E0.97928
G1 X158.286 Y170.177 F27000
G1 F3600
G1 X143.823 Y155.714 E0.93833
G1 X143.823 Y156.345 F27000
G1 F3600
G1 X157.655 Y170.177 E0.89738
G1 X157.024 Y170.177 F27000
G1 F3600
G1 X143.823 Y156.976 E0.85643
G1 X143.823 Y157.607 F27000
G1 F3600
G1 X156.393 Y170.177 E0.81548
G1 X155.762 Y170.177 F27000
G1 F3600
G1 X143.823 Y158.238 E0.77452
G1 X143.823 Y158.87 F27000
G1 F3600
G1 X155.13 Y170.177 E0.73357
G1 X154.499 Y170.177 F27000
G1 F3600
G1 X143.823 Y159.501 E0.69263
G1 X143.823 Y160.132 F27000
G1 F3600
G1 X153.868 Y170.177 E0.65166
G1 X153.237 Y170.177 F27000
G1 F3600
G1 X143.823 Y160.763 E0.61072
G1 X143.823 Y161.395 F27000
G1 F3600
G1 X152.605 Y170.177 E0.56977
G1 X151.974 Y170.177 F27000
G1 F3600
G1 X143.823 Y162.026 E0.52881
G1 X143.823 Y162.657 F27000
G1 F3600
G1 X151.343 Y170.177 E0.48787
G1 X150.712 Y170.177 F27000
G1 F3600
G1 X143.823 Y163.288 E0.44691
G1 X143.823 Y163.92 F27000
G1 F3600
G1 X150.08 Y170.177 E0.40596
G1 X149.449 Y170.177 F27000
G1 F3600
G1 X143.823 Y164.551 E0.36501
G1 X143.823 Y165.182 F27000
G1 F3600
G1 X148.818 Y170.177 E0.32405
G1 X148.187 Y170.177 F27000
G1 F3600
G1 X143.823 Y165.813 E0.28311
G1 X143.823 Y166.444 F27000
G1 F3600
G1 X147.556 Y170.177 E0.24215
G1 X146.924 Y170.177 F27000
G1 F3600
G1 X143.823 Y167.076 E0.2012
G1 X143.823 Y167.707 F27000
G1 F3600
G1 X146.293 Y170.177 E0.16025
G1 X145.662 Y170.177 F27000
G1 F3600
G1 X143.823 Y168.338 E0.1193
G1 X143.823 Y168.969 F27000
G1 F3600
G1 X145.031 Y170.177 E0.07835
G1 X144.399 Y170.177 F27000
G1 F3600
G1 X143.823 Y169.601 E0.03739
G1 E-10.000000 F1800
M204 S4000
M73 P14 R10
G1 Z0.45 F27000
; custom gcode: end_filament_gcode
0
; custom gcode end: end_filament_gcode
G1 X135.509 Y169.59
M104 S260 T0 ; set temperature
; custom gcode: toolchange_gcode
0
1
; custom gcode end: toolchange_gcode
; custom gcode: start_filament_gcode
1
; custom gcode end: start_filament_gcode
M109 S293 T1 ; set temperature and wait for it to be reached
G1 E-0.5 F1800
; stop printing object 3mmsquare.stl id:0 copy 0
EXCLUDE_OBJECT_END NAME=3mmsquare_stl_id_0_copy_0
; acceleration to travel
M204 S10000
G1 X138.782 Y142.373 F27000
; decel to extrusion
M204 S2000
G1 X137.788 Y137
; end travel
G1 Z0.25
G1 E0.5 F1800
; custom gcode: feature_gcode
1
; custom gcode end: feature_gcode

;TYPE:Skirt
;WIDTH:0.4
G1 X137.854 Y212.94 E2.73376
G1 X137.997 Y214.019 E0.03919
G1 X138.838 Y215.639 E0.06569
G1 X140.285 Y216.75 E0.06569
G1 X142.067 Y217.146 E0.06569
G1 X176.933 Y217.146 E1.25516
G1 X177.987 Y217.012 E0.03824
G1 X179.613 Y216.183 E0.06569
G1 X210.58 Y190.65 E1.44484
G1 X211.717 Y189.181 E0.06686
G1 X212.112 Y187.4 E0.06569
G1 X212.112 Y162.6 E0.89277
G1 X211.707 Y160.797 E0.06652
G1 X210.587 Y159.356 E0.06569
G1 X179.687 Y133.756 E1.44452
M73 P15 R10
G1 X178.781 Y133.183 E0.0386
G1 X177 Y132.788 E0.06569
G1 X142 Y132.788 E1.25996
G1 X140.914 Y132.93 E0.03943
G1 X139.295 Y133.771 E0.06569
G1 X138.183 Y135.219 E0.06569
G1 X137.788 Y137 E0.06569
G1 X138.134 Y137 F27000
G1 F1800
G1 X138.201 Y212.94 E2.73374
G1 X139.01 Y215.301 E0.08985
G1 X140.365 Y216.404 E0.06289
G1 X142.067 Y216.799 E0.0629
G1 X176.933 Y216.799 E1.25516
G1 X177.828 Y216.694 E0.03244
G1 X179.393 Y215.916 E0.0629
G1 X210.359 Y190.383 E1.44484
M73 P16 R10
G1 X211.371 Y189.102 E0.05875
G1 X211.766 Y187.4 E0.0629
G1 X211.766 Y162.6 E0.89277
G1 X211.425 Y161.013 E0.05844
G1 X210.366 Y159.623 E0.06289
G1 X179.466 Y134.023 E1.44453
M73 P16 R9
G1 X178.702 Y133.529 E0.03276
G1 X177 Y133.134 E0.0629
G1 X142 Y133.134 E1.25996
G1 X139.633 Y133.944 E0.09006
G1 X138.529 Y135.298 E0.0629
G1 X138.134 Y137 E0.06289
G1 E-0.5
M204 S4000
G1 Z0.45 F27000
; printing object point45block.stl id:1 copy 0
EXCLUDE_OBJECT_START NAME=point45block_stl_id_1_copy_0
; acceleration to travel
M204 S10000
G1 X169.115 Y198.926
; decel to extrusion
M204 S2000
G1 X175.311 Y211.311
; end travel
G1 Z0.25
G1 E0.5 F1800
; custom gcode: feature_gcode
1
; custom gcode end: feature_gcode

;TYPE:Internal perimeter
;WIDTH:0.5
G1 X143.689 Y211.311 E1.46702
G1 X143.689 Y179.689 E1.46703
M73 P17 R9
G1 X175.311 Y179.689 E1.46702
G1 X175.311 Y211.311 E1.46703
G1 X175.757 Y211.757 F27000
G1 F1800
G1 X143.243 Y211.757 E1.50843
G1 X143.243 Y179.243 E1.50844
G1 X175.757 Y179.243 E1.50844
G1 X175.757 Y211.757 E1.50844
G1 X176.204 Y212.204 F27000
G1 F1800
G1 X142.796 Y212.204 E1.54985
M73 P18 R9
G1 X142.796 Y178.796 E1.54986
G1 X176.204 Y178.796 E1.54985
G1 X176.204 Y212.204 E1.54985
M204 S1000
G1 X176.65 Y212.65 F27000
; custom gcode: feature_gcode
1
; custom gcode end: feature_gcode

;TYPE:External perimeter
G1 F1800
G1 X142.35 Y212.65 E1.59127
G1 X142.35 Y178.35 E1.59127
G1 X176.65 Y178.35 E1.59126
M73 P19 R9
G1 X176.65 Y212.65 E1.59127
;WIPE_START
M204 S4000
G1 X176.304 Y212.45 F27000
;WIPE_END
; acceleration to travel
M204 S10000
G1 X174.617 Y185.322
; decel to extrusion
M204 S2000
G1 X174.275 Y179.823
; end travel
; custom gcode: feature_gcode
1
; custom gcode end: feature_gcode

;TYPE:Solid infill
;WIDTH:0.49441
G1 F3600
