; generated by SuperSlicer 2.5.59.13 on 2025-07-27 at 23:28:10 UTC


;
;

;
;
; 

; external perimeters extrusion width = 0.50mm
; perimeters extrusion width = 0.50mm
; infill extrusion width = 0.50mm
; solid infill extrusion width = 0.50mm
; top infill extrusion width = 0.50mm
; first layer extrusion width = 0.50mm

; external perimeters extrusion width = 0.50mm
; perimeters extrusion width = 0.50mm
; infill extrusion width = 0.50mm
; solid infill extrusion width = 0.50mm
; top infill extrusion width = 0.50mm
; first layer extrusion width = 0.50mm

; external perimeters extrusion width = 0.50mm
; perimeters extrusion width = 0.50mm
; infill extrusion width = 0.50mm
; solid infill extrusion width = 0.50mm
; top infill extrusion width = 0.50mm
; first layer extrusion width = 0.50mm

; object:{"name":"3mmsquare","id":"3mmsquare.stl id:0 copy 0","object_center":[195.500001,154.500001,0.000000],"boundingbox_center":[195.500001,154.500001,1.500000],"boundingbox_size":[35.000000,35.000000,3.000000]}
EXCLUDE_OBJECT_DEFINE NAME=3mmsquare_stl_id_0_copy_0 CENTER=195.500001,154.500001 POLYGON=[[178.00,137.00],[213.00,137.00],[213.00,172.00],[178.00,172.00],[178.00,137.00]]
; object:{"name":"3mmsquare","id":"3mmsquare.stl id:1 copy 0","object_center":[195.500001,195.500001,0.000000],"boundingbox_center":[195.500001,195.500001,1.500000],"boundingbox_size":[35.000000,35.000000,3.000000]}
EXCLUDE_OBJECT_DEFINE NAME=3mmsquare_stl_id_1_copy_0 CENTER=195.500001,195.500001 POLYGON=[[178.00,178.00],[213.00,178.00],[213.00,213.00],[178.00,213.00],[178.00,178.00]]
; object:{"name":"point45block","id":"point45block.stl id:2 copy 0","object_center":[154.500001,175.000001,0.000000],"boundingbox_center":[154.500001,175.000001,0.225000],"boundingbox_size":[35.000000,35.000000,0.450000]}
EXCLUDE_OBJECT_DEFINE NAME=point45block_stl_id_2_copy_0 CENTER=154.500001,175.000001 POLYGON=[[137.00,157.50],[172.00,157.50],[172.00,192.50],[137.00,192.50],[137.00,157.50]]
; plater:{"center":[175.000001,175.000001,0.000000],"boundingbox_center":[175.000001,175.000001,1.500000],"boundingbox_size":[76.000000,76.000000,3.000000]}

M73 P0 R17
M107
;TYPE:Custom
; custom gcode: start_gcode
PRINT_START  TOOL_TEMP=273 BED_TEMP=99 TOOL=0 CHAMBER=49
; custom gcode end: start_gcode

G21 ; set units to millimeters
G90 ; use absolute coordinates
M83 ; use relative distances for extrusion
; custom gcode: toolchange_gcode
0
0
; custom gcode end: toolchange_gcode
; custom gcode: start_filament_gcode
0
; custom gcode end: start_filament_gcode
M109 S273 T0 ; set temperature and wait for it to be reached
M104 S260 T0 ; set temperature
M104 S280 T1 ; set temperature
M104 S240 T2 ; set temperature
M109 S273 T0 ; set temperature and wait for it to be reached
M190 S99 ; set bed temperature and wait for it to be reached
;LAYER_CHANGE
;Z:0.25
;HEIGHT:0.25
; custom gcode: before_layer_gcode
0
; custom gcode end: before_layer_gcode

G1 Z0.25 F27000
; custom gcode: layer_gcode
0
VERIFY_TOOL_DETECTED ASYNC=1 
; custom gcode end: layer_gcode

G92 E0
M73 P1 R17
G1 E-0.5 F1800
G1 Z0.45 F27000
M204 S2000
G1 X133.682 Y154.017
G1 Z0.25
G1 E0.5 F1800
; custom gcode: feature_gcode
0
; custom gcode end: feature_gcode

;TYPE:Skirt
;WIDTH:0.4
G1 X132.558 Y155.636 E0.07095
G1 X132.162 Y157.567 E0.07094
G1 X132.162 Y192.433 E1.25516
M73 P2 R17
G1 X132.375 Y193.865 E0.05209
G1 X133.317 Y195.596 E0.07095
G1 X134.865 Y196.816 E0.07094
G1 X175.798 Y217.383 E1.6491
G1 X178 Y217.905 E0.08147
G1 X213 Y217.905 E1.25996
G1 X214.715 Y217.595 E0.06273
G1 X216.385 Y216.55 E0.07094
G1 X217.509 Y214.931 E0.07095
G1 X217.905 Y213 E0.07094
G1 X217.905 Y137 E2.73592
G1 X217.595 Y135.285 E0.06273
G1 X216.55 Y133.615 E0.07094
G1 X214.931 Y132.491 E0.07095
G1 X213 Y132.095 E0.07094
G1 X178 Y132.095 E1.25996
G1 X175.798 Y132.617 E0.08147
G1 X134.865 Y153.184 E1.6491
G1 X133.682 Y154.017 E0.05209
G1 X134.022 Y154.174 F27000
G1 F1800
G1 X132.904 Y155.709 E0.06837
G1 X132.508 Y157.567 E0.06837
G1 X132.508 Y192.433 E1.25516
M73 P3 R17
G1 X132.668 Y193.631 E0.04349
G1 X133.538 Y195.319 E0.06837
G1 X135.02 Y196.507 E0.06836
G1 X175.953 Y217.073 E1.6491
G1 X178 Y217.559 E0.07572
G1 X213 Y217.559 E1.25996
G1 X214.398 Y217.339 E0.05095
G1 X216.045 Y216.393 E0.06836
G1 X217.163 Y214.858 E0.06837
G1 X217.559 Y213 E0.06837
G1 X217.559 Y137 E2.73591
G1 X217.339 Y135.602 E0.05095
G1 X216.393 Y133.955 E0.06837
G1 X214.858 Y132.837 E0.06837
G1 X213 Y132.441 E0.06837
G1 X178 Y132.441 E1.25996
G1 X175.953 Y132.927 E0.07571
G1 X135.02 Y153.493 E1.6491
G1 X134.022 Y154.174 E0.04349
G1 E-0.5
M204 S4000
G1 Z0.45 F27000
; printing object 3mmsquare.stl id:0 copy 0
EXCLUDE_OBJECT_START NAME=3mmsquare_stl_id_0_copy_0
; acceleration to travel
M204 S10000
G1 X198.429 Y167.621
; decel to extrusion
M204 S2000
G1 X211.311 Y170.311
; end travel
G1 Z0.25
G1 E0.5 F1800
; custom gcode: feature_gcode
0
; custom gcode end: feature_gcode

;TYPE:Internal perimeter
;WIDTH:0.5
G1 X179.689 Y170.311 E1.46702
M73 P4 R17
G1 X179.689 Y138.689 E1.46703
M73 P4 R16
G1 X211.311 Y138.689 E1.46702
G1 X211.311 Y170.311 E1.46703
G1 X211.757 Y170.757 F27000
G1 F1800
G1 X179.243 Y170.757 E1.50843
G1 X179.243 Y138.243 E1.50844
G1 X211.757 Y138.243 E1.50844
G1 X211.757 Y170.757 E1.50844
G1 X212.204 Y171.204 F27000
G1 F1800
G1 X178.796 Y171.204 E1.54985
G1 X178.796 Y137.796 E1.54986
G1 X212.204 Y137.796 E1.54985
M73 P5 R16
G1 X212.204 Y171.204 E1.54985
M204 S1000
G1 X212.65 Y171.65 F27000
; custom gcode: feature_gcode
0
; custom gcode end: feature_gcode

;TYPE:External perimeter
G1 F1800
G1 X178.35 Y171.65 E1.59127
G1 X178.35 Y137.35 E1.59127
G1 X212.65 Y137.35 E1.59126
G1 X212.65 Y171.65 E1.59127
;WIPE_START
M204 S4000
G1 X212.304 Y171.45 F27000
;WIPE_END
; acceleration to travel
M204 S10000
G1 X210.617 Y144.322
; decel to extrusion
M204 S2000
G1 X210.275 Y138.823
; end travel
; custom gcode: feature_gcode
0
; custom gcode end: feature_gcode

;TYPE:Solid infill
;WIDTH:0.49441
G1 F3600
G1 X211.177 Y139.725 E0.05854
G1 X211.177 Y140.356 F27000
G1 F3600
G1 X209.644 Y138.823 E0.09949
G1 X209.012 Y138.823 F27000
G1 F3600
G1 X211.177 Y140.988 E0.14044
G1 X211.177 Y141.619 F27000
G1 F3600
G1 X208.381 Y138.823 E0.18139
G1 X207.75 Y138.823 F27000
G1 F3600
G1 X211.177 Y142.25 E0.22234
G1 X211.177 Y142.881 F27000
G1 F3600
G1 X207.119 Y138.823 E0.26329
G1 X206.487 Y138.823 F27000
G1 F3600
G1 X211.177 Y143.513 E0.30425
G1 X211.177 Y144.144 F27000
G1 F3600
G1 X205.856 Y138.823 E0.3452
G1 X205.225 Y138.823 F27000
G1 F3600
G1 X211.177 Y144.775 E0.38615
G1 X211.177 Y145.406 F27000
G1 F3600
G1 X204.594 Y138.823 E0.4271
G1 X203.962 Y138.823 F27000
G1 F3600
G1 X211.177 Y146.038 E0.46805
G1 X211.177 Y146.669 F27000
G1 F3600
G1 X203.331 Y138.823 E0.50901
G1 X202.7 Y138.823 F27000
G1 F3600
G1 X211.177 Y147.3 E0.54995
G1 X211.177 Y147.931 F27000
G1 F3600
G1 X202.069 Y138.823 E0.59091
G1 X201.438 Y138.823 F27000
G1 F3600
G1 X211.177 Y148.562 E0.63186
G1 X211.177 Y149.194 F27000
G1 F3600
G1 X200.806 Y138.823 E0.67281
G1 X200.175 Y138.823 F27000
G1 F3600
G1 X211.177 Y149.825 E0.71376
G1 X211.177 Y150.456 F27000
G1 F3600
G1 X199.544 Y138.823 E0.75471
G1 X198.913 Y138.823 F27000
G1 F3600
G1 X211.177 Y151.087 E0.79567
G1 X211.177 Y151.719 F27000
G1 F3600
G1 X198.281 Y138.823 E0.83662
M73 P6 R16
G1 X197.65 Y138.823 F27000
G1 F3600
G1 X211.177 Y152.35 E0.87757
G1 X211.177 Y152.981 F27000
G1 F3600
G1 X197.019 Y138.823 E0.91852
G1 X196.388 Y138.823 F27000
G1 F3600
G1 X211.177 Y153.612 E0.95947
G1 X211.177 Y154.244 F27000
G1 F3600
G1 X195.756 Y138.823 E1.00042
G1 X195.125 Y138.823 F27000
G1 F3600
G1 X211.177 Y154.875 E1.04138
G1 X211.177 Y155.506 F27000
G1 F3600
G1 X194.494 Y138.823 E1.08233
G1 X193.863 Y138.823 F27000
G1 F3600
G1 X211.177 Y156.137 E1.12327
G1 X211.177 Y156.769 F27000
G1 F3600
G1 X193.232 Y138.823 E1.16423
G1 X192.6 Y138.823 F27000
G1 F3600
G1 X211.177 Y157.4 E1.20519
G1 X211.177 Y158.031 F27000
G1 F3600
G1 X191.969 Y138.823 E1.24613
G1 X191.338 Y138.823 F27000
G1 F3600
G1 X211.177 Y158.662 E1.28709
G1 X211.177 Y159.293 F27000
G1 F3600
G1 X190.707 Y138.823 E1.32803
G1 X190.075 Y138.823 F27000
G1 F3600
G1 X211.177 Y159.925 E1.36899
G1 X211.177 Y160.556 F27000
G1 F3600
G1 X189.444 Y138.823 E1.40994
G1 X188.813 Y138.823 F27000
G1 F3600
G1 X211.177 Y161.187 E1.45089
G1 X211.177 Y161.818 F27000
G1 F3600
G1 X188.182 Y138.823 E1.49185
G1 X187.55 Y138.823 F27000
G1 F3600
G1 X211.177 Y162.45 E1.53279
G1 X211.177 Y163.081 F27000
G1 F3600
G1 X186.919 Y138.823 E1.57375
G1 X186.288 Y138.823 F27000
G1 F3600
G1 X211.177 Y163.712 E1.6147
G1 X211.177 Y164.343 F27000
G1 F3600
G1 X185.657 Y138.823 E1.65565
G1 X185.025 Y138.823 F27000
G1 F3600
G1 X211.177 Y164.975 E1.6966
M73 P7 R16
G1 X211.177 Y165.606 F27000
G1 F3600
G1 X184.394 Y138.823 E1.73755
G1 X183.763 Y138.823 F27000
G1 F3600
G1 X211.177 Y166.237 E1.77851
G1 X211.177 Y166.868 F27000
G1 F3600
G1 X183.132 Y138.823 E1.81945
G1 X182.501 Y138.823 F27000
G1 F3600
G1 X211.177 Y167.499 E1.86041
G1 X211.177 Y168.131 F27000
G1 F3600
G1 X181.869 Y138.823 E1.90136
G1 X181.238 Y138.823 F27000
G1 F3600
G1 X211.177 Y168.762 E1.94231
G1 X211.177 Y169.393 F27000
G1 F3600
G1 X180.607 Y138.823 E1.98326
G1 X179.976 Y138.823 F27000
G1 F3600
G1 X211.177 Y170.024 E2.02422
G1 X210.699 Y170.177 F27000
G1 F3600
G1 X179.823 Y139.301 E2.00307
G1 X179.823 Y139.933 F27000
G1 F3600
G1 X210.067 Y170.177 E1.96212
G1 X209.436 Y170.177 F27000
G1 F3600
G1 X179.823 Y140.564 E1.92117
G1 X179.823 Y141.195 F27000
G1 F3600
G1 X208.805 Y170.177 E1.88022
G1 X208.174 Y170.177 F27000
G1 F3600
G1 X179.823 Y141.826 E1.83927
G1 X179.823 Y142.458 F27000
G1 F3600
G1 X207.542 Y170.177 E1.79832
M73 P8 R16
G1 X206.911 Y170.177 F27000
G1 F3600
G1 X179.823 Y143.089 E1.75736
G1 X179.823 Y143.72 F27000
G1 F3600
G1 X206.28 Y170.177 E1.71641
G1 X205.649 Y170.177 F27000
G1 F3600
G1 X179.823 Y144.351 E1.67546
G1 X179.823 Y144.983 F27000
G1 F3600
G1 X205.017 Y170.177 E1.63451
G1 X204.386 Y170.177 F27000
G1 F3600
G1 X179.823 Y145.614 E1.59356
G1 X179.823 Y146.245 F27000
G1 F3600
G1 X203.755 Y170.177 E1.5526
G1 X203.124 Y170.177 F27000
G1 F3600
G1 X179.823 Y146.876 E1.51166
G1 X179.823 Y147.508 F27000
G1 F3600
G1 X202.492 Y170.177 E1.4707
G1 X201.861 Y170.177 F27000
G1 F3600
G1 X179.823 Y148.139 E1.42975
G1 X179.823 Y148.77 F27000
G1 F3600
G1 X201.23 Y170.177 E1.3888
G1 X200.599 Y170.177 F27000
G1 F3600
G1 X179.823 Y149.401 E1.34785
G1 X179.823 Y150.032 F27000
G1 F3600
G1 X199.968 Y170.177 E1.30689
G1 X199.336 Y170.177 F27000
G1 F3600
G1 X179.823 Y150.664 E1.26595
G1 X179.823 Y151.295 F27000
G1 F3600
G1 X198.705 Y170.177 E1.22499
G1 X198.074 Y170.177 F27000
G1 F3600
G1 X179.823 Y151.926 E1.18404
G1 X179.823 Y152.557 F27000
G1 F3600
G1 X197.443 Y170.177 E1.14309
G1 X196.811 Y170.177 F27000
G1 F3600
G1 X179.823 Y153.189 E1.10214
G1 X179.823 Y153.82 F27000
G1 F3600
G1 X196.18 Y170.177 E1.06118
G1 X195.549 Y170.177 F27000
G1 F3600
G1 X179.823 Y154.451 E1.02024
M73 P9 R16
G1 X179.823 Y155.082 F27000
G1 F3600
G1 X194.918 Y170.177 E0.97928
G1 X194.286 Y170.177 F27000
G1 F3600
G1 X179.823 Y155.714 E0.93833
G1 X179.823 Y156.345 F27000
G1 F3600
G1 X193.655 Y170.177 E0.89738
G1 X193.024 Y170.177 F27000
G1 F3600
G1 X179.823 Y156.976 E0.85643
G1 X179.823 Y157.607 F27000
G1 F3600
G1 X192.393 Y170.177 E0.81548
G1 X191.762 Y170.177 F27000
G1 F3600
G1 X179.823 Y158.238 E0.77452
G1 X179.823 Y158.87 F27000
G1 F3600
G1 X191.13 Y170.177 E0.73357
G1 X190.499 Y170.177 F27000
G1 F3600
G1 X179.823 Y159.501 E0.69263
G1 X179.823 Y160.132 F27000
G1 F3600
G1 X189.868 Y170.177 E0.65166
G1 X189.237 Y170.177 F27000
G1 F3600
G1 X179.823 Y160.763 E0.61072
G1 X179.823 Y161.395 F27000
G1 F3600
G1 X188.605 Y170.177 E0.56977
G1 X187.974 Y170.177 F27000
G1 F3600
G1 X179.823 Y162.026 E0.52881
G1 X179.823 Y162.657 F27000
G1 F3600
G1 X187.343 Y170.177 E0.48787
G1 X186.712 Y170.177 F27000
G1 F3600
G1 X179.823 Y163.288 E0.44691
G1 X179.823 Y163.92 F27000
G1 F3600
G1 X186.08 Y170.177 E0.40596
G1 X185.449 Y170.177 F27000
G1 F3600
G1 X179.823 Y164.551 E0.36501
G1 X179.823 Y165.182 F27000
G1 F3600
G1 X184.818 Y170.177 E0.32405
G1 X184.187 Y170.177 F27000
G1 F3600
G1 X179.823 Y165.813 E0.28311
G1 X179.823 Y166.444 F27000
G1 F3600
G1 X183.556 Y170.177 E0.24215
G1 X182.924 Y170.177 F27000
G1 F3600
G1 X179.823 Y167.076 E0.2012
G1 X179.823 Y167.707 F27000
G1 F3600
G1 X182.293 Y170.177 E0.16025
G1 X181.662 Y170.177 F27000
G1 F3600
G1 X179.823 Y168.338 E0.1193
G1 X179.823 Y168.969 F27000
G1 F3600
G1 X181.031 Y170.177 E0.07835
G1 X180.399 Y170.177 F27000
G1 F3600
G1 X179.823 Y169.601 E0.03739
G1 E-10.000000 F1800
M204 S4000
G1 Z0.45 F27000
; custom gcode: end_filament_gcode
0
; custom gcode end: end_filament_gcode
G1 X164.061 Y136.707
M104 S260 T0 ; set temperature
; custom gcode: toolchange_gcode
0
1
; custom gcode end: toolchange_gcode
; custom gcode: start_filament_gcode
1
; custom gcode end: start_filament_gcode
M109 S293 T1 ; set temperature and wait for it to be reached
G1 E-0.5 F1800
; stop printing object 3mmsquare.stl id:0 copy 0
EXCLUDE_OBJECT_END NAME=3mmsquare_stl_id_0_copy_0
; acceleration to travel
M204 S10000
G1 X176.721 Y139.229 F27000
; decel to extrusion
M204 S2000
G1 X176.109 Y133.236
; end travel
G1 Z0.25
G1 E0.5 F1800
; custom gcode: feature_gcode
1
; custom gcode end: feature_gcode

;TYPE:Skirt
;WIDTH:0.4
G1 X135.176 Y153.803 E1.6491
M73 P9 R15
G1 X134.361 Y154.338 E0.03507
G1 X133.25 Y155.785 E0.06569
G1 X132.854 Y157.567 E0.06569
G1 X132.854 Y192.433 E1.25516
G1 X132.967 Y193.401 E0.03508
G1 X133.761 Y195.044 E0.06569
G1 X135.176 Y196.197 E0.06569
G1 X176.109 Y216.764 E1.6491
M73 P10 R15
G1 X178 Y217.212 E0.06996
G1 X213 Y217.212 E1.25996
G1 X214.086 Y217.07 E0.03943
G1 X215.705 Y216.229 E0.06569
G1 X216.817 Y214.781 E0.06569
G1 X217.212 Y213 E0.06569
G1 X217.212 Y137 E2.73592
G1 X217.07 Y135.914 E0.03943
G1 X216.229 Y134.295 E0.06569
G1 X214.781 Y133.183 E0.06569
G1 X213 Y132.788 E0.06569
G1 X178 Y132.788 E1.25996
G1 X176.109 Y133.236 E0.06996
G1 X176.264 Y133.546 F27000
G1 F1800
G1 X135.331 Y154.112 E1.6491
G1 X133.596 Y155.865 E0.08878
G1 X133.201 Y157.567 E0.0629
G1 X133.201 Y192.433 E1.25516
G1 X133.987 Y194.771 E0.08878
G1 X135.331 Y195.888 E0.0629
G1 X176.264 Y216.454 E1.64909
M73 P11 R15
G1 X178 Y216.866 E0.06421
G1 X213 Y216.866 E1.25996
G1 X215.367 Y216.056 E0.09007
G1 X216.471 Y214.702 E0.06289
G1 X216.866 Y213 E0.0629
G1 X216.866 Y137 E2.73591
G1 X216.056 Y134.633 E0.09007
G1 X214.702 Y133.529 E0.06289
G1 X213 Y133.134 E0.0629
G1 X178 Y133.134 E1.25996
G1 X176.264 Y133.546 E0.06421
G1 E-0.5
M204 S4000
G1 Z0.45 F27000
; printing object 3mmsquare.stl id:1 copy 0
EXCLUDE_OBJECT_START NAME=3mmsquare_stl_id_1_copy_0
; acceleration to travel
M204 S10000
G1 X205.47 Y198.35
; decel to extrusion
M204 S2000
G1 X211.311 Y211.311
; end travel
G1 Z0.25
G1 E0.5 F1800
; custom gcode: feature_gcode
1
; custom gcode end: feature_gcode

;TYPE:Internal perimeter
;WIDTH:0.5
G1 X179.689 Y211.311 E1.46702
G1 X179.689 Y179.689 E1.46703
G1 X211.311 Y179.689 E1.46702
G1 X211.311 Y211.311 E1.46703
G1 X211.757 Y211.757 F27000
G1 F1800
G1 X179.243 Y211.757 E1.50843
M73 P12 R15
G1 X179.243 Y179.243 E1.50844
G1 X211.757 Y179.243 E1.50844
G1 X211.757 Y211.757 E1.50844
G1 X212.204 Y212.204 F27000
G1 F1800
G1 X178.796 Y212.204 E1.54985
G1 X178.796 Y178.796 E1.54986
G1 X212.204 Y178.796 E1.54985
G1 X212.204 Y212.204 E1.54985
M204 S1000
G1 X212.65 Y212.65 F27000
; custom gcode: feature_gcode
1
; custom gcode end: feature_gcode

;TYPE:External perimeter
G1 F1800
G1 X178.35 Y212.65 E1.59127
G1 X178.35 Y178.35 E1.59127
M73 P13 R15
G1 X212.65 Y178.35 E1.59126
G1 X212.65 Y212.65 E1.59127
;WIPE_START
M204 S4000
G1 X212.304 Y212.45 F27000
;WIPE_END
; acceleration to travel
M204 S10000
G1 X210.617 Y185.322
; decel to extrusion
M204 S2000
G1 X210.275 Y179.823
; end travel
; custom gcode: feature_gcode
1
; custom gcode end: feature_gcode

;TYPE:Solid infill
;WIDTH:0.49441
G1 F3600
G1 X211.177 Y180.725 E0.05854
G1 X211.177 Y181.356 F27000
G1 F3600
G1 X209.644 Y179.823 E0.09949
G1 X209.012 Y179.823 F27000
G1 F3600
G1 X211.177 Y181.988 E0.14044
