; generated by SuperSlicer 2.5.59.13 on 2025-07-27 at 23:26:40 UTC


;
;

;
;
; 

; external perimeters extrusion width = 0.50mm
; perimeters extrusion width = 0.50mm
; infill extrusion width = 0.50mm
; solid infill extrusion width = 0.50mm
; top infill extrusion width = 0.50mm
; first layer extrusion width = 0.50mm

; external perimeters extrusion width = 0.50mm
; perimeters extrusion width = 0.50mm
; infill extrusion width = 0.50mm
; solid infill extrusion width = 0.50mm
; top infill extrusion width = 0.50mm
; first layer extrusion width = 0.50mm

; external perimeters extrusion width = 0.50mm
; perimeters extrusion width = 0.50mm
; infill extrusion width = 0.50mm
; solid infill extrusion width = 0.50mm
; top infill extrusion width = 0.50mm
; first layer extrusion width = 0.50mm

; object:{"name":"point45block","id":"point45block.stl id:0 copy 0","object_center":[154.500000,154.500000,0.000000],"boundingbox_center":[154.500000,154.500000,0.225000],"boundingbox_size":[35.000000,35.000000,0.450000]}
EXCLUDE_OBJECT_DEFINE NAME=point45block_stl_id_0_copy_0 CENTER=154.500000,154.500000 POLYGON=[[137.00,137.00],[172.00,137.00],[172.00,172.00],[137.00,172.00],[137.00,137.00]]
; object:{"name":"point45block","id":"point45block.stl id:1 copy 0","object_center":[154.500000,195.500000,0.000000],"boundingbox_center":[154.500000,195.500000,0.225000],"boundingbox_size":[35.000000,35.000000,0.450000]}
EXCLUDE_OBJECT_DEFINE NAME=point45block_stl_id_1_copy_0 CENTER=154.500000,195.500000 POLYGON=[[137.00,178.00],[172.00,178.00],[172.00,213.00],[137.00,213.00],[137.00,178.00]]
; object:{"name":"point45block","id":"point45block.stl id:2 copy 0","object_center":[195.500000,175.000001,0.000000],"boundingbox_center":[195.500000,175.000001,0.225000],"boundingbox_size":[35.000000,35.000000,0.450000]}
EXCLUDE_OBJECT_DEFINE NAME=point45block_stl_id_2_copy_0 CENTER=195.500000,175.000001 POLYGON=[[178.00,157.50],[213.00,157.50],[213.00,192.50],[178.00,192.50],[178.00,157.50]]
; plater:{"center":[175.000000,175.000000,0.000000],"boundingbox_center":[175.000000,175.000000,0.225000],"boundingbox_size":[76.000000,76.000000,0.450000]}

M73 P0 R7
M107
;TYPE:Custom
; custom gcode: start_gcode
PRINT_START  TOOL_TEMP=273 BED_TEMP=99 TOOL=0 CHAMBER=49
; custom gcode end: start_gcode

G21 ; set units to millimeters
G90 ; use absolute coordinates
M83 ; use relative distances for extrusion
; custom gcode: toolchange_gcode
0
0
; custom gcode end: toolchange_gcode
; custom gcode: start_filament_gcode
0
; custom gcode end: start_filament_gcode
M109 S273 T0 ; set temperature and wait for it to be reached
M104 S260 T0 ; set temperature
M104 S280 T1 ; set temperature
M104 S240 T2 ; set temperature
M109 S273 T0 ; set temperature and wait for it to be reached
M190 S99 ; set bed temperature and wait for it to be reached
;LAYER_CHANGE
;Z:0.25
;HEIGHT:0.25
; custom gcode: before_layer_gcode
0
; custom gcode end: before_layer_gcode

G1 Z0.25 F27000
; custom gcode: layer_gcode
0
VERIFY_TOOL_DETECTED ASYNC=1 
; custom gcode end: layer_gcode

G92 E0
M73 P4 R7
G1 E-0.5 F1800
G1 Z0.45 F27000
M204 S2000
G1 X133.682 Y133.517
G1 Z0.25
G1 E0.5 F1800
; custom gcode: feature_gcode
0
; custom gcode end: feature_gcode

;TYPE:Skirt
;WIDTH:0.4
G1 X132.558 Y135.136 E0.07095
G1 X132.162 Y137.067 E0.07094
G1 X132.162 Y212.933 E2.73111
M73 P5 R7
G1 X132.471 Y214.648 E0.06273
G1 X133.517 Y216.318 E0.07095
G1 X135.136 Y217.442 E0.07094
G1 X137.067 Y217.838 E0.07095
G1 X171.933 Y217.838 E1.25516
G1 X174.127 Y217.32 E0.08113
G1 X215.127 Y196.82 E1.65017
G1 X216.318 Y195.983 E0.05243
G1 X217.442 Y194.364 E0.07095
G1 X217.838 Y192.433 E0.07094
G1 X217.838 Y157.567 E1.25516
G1 X217.622 Y156.126 E0.05244
G1 X216.677 Y154.397 E0.07094
G1 X215.127 Y153.18 E0.07095
G1 X174.127 Y132.68 E1.65016
M73 P6 R7
G1 X171.933 Y132.162 E0.08114
G1 X137.067 Y132.162 E1.25516
G1 X135.352 Y132.471 E0.06273
G1 X133.682 Y133.517 E0.07094
G1 X134.022 Y133.674 F27000
G1 F1800
G1 X132.904 Y135.209 E0.06837
G1 X132.508 Y137.067 E0.06837
G1 X132.508 Y212.933 E2.73111
M73 P7 R7
G1 X132.728 Y214.331 E0.05095
G1 X133.674 Y215.978 E0.06837
G1 X135.209 Y217.096 E0.06837
G1 X137.067 Y217.492 E0.06836
G1 X171.933 Y217.492 E1.25516
G1 X173.972 Y217.011 E0.07541
G1 X214.972 Y196.511 E1.65016
G1 X215.978 Y195.826 E0.04382
G1 X217.096 Y194.291 E0.06836
G1 X217.492 Y192.433 E0.06837
G1 X217.492 Y157.567 E1.25516
M73 P8 R7
G1 X217.329 Y156.361 E0.04381
G1 X216.456 Y154.674 E0.06837
G1 X214.972 Y153.489 E0.06837
G1 X173.972 Y132.989 E1.65016
G1 X171.933 Y132.508 E0.07541
G1 X137.067 Y132.508 E1.25516
G1 X135.669 Y132.728 E0.05095
G1 X134.022 Y133.674 E0.06837
G1 E-0.5
M204 S4000
G1 Z0.45 F27000
; printing object point45block.stl id:0 copy 0
EXCLUDE_OBJECT_START NAME=point45block_stl_id_0_copy_0
; acceleration to travel
M204 S10000
G1 X164.263 Y164.205
; decel to extrusion
M204 S2000
G1 X170.311 Y170.311
; end travel
G1 Z0.25
G1 E0.5 F1800
; custom gcode: feature_gcode
0
; custom gcode end: feature_gcode

;TYPE:Internal perimeter
;WIDTH:0.5
G1 X138.689 Y170.311 E1.46702
M73 P9 R7
G1 X138.689 Y138.689 E1.46703
G1 X170.311 Y138.689 E1.46702
G1 X170.311 Y170.311 E1.46703
G1 X170.757 Y170.757 F27000
G1 F1800
G1 X138.243 Y170.757 E1.50843
M73 P10 R7
G1 X138.243 Y138.243 E1.50844
G1 X170.757 Y138.243 E1.50844
M73 P10 R6
G1 X170.757 Y170.757 E1.50844
G1 X171.204 Y171.204 F27000
G1 F1800
G1 X137.796 Y171.204 E1.54985
G1 X137.796 Y137.796 E1.54986
M73 P11 R6
G1 X171.204 Y137.796 E1.54985
G1 X171.204 Y171.204 E1.54985
M204 S1000
G1 X171.65 Y171.65 F27000
; custom gcode: feature_gcode
0
; custom gcode end: feature_gcode

;TYPE:External perimeter
G1 F1800
G1 X137.35 Y171.65 E1.59127
G1 X137.35 Y137.35 E1.59127
M73 P12 R6
G1 X171.65 Y137.35 E1.59126
G1 X171.65 Y171.65 E1.59127
;WIPE_START
M204 S4000
G1 X171.304 Y171.45 F27000
;WIPE_END
; acceleration to travel
M204 S10000
G1 X169.617 Y144.322
; decel to extrusion
M204 S2000
G1 X169.275 Y138.823
; end travel
; custom gcode: feature_gcode
0
; custom gcode end: feature_gcode

;TYPE:Solid infill
;WIDTH:0.49441
G1 F3600
G1 X170.177 Y139.725 E0.05854
G1 X170.177 Y140.356 F27000
G1 F3600
G1 X168.644 Y138.823 E0.09949
G1 X168.012 Y138.823 F27000
G1 F3600
G1 X170.177 Y140.988 E0.14044
G1 X170.177 Y141.619 F27000
G1 F3600
G1 X167.381 Y138.823 E0.18139
G1 X166.75 Y138.823 F27000
G1 F3600
G1 X170.177 Y142.25 E0.22234
G1 X170.177 Y142.881 F27000
G1 F3600
G1 X166.119 Y138.823 E0.26329
G1 X165.487 Y138.823 F27000
G1 F3600
G1 X170.177 Y143.513 E0.30425
G1 X170.177 Y144.144 F27000
G1 F3600
G1 X164.856 Y138.823 E0.3452
G1 X164.225 Y138.823 F27000
G1 F3600
G1 X170.177 Y144.775 E0.38615
G1 X170.177 Y145.406 F27000
G1 F3600
G1 X163.594 Y138.823 E0.4271
M73 P13 R6
G1 X162.962 Y138.823 F27000
G1 F3600
G1 X170.177 Y146.038 E0.46805
G1 X170.177 Y146.669 F27000
G1 F3600
G1 X162.331 Y138.823 E0.50901
G1 X161.7 Y138.823 F27000
G1 F3600
G1 X170.177 Y147.3 E0.54995
G1 X170.177 Y147.931 F27000
G1 F3600
G1 X161.069 Y138.823 E0.59091
G1 X160.438 Y138.823 F27000
G1 F3600
G1 X170.177 Y148.562 E0.63186
G1 X170.177 Y149.194 F27000
G1 F3600
G1 X159.806 Y138.823 E0.67281
G1 X159.175 Y138.823 F27000
G1 F3600
G1 X170.177 Y149.825 E0.71376
G1 X170.177 Y150.456 F27000
G1 F3600
G1 X158.544 Y138.823 E0.75471
G1 X157.913 Y138.823 F27000
G1 F3600
G1 X170.177 Y151.087 E0.79567
G1 X170.177 Y151.719 F27000
G1 F3600
G1 X157.281 Y138.823 E0.83662
G1 X156.65 Y138.823 F27000
G1 F3600
G1 X170.177 Y152.35 E0.87757
G1 X170.177 Y152.981 F27000
G1 F3600
G1 X156.019 Y138.823 E0.91852
G1 X155.388 Y138.823 F27000
G1 F3600
G1 X170.177 Y153.612 E0.95947
G1 X170.177 Y154.244 F27000
G1 F3600
G1 X154.756 Y138.823 E1.00042
G1 X154.125 Y138.823 F27000
G1 F3600
G1 X170.177 Y154.875 E1.04138
M73 P14 R6
G1 X170.177 Y155.506 F27000
G1 F3600
G1 X153.494 Y138.823 E1.08233
G1 X152.863 Y138.823 F27000
G1 F3600
G1 X170.177 Y156.137 E1.12327
G1 X170.177 Y156.768 F27000
G1 F3600
G1 X152.232 Y138.823 E1.16423
G1 X151.6 Y138.823 F27000
G1 F3600
G1 X170.177 Y157.4 E1.20519
G1 X170.177 Y158.031 F27000
G1 F3600
G1 X150.969 Y138.823 E1.24613
G1 X150.338 Y138.823 F27000
G1 F3600
G1 X170.177 Y158.662 E1.28709
G1 X170.177 Y159.293 F27000
G1 F3600
G1 X149.707 Y138.823 E1.32803
G1 X149.075 Y138.823 F27000
G1 F3600
G1 X170.177 Y159.925 E1.36899
G1 X170.177 Y160.556 F27000
G1 F3600
G1 X148.444 Y138.823 E1.40994
M73 P15 R6
G1 X147.813 Y138.823 F27000
G1 F3600
G1 X170.177 Y161.187 E1.45089
G1 X170.177 Y161.818 F27000
G1 F3600
G1 X147.182 Y138.823 E1.49185
G1 X146.55 Y138.823 F27000
G1 F3600
G1 X170.177 Y162.45 E1.53279
G1 X170.177 Y163.081 F27000
G1 F3600
G1 X145.919 Y138.823 E1.57375
G1 X145.288 Y138.823 F27000
G1 F3600
G1 X170.177 Y163.712 E1.6147
G1 X170.177 Y164.343 F27000
G1 F3600
G1 X144.657 Y138.823 E1.65565
G1 X144.025 Y138.823 F27000
G1 F3600
G1 X170.177 Y164.975 E1.6966
G1 X170.177 Y165.606 F27000
G1 F3600
G1 X143.394 Y138.823 E1.73755
M73 P16 R6
G1 X142.763 Y138.823 F27000
G1 F3600
G1 X170.177 Y166.237 E1.77851
G1 X170.177 Y166.868 F27000
G1 F3600
G1 X142.132 Y138.823 E1.81945
G1 X141.501 Y138.823 F27000
G1 F3600
G1 X170.177 Y167.499 E1.86041
G1 X170.177 Y168.131 F27000
G1 F3600
G1 X140.869 Y138.823 E1.90136
G1 X140.238 Y138.823 F27000
G1 F3600
G1 X170.177 Y168.762 E1.94231
G1 X170.177 Y169.393 F27000
G1 F3600
G1 X139.607 Y138.823 E1.98326
M73 P17 R6
G1 X138.976 Y138.823 F27000
G1 F3600
G1 X170.177 Y170.024 E2.02422
G1 X169.699 Y170.177 F27000
G1 F3600
G1 X138.823 Y139.301 E2.00307
G1 X138.823 Y139.933 F27000
G1 F3600
G1 X169.067 Y170.177 E1.96212
G1 X168.436 Y170.177 F27000
G1 F3600
G1 X138.823 Y140.564 E1.92117
G1 X138.823 Y141.195 F27000
G1 F3600
G1 X167.805 Y170.177 E1.88022
G1 X167.174 Y170.177 F27000
G1 F3600
G1 X138.823 Y141.826 E1.83927
M73 P18 R6
G1 X138.823 Y142.458 F27000
G1 F3600
G1 X166.542 Y170.177 E1.79832
G1 X165.911 Y170.177 F27000
G1 F3600
G1 X138.823 Y143.089 E1.75736
G1 X138.823 Y143.72 F27000
G1 F3600
G1 X165.28 Y170.177 E1.71641
G1 X164.649 Y170.177 F27000
G1 F3600
G1 X138.823 Y144.351 E1.67546
G1 X138.823 Y144.983 F27000
G1 F3600
G1 X164.017 Y170.177 E1.63451
G1 X163.386 Y170.177 F27000
G1 F3600
G1 X138.823 Y145.614 E1.59356
G1 X138.823 Y146.245 F27000
G1 F3600
G1 X162.755 Y170.177 E1.5526
M73 P19 R6
G1 X162.124 Y170.177 F27000
G1 F3600
G1 X138.823 Y146.876 E1.51166
G1 X138.823 Y147.508 F27000
G1 F3600
G1 X161.492 Y170.177 E1.4707
G1 X160.861 Y170.177 F27000
G1 F3600
G1 X138.823 Y148.139 E1.42975
G1 X138.823 Y148.77 F27000
G1 F3600
G1 X160.23 Y170.177 E1.3888
G1 X159.599 Y170.177 F27000
G1 F3600
G1 X138.823 Y149.401 E1.34785
G1 X138.823 Y150.032 F27000
G1 F3600
G1 X158.968 Y170.177 E1.30689
G1 X158.336 Y170.177 F27000
G1 F3600
G1 X138.823 Y150.664 E1.26595
G1 X138.823 Y151.295 F27000
G1 F3600
G1 X157.705 Y170.177 E1.22499
G1 X157.074 Y170.177 F27000
G1 F3600
G1 X138.823 Y151.926 E1.18404
M73 P20 R6
G1 X138.823 Y152.557 F27000
G1 F3600
G1 X156.443 Y170.177 E1.14309
G1 X155.811 Y170.177 F27000
G1 F3600
G1 X138.823 Y153.189 E1.10214
G1 X138.823 Y153.82 F27000
G1 F3600
G1 X155.18 Y170.177 E1.06118
G1 X154.549 Y170.177 F27000
G1 F3600
G1 X138.823 Y154.451 E1.02024
G1 X138.823 Y155.082 F27000
G1 F3600
G1 X153.918 Y170.177 E0.97928
G1 X153.286 Y170.177 F27000
G1 F3600
G1 X138.823 Y155.714 E0.93833
G1 X138.823 Y156.345 F27000
G1 F3600
G1 X152.655 Y170.177 E0.89738
G1 X152.024 Y170.177 F27000
G1 F3600
G1 X138.823 Y156.976 E0.85643
G1 X138.823 Y157.607 F27000
G1 F3600
G1 X151.393 Y170.177 E0.81548
G1 X150.762 Y170.177 F27000
G1 F3600
G1 X138.823 Y158.238 E0.77452
G1 X138.823 Y158.87 F27000
G1 F3600
G1 X150.13 Y170.177 E0.73357
M73 P21 R6
G1 X149.499 Y170.177 F27000
G1 F3600
G1 X138.823 Y159.501 E0.69263
G1 X138.823 Y160.132 F27000
G1 F3600
G1 X148.868 Y170.177 E0.65166
G1 X148.237 Y170.177 F27000
G1 F3600
G1 X138.823 Y160.763 E0.61072
G1 X138.823 Y161.395 F27000
G1 F3600
G1 X147.605 Y170.177 E0.56977
G1 X146.974 Y170.177 F27000
G1 F3600
G1 X138.823 Y162.026 E0.52881
G1 X138.823 Y162.657 F27000
G1 F3600
G1 X146.343 Y170.177 E0.48787
G1 X145.712 Y170.177 F27000
G1 F3600
G1 X138.823 Y163.288 E0.44691
G1 X138.823 Y163.92 F27000
G1 F3600
G1 X145.08 Y170.177 E0.40596
G1 X144.449 Y170.177 F27000
G1 F3600
G1 X138.823 Y164.551 E0.36501
G1 X138.823 Y165.182 F27000
G1 F3600
G1 X143.818 Y170.177 E0.32405
G1 X143.187 Y170.177 F27000
G1 F3600
G1 X138.823 Y165.813 E0.28311
G1 X138.823 Y166.444 F27000
G1 F3600
G1 X142.556 Y170.177 E0.24215
G1 X141.924 Y170.177 F27000
G1 F3600
G1 X138.823 Y167.076 E0.2012
G1 X138.823 Y167.707 F27000
G1 F3600
G1 X141.293 Y170.177 E0.16025
G1 X140.662 Y170.177 F27000
G1 F3600
G1 X138.823 Y168.338 E0.1193
G1 X138.823 Y168.969 F27000
G1 F3600
G1 X140.031 Y170.177 E0.07835
G1 X139.399 Y170.177 F27000
G1 F3600
G1 X138.823 Y169.601 E0.03739
G1 E-10.000000 F1800
M204 S4000
G1 Z0.45 F27000
; custom gcode: end_filament_gcode
0
; custom gcode end: end_filament_gcode
G1 X130.547 Y172.407
M104 S260 T0 ; set temperature
; custom gcode: toolchange_gcode
0
1
; custom gcode end: toolchange_gcode
; custom gcode: start_filament_gcode
1
; custom gcode end: start_filament_gcode
M109 S293 T1 ; set temperature and wait for it to be reached
G1 E-0.5 F1800
; stop printing object point45block.stl id:0 copy 0
EXCLUDE_OBJECT_END NAME=point45block_stl_id_0_copy_0
; acceleration to travel
M204 S10000
G1 X133.838 Y142.428 F27000
; decel to extrusion
M204 S2000
G1 X132.854 Y137.067
; end travel
G1 Z0.25
G1 E0.5 F1800
; custom gcode: feature_gcode
1
; custom gcode end: feature_gcode

;TYPE:Skirt
;WIDTH:0.4
G1 X132.854 Y212.933 E2.73111
M73 P22 R6
G1 X132.997 Y214.019 E0.03944
G1 X133.838 Y215.639 E0.06569
G1 X135.285 Y216.75 E0.06568
G1 X137.067 Y217.146 E0.06569
G1 X171.933 Y217.146 E1.25516
G1 X173.817 Y216.701 E0.06968
G1 X214.817 Y196.201 E1.65017
M73 P23 R6
G1 X215.639 Y195.662 E0.03537
G1 X216.75 Y194.215 E0.06569
G1 X217.146 Y192.433 E0.06569
G1 X217.146 Y157.567 E1.25516
M73 P23 R5
G1 X217.031 Y156.591 E0.03537
G1 X216.234 Y154.949 E0.06569
G1 X214.817 Y153.799 E0.06569
G1 X173.817 Y133.299 E1.65017
G1 X171.933 Y132.854 E0.06967
G1 X137.067 Y132.854 E1.25516
G1 X135.981 Y132.997 E0.03944
G1 X134.361 Y133.838 E0.06569
G1 X133.25 Y135.285 E0.06569
G1 X132.854 Y137.067 E0.06568
M73 P24 R5
G1 X133.201 Y137.067 F27000
G1 F1800
G1 X133.201 Y212.933 E2.73112
G1 X134.01 Y215.301 E0.09006
G1 X135.365 Y216.404 E0.0629
G1 X137.067 Y216.799 E0.06289
G1 X171.933 Y216.799 E1.25516
G1 X173.662 Y216.391 E0.06395
G1 X214.662 Y195.891 E1.65017
M73 P25 R5
G1 X216.404 Y194.135 E0.08904
G1 X216.799 Y192.433 E0.06289
G1 X216.799 Y157.567 E1.25516
G1 X216.008 Y155.223 E0.08904
G1 X214.662 Y154.109 E0.0629
G1 X173.662 Y133.609 E1.65017
G1 X171.933 Y133.201 E0.06395
G1 X137.067 Y133.201 E1.25515
M73 P26 R5
G1 X134.699 Y134.01 E0.09007
G1 X133.596 Y135.365 E0.06289
G1 X133.201 Y137.067 E0.0629
G1 E-0.5
M204 S4000
G1 Z0.45 F27000
; printing object point45block.stl id:1 copy 0
EXCLUDE_OBJECT_START NAME=point45block_stl_id_1_copy_0
; acceleration to travel
M204 S10000
G1 X164.126 Y198.937
; decel to extrusion
M204 S2000
G1 X170.311 Y211.311
; end travel
G1 Z0.25
G1 E0.5 F1800
; custom gcode: feature_gcode
1
; custom gcode end: feature_gcode

;TYPE:Internal perimeter
;WIDTH:0.5
G1 X138.689 Y211.311 E1.46702
G1 X138.689 Y179.689 E1.46703
G1 X170.311 Y179.689 E1.46702
G1 X170.311 Y211.311 E1.46703
M73 P27 R5
G1 X170.757 Y211.757 F27000
G1 F1800
G1 X138.243 Y211.757 E1.50843
G1 X138.243 Y179.243 E1.50844
G1 X170.757 Y179.243 E1.50844
G1 X170.757 Y211.757 E1.50844
M73 P28 R5
G1 X171.204 Y212.204 F27000
G1 F1800
G1 X137.796 Y212.204 E1.54985
G1 X137.796 Y178.796 E1.54986
G1 X171.204 Y178.796 E1.54985
G1 X171.204 Y212.204 E1.54985
M204 S1000
M73 P29 R5
G1 X171.65 Y212.65 F27000
; custom gcode: feature_gcode
1
; custom gcode end: feature_gcode

;TYPE:External perimeter
G1 F1800
G1 X137.35 Y212.65 E1.59127
G1 X137.35 Y178.35 E1.59127
G1 X171.65 Y178.35 E1.59126
G1 X171.65 Y212.65 E1.59127
;WIPE_START
M204 S4000
M73 P30 R5
G1 X171.304 Y212.45 F27000
;WIPE_END
; acceleration to travel
M204 S10000
G1 X169.617 Y185.322
; decel to extrusion
M204 S2000
G1 X169.275 Y179.823
; end travel
