; generated by SuperSlicer 2.5.59.13 on 2025-07-27 at 23:25:40 UTC


;
;

;
;
; 

; external perimeters extrusion width = 0.50mm
; perimeters extrusion width = 0.50mm
; infill extrusion width = 0.50mm
; solid infill extrusion width = 0.50mm
; top infill extrusion width = 0.50mm
; first layer extrusion width = 0.50mm

; external perimeters extrusion width = 0.50mm
; perimeters extrusion width = 0.50mm
; infill extrusion width = 0.50mm
; solid infill extrusion width = 0.50mm
; top infill extrusion width = 0.50mm
; first layer extrusion width = 0.50mm

; external perimeters extrusion width = 0.50mm
; perimeters extrusion width = 0.50mm
; infill extrusion width = 0.50mm
; solid infill extrusion width = 0.50mm
; top infill extrusion width = 0.50mm
; first layer extrusion width = 0.50mm

; object:{"name":"3mmsquare","id":"3mmsquare.stl id:0 copy 0","object_center":[134.197363,187.120319,0.000000],"boundingbox_center":[134.197363,187.120319,1.500000],"boundingbox_size":[35.000000,35.000000,3.000000]}
EXCLUDE_OBJECT_DEFINE NAME=3mmsquare_stl_id_0_copy_0 CENTER=134.197363,187.120319 POLYGON=[[116.70,169.62],[151.70,169.62],[151.70,204.62],[116.70,204.62],[116.70,169.62]]
; object:{"name":"3mmsquare","id":"3mmsquare.stl id:1 copy 0","object_center":[186.194863,159.716384,0.000000],"boundingbox_center":[186.194863,159.716384,1.500000],"boundingbox_size":[35.000000,35.000000,3.000000]}
EXCLUDE_OBJECT_DEFINE NAME=3mmsquare_stl_id_1_copy_0 CENTER=186.194863,159.716384 POLYGON=[[168.69,142.22],[203.69,142.22],[203.69,177.22],[168.69,177.22],[168.69,142.22]]
; object:{"name":"3mmsquare","id":"3mmsquare.stl id:2 copy 0","object_center":[242.929319,192.417069,0.000000],"boundingbox_center":[242.929319,192.417069,1.500000],"boundingbox_size":[35.000000,35.000000,3.000000]}
EXCLUDE_OBJECT_DEFINE NAME=3mmsquare_stl_id_2_copy_0 CENTER=242.929319,192.417069 POLYGON=[[225.43,174.92],[260.43,174.92],[260.43,209.92],[225.43,209.92],[225.43,174.92]]
; plater:{"center":[188.563341,176.066727,0.000000],"boundingbox_center":[188.563341,176.066727,1.500000],"boundingbox_size":[143.731956,67.700686,3.000000]}

M73 P0 R22
M107
;TYPE:Custom
; custom gcode: start_gcode
PRINT_START  TOOL_TEMP=273 BED_TEMP=99 TOOL=0 CHAMBER=49
; custom gcode end: start_gcode

G21 ; set units to millimeters
G90 ; use absolute coordinates
M83 ; use relative distances for extrusion
; custom gcode: toolchange_gcode
0
0
; custom gcode end: toolchange_gcode
; custom gcode: start_filament_gcode
0
; custom gcode end: start_filament_gcode
M109 S273 T0 ; set temperature and wait for it to be reached
M104 S260 T0 ; set temperature
M104 S280 T1 ; set temperature
M104 S240 T2 ; set temperature
M109 S273 T0 ; set temperature and wait for it to be reached
M190 S99 ; set bed temperature and wait for it to be reached
;LAYER_CHANGE
;Z:0.25
;HEIGHT:0.25
; custom gcode: before_layer_gcode
0
; custom gcode end: before_layer_gcode

G1 Z0.25 F27000
; custom gcode: layer_gcode
0
VERIFY_TOOL_DETECTED ASYNC=1 
; custom gcode end: layer_gcode

G92 E0
M73 P1 R22
G1 E-0.5 F1800
G1 Z0.45 F27000
M204 S2000
G1 X114.411 Y165.281
G1 Z0.25
G1 E0.5 F1800
; custom gcode: feature_gcode
0
; custom gcode end: feature_gcode

;TYPE:Skirt
;WIDTH:0.4
G1 X113.312 Y166.071 E0.0487
G1 X112.188 Y167.69 E0.07094
G1 X111.792 Y169.62 E0.07095
G1 X111.792 Y204.62 E1.25996
G1 X112.024 Y206.109 E0.05425
G1 X112.987 Y207.829 E0.07094
G1 X114.55 Y209.03 E0.07095
G1 X116.459 Y209.519 E0.07095
G1 X225.191 Y214.816 E3.91886
G1 X260.429 Y214.822 E1.26855
G1 X262.144 Y214.512 E0.06273
G1 X263.814 Y213.467 E0.07095
M73 P2 R22
G1 X264.938 Y211.848 E0.07094
G1 X265.334 Y209.917 E0.07095
G1 X265.334 Y174.917 E1.25996
G1 X265.195 Y173.757 E0.04207
G1 X264.354 Y171.975 E0.07094
G1 X262.879 Y170.668 E0.07095
G1 X206.144 Y137.967 E2.35734
G1 X203.695 Y137.311 E0.09128
G1 X168.695 Y137.311 E1.25996
G1 X166.408 Y137.877 E0.0848
G1 X114.411 Y165.281 E2.1159
G1 X114.572 Y165.588 F27000
G1 F1800
G1 X113.653 Y166.228 E0.04033
G1 X112.534 Y167.763 E0.06837
G1 X112.139 Y169.62 E0.06837
G1 X112.139 Y204.62 E1.25996
G1 X112.296 Y205.806 E0.04304
G1 X113.161 Y207.496 E0.06837
G1 X114.639 Y208.688 E0.06837
G1 X116.476 Y209.173 E0.06837
G1 X225.208 Y214.47 E3.91886
G1 X260.429 Y214.476 E1.26795
G1 X261.827 Y214.256 E0.05095
G1 X263.474 Y213.31 E0.06836
G1 X264.592 Y211.775 E0.06837
G1 X264.988 Y209.917 E0.06837
M73 P3 R22
G1 X264.988 Y174.917 E1.25996
G1 X264.118 Y172.238 E0.10141
G1 X262.706 Y170.968 E0.06837
G1 X205.971 Y138.267 E2.35734
G1 X203.695 Y137.658 E0.08483
G1 X168.695 Y137.658 E1.25996
G1 X166.569 Y138.184 E0.07882
G1 X114.572 Y165.588 E2.1159
M73 P3 R21
G1 E-0.5
M204 S4000
G1 Z0.45 F27000
; printing object 3mmsquare.stl id:0 copy 0
EXCLUDE_OBJECT_START NAME=3mmsquare_stl_id_0_copy_0
; acceleration to travel
M204 S10000
G1 X144.102 Y196.707
; decel to extrusion
M204 S2000
G1 X150.008 Y202.931
; end travel
G1 Z0.25
G1 E0.5 F1800
; custom gcode: feature_gcode
0
; custom gcode end: feature_gcode

;TYPE:Internal perimeter
;WIDTH:0.5
G1 X118.386 Y202.931 E1.46702
G1 X118.386 Y171.309 E1.46703
G1 X150.008 Y171.309 E1.46702
G1 X150.008 Y202.931 E1.46703
G1 X150.455 Y203.378 F27000
G1 F1800
G1 X117.94 Y203.378 E1.50843
G1 X117.94 Y170.863 E1.50844
G1 X150.455 Y170.863 E1.50844
M73 P4 R21
G1 X150.455 Y203.378 E1.50844
G1 X150.901 Y203.824 F27000
G1 F1800
G1 X117.494 Y203.824 E1.54985
G1 X117.494 Y170.417 E1.54986
G1 X150.901 Y170.417 E1.54985
G1 X150.901 Y203.824 E1.54985
M204 S1000
G1 X151.347 Y204.27 F27000
; custom gcode: feature_gcode
0
; custom gcode end: feature_gcode

;TYPE:External perimeter
G1 F1800
G1 X117.047 Y204.27 E1.59127
G1 X117.047 Y169.97 E1.59127
G1 X151.347 Y169.97 E1.59126
G1 X151.347 Y204.27 E1.59127
;WIPE_START
M204 S4000
G1 X151.001 Y204.07 F27000
;WIPE_END
; acceleration to travel
M204 S10000
G1 X149.314 Y176.942
; decel to extrusion
M204 S2000
G1 X148.972 Y171.443
; end travel
; custom gcode: feature_gcode
0
; custom gcode end: feature_gcode

;TYPE:Solid infill
;WIDTH:0.49441
G1 F3600
G1 X149.874 Y172.346 E0.05854
G1 X149.874 Y172.977 F27000
G1 F3600
G1 X148.341 Y171.443 E0.09949
G1 X147.71 Y171.443 F27000
G1 F3600
G1 X149.874 Y173.608 E0.14044
G1 X149.874 Y174.239 F27000
G1 F3600
G1 X147.078 Y171.443 E0.18139
G1 X146.447 Y171.443 F27000
G1 F3600
G1 X149.874 Y174.87 E0.22234
G1 X149.874 Y175.502 F27000
G1 F3600
G1 X145.816 Y171.443 E0.26329
G1 X145.185 Y171.443 F27000
G1 F3600
G1 X149.874 Y176.133 E0.30425
G1 X149.874 Y176.764 F27000
G1 F3600
G1 X144.554 Y171.443 E0.3452
G1 X143.922 Y171.443 F27000
G1 F3600
G1 X149.874 Y177.395 E0.38615
G1 X149.874 Y178.027 F27000
G1 F3600
G1 X143.291 Y171.443 E0.4271
G1 X142.66 Y171.443 F27000
G1 F3600
G1 X149.874 Y178.658 E0.46805
G1 X149.874 Y179.289 F27000
G1 F3600
G1 X142.029 Y171.443 E0.50901
G1 X141.397 Y171.443 F27000
G1 F3600
G1 X149.874 Y179.92 E0.54995
M73 P5 R21
G1 X149.874 Y180.552 F27000
G1 F3600
G1 X140.766 Y171.443 E0.59091
G1 X140.135 Y171.443 F27000
G1 F3600
G1 X149.874 Y181.183 E0.63186
G1 X149.874 Y181.814 F27000
G1 F3600
G1 X139.504 Y171.443 E0.67281
G1 X138.872 Y171.443 F27000
G1 F3600
G1 X149.874 Y182.445 E0.71376
G1 X149.874 Y183.076 F27000
G1 F3600
G1 X138.241 Y171.443 E0.75471
G1 X137.61 Y171.443 F27000
G1 F3600
G1 X149.874 Y183.708 E0.79567
G1 X149.874 Y184.339 F27000
G1 F3600
G1 X136.979 Y171.443 E0.83662
G1 X136.347 Y171.443 F27000
G1 F3600
G1 X149.874 Y184.97 E0.87757
G1 X149.874 Y185.601 F27000
G1 F3600
G1 X135.716 Y171.443 E0.91852
G1 X135.085 Y171.443 F27000
G1 F3600
G1 X149.874 Y186.233 E0.95947
G1 X149.874 Y186.864 F27000
G1 F3600
G1 X134.454 Y171.443 E1.00042
G1 X133.823 Y171.443 F27000
G1 F3600
G1 X149.874 Y187.495 E1.04138
G1 X149.874 Y188.126 F27000
G1 F3600
G1 X133.191 Y171.443 E1.08233
G1 X132.56 Y171.443 F27000
G1 F3600
G1 X149.874 Y188.758 E1.12327
G1 X149.874 Y189.389 F27000
G1 F3600
G1 X131.929 Y171.443 E1.16423
G1 X131.298 Y171.443 F27000
G1 F3600
G1 X149.874 Y190.02 E1.20519
G1 X149.874 Y190.651 F27000
G1 F3600
G1 X130.666 Y171.443 E1.24613
G1 X130.035 Y171.443 F27000
G1 F3600
G1 X149.874 Y191.283 E1.28709
G1 X149.874 Y191.914 F27000
G1 F3600
G1 X129.404 Y171.443 E1.32803
G1 X128.773 Y171.443 F27000
G1 F3600
G1 X149.874 Y192.545 E1.36899
G1 X149.874 Y193.176 F27000
G1 F3600
G1 X128.141 Y171.443 E1.40994
G1 X127.51 Y171.443 F27000
G1 F3600
G1 X149.874 Y193.807 E1.45089
G1 X149.874 Y194.439 F27000
G1 F3600
G1 X126.879 Y171.443 E1.49185
G1 X126.248 Y171.443 F27000
G1 F3600
G1 X149.874 Y195.07 E1.53279
G1 X149.874 Y195.701 F27000
G1 F3600
G1 X125.617 Y171.443 E1.57375
G1 X124.985 Y171.443 F27000
G1 F3600
G1 X149.874 Y196.332 E1.6147
G1 X149.874 Y196.964 F27000
G1 F3600
G1 X124.354 Y171.443 E1.65565
G1 X123.723 Y171.443 F27000
G1 F3600
G1 X149.874 Y197.595 E1.6966
G1 X149.874 Y198.226 F27000
G1 F3600
G1 X123.092 Y171.443 E1.73755
M73 P6 R21
G1 X122.46 Y171.443 F27000
G1 F3600
G1 X149.874 Y198.857 E1.77851
G1 X149.874 Y199.489 F27000
G1 F3600
G1 X121.829 Y171.443 E1.81945
G1 X121.198 Y171.443 F27000
G1 F3600
G1 X149.874 Y200.12 E1.86041
G1 X149.874 Y200.751 F27000
G1 F3600
G1 X120.567 Y171.443 E1.90136
G1 X119.935 Y171.443 F27000
G1 F3600
G1 X149.874 Y201.382 E1.94231
G1 X149.874 Y202.013 F27000
G1 F3600
G1 X119.304 Y171.443 E1.98326
G1 X118.673 Y171.443 F27000
G1 F3600
G1 X149.874 Y202.645 E2.02422
G1 X149.396 Y202.797 F27000
G1 F3600
G1 X118.52 Y171.922 E2.00307
G1 X118.52 Y172.553 F27000
G1 F3600
G1 X148.765 Y202.797 E1.96212
G1 X148.133 Y202.797 F27000
G1 F3600
G1 X118.52 Y173.184 E1.92117
G1 X118.52 Y173.815 F27000
G1 F3600
G1 X147.502 Y202.797 E1.88022
G1 X146.871 Y202.797 F27000
G1 F3600
G1 X118.52 Y174.447 E1.83927
G1 X118.52 Y175.078 F27000
G1 F3600
G1 X146.24 Y202.797 E1.79832
G1 X145.608 Y202.797 F27000
G1 F3600
G1 X118.52 Y175.709 E1.75736
G1 X118.52 Y176.34 F27000
G1 F3600
G1 X144.977 Y202.797 E1.71641
G1 X144.346 Y202.797 F27000
G1 F3600
G1 X118.52 Y176.972 E1.67546
G1 X118.52 Y177.603 F27000
G1 F3600
G1 X143.715 Y202.797 E1.63451
G1 X143.084 Y202.797 F27000
G1 F3600
G1 X118.52 Y178.234 E1.59356
G1 X118.52 Y178.865 F27000
G1 F3600
G1 X142.452 Y202.797 E1.5526
M73 P7 R21
G1 X141.821 Y202.797 F27000
G1 F3600
G1 X118.52 Y179.497 E1.51166
G1 X118.52 Y180.128 F27000
G1 F3600
G1 X141.19 Y202.797 E1.4707
G1 X140.559 Y202.797 F27000
G1 F3600
G1 X118.52 Y180.759 E1.42975
G1 X118.52 Y181.39 F27000
G1 F3600
G1 X139.927 Y202.797 E1.3888
G1 X139.296 Y202.797 F27000
G1 F3600
G1 X118.52 Y182.022 E1.34785
G1 X118.52 Y182.653 F27000
G1 F3600
G1 X138.665 Y202.797 E1.30689
G1 X138.034 Y202.797 F27000
G1 F3600
G1 X118.52 Y183.284 E1.26595
G1 X118.52 Y183.915 F27000
G1 F3600
G1 X137.402 Y202.797 E1.22499
G1 X136.771 Y202.797 F27000
G1 F3600
G1 X118.52 Y184.546 E1.18404
G1 X118.52 Y185.178 F27000
G1 F3600
G1 X136.14 Y202.797 E1.14309
G1 X135.509 Y202.797 F27000
G1 F3600
G1 X118.52 Y185.809 E1.10214
G1 X118.52 Y186.44 F27000
G1 F3600
G1 X134.878 Y202.797 E1.06118
G1 X134.246 Y202.797 F27000
G1 F3600
G1 X118.52 Y187.071 E1.02024
G1 X118.52 Y187.703 F27000
G1 F3600
G1 X133.615 Y202.797 E0.97928
G1 X132.984 Y202.797 F27000
G1 F3600
G1 X118.52 Y188.334 E0.93833
G1 X118.52 Y188.965 F27000
G1 F3600
G1 X132.353 Y202.797 E0.89738
G1 X131.721 Y202.797 F27000
G1 F3600
G1 X118.52 Y189.596 E0.85643
G1 X118.52 Y190.228 F27000
G1 F3600
G1 X131.09 Y202.797 E0.81548
G1 X130.459 Y202.797 F27000
G1 F3600
G1 X118.52 Y190.859 E0.77452
G1 X118.52 Y191.49 F27000
G1 F3600
G1 X129.828 Y202.797 E0.73357
G1 X129.196 Y202.797 F27000
G1 F3600
G1 X118.52 Y192.121 E0.69263
G1 X118.52 Y192.752 F27000
G1 F3600
G1 X128.565 Y202.797 E0.65166
G1 X127.934 Y202.797 F27000
G1 F3600
G1 X118.52 Y193.384 E0.61072
G1 X118.52 Y194.015 F27000
G1 F3600
G1 X127.303 Y202.797 E0.56977
G1 X126.671 Y202.797 F27000
G1 F3600
G1 X118.52 Y194.646 E0.52881
G1 X118.52 Y195.277 F27000
G1 F3600
G1 X126.04 Y202.797 E0.48787
G1 X125.409 Y202.797 F27000
G1 F3600
G1 X118.52 Y195.909 E0.44691
G1 X118.52 Y196.54 F27000
G1 F3600
G1 X124.778 Y202.797 E0.40596
G1 X124.147 Y202.797 F27000
G1 F3600
G1 X118.52 Y197.171 E0.36501
G1 X118.52 Y197.802 F27000
G1 F3600
G1 X123.515 Y202.797 E0.32405
G1 X122.884 Y202.797 F27000
G1 F3600
G1 X118.52 Y198.434 E0.28311
G1 X118.52 Y199.065 F27000
G1 F3600
G1 X122.253 Y202.797 E0.24215
M73 P7 R20
G1 X121.622 Y202.797 F27000
G1 F3600
G1 X118.52 Y199.696 E0.2012
G1 X118.52 Y200.327 F27000
G1 F3600
G1 X120.99 Y202.797 E0.16025
G1 X120.359 Y202.797 F27000
G1 F3600
G1 X118.52 Y200.959 E0.1193
G1 X118.52 Y201.59 F27000
G1 F3600
G1 X119.728 Y202.797 E0.07835
G1 X119.097 Y202.797 F27000
G1 F3600
G1 X118.52 Y202.221 E0.03739
G1 E-10.000000 F1800
M204 S4000
G1 Z0.45 F27000
; custom gcode: end_filament_gcode
0
; custom gcode end: end_filament_gcode
G1 X118.525 Y211.237
M104 S260 T0 ; set temperature
; custom gcode: toolchange_gcode
0
1
; custom gcode end: toolchange_gcode
; custom gcode: start_filament_gcode
1
; custom gcode end: start_filament_gcode
M109 S293 T1 ; set temperature and wait for it to be reached
G1 E-0.5 F1800
; stop printing object 3mmsquare.stl id:0 copy 0
EXCLUDE_OBJECT_END NAME=3mmsquare_stl_id_0_copy_0
; acceleration to travel
M204 S10000
G1 X113.48 Y204.225 F27000
; decel to extrusion
M204 S2000
G1 X112.485 Y204.62
; end travel
G1 Z0.25
G1 E0.5 F1800
; custom gcode: feature_gcode
1
; custom gcode end: feature_gcode

;TYPE:Skirt
;WIDTH:0.4
G1 X113.341 Y207.165 E0.09666
G1 X114.732 Y208.346 E0.06569
G1 X116.492 Y208.828 E0.06569
G1 X225.224 Y214.124 E3.91887
M73 P8 R20
G1 X260.429 Y214.129 E1.26734
G1 X261.515 Y213.987 E0.03943
G1 X263.135 Y213.146 E0.06569
G1 X264.246 Y211.699 E0.06569
G1 X264.642 Y209.917 E0.06569
G1 X264.642 Y174.917 E1.25996
G1 X263.879 Y172.5 E0.09125
G1 X262.533 Y171.268 E0.06569
G1 X205.798 Y138.567 E2.35734
G1 X203.695 Y138.004 E0.07839
G1 X168.695 Y138.004 E1.25996
G1 X166.731 Y138.49 E0.07283
G1 X114.733 Y165.894 E2.11589
G1 X112.88 Y167.839 E0.09671
G1 X112.485 Y169.62 E0.06569
G1 X112.485 Y204.62 E1.25996
G1 X112.831 Y204.62 F27000
G1 F1800
G1 X113.529 Y206.836 E0.08363
G1 X114.828 Y208.004 E0.06289
G1 X116.509 Y208.482 E0.0629
G1 X225.241 Y213.778 E3.91887
M73 P9 R20
G1 X260.429 Y213.783 E1.26673
G1 X262.797 Y212.973 E0.09006
G1 X263.9 Y211.619 E0.0629
G1 X264.295 Y209.917 E0.06289
G1 X264.295 Y174.917 E1.25996
G1 X263.637 Y172.76 E0.0812
G1 X262.36 Y171.568 E0.06289
G1 X205.625 Y138.867 E2.35735
G1 X203.695 Y138.351 E0.07194
G1 X168.695 Y138.351 E1.25996
G1 X166.892 Y138.796 E0.06684
G1 X114.895 Y166.2 E2.1159
G1 X113.226 Y167.918 E0.08621
G1 X112.831 Y169.62 E0.0629
G1 X112.831 Y204.62 E1.25996
G1 E-0.5
M204 S4000
G1 Z0.45 F27000
; printing object 3mmsquare.stl id:1 copy 0
EXCLUDE_OBJECT_START NAME=3mmsquare_stl_id_1_copy_0
; acceleration to travel
M204 S10000
G1 X187.143 Y180.376
; decel to extrusion
M204 S2000
G1 X202.006 Y175.527
; end travel
G1 Z0.25
G1 E0.5 F1800
; custom gcode: feature_gcode
1
; custom gcode end: feature_gcode

;TYPE:Internal perimeter
;WIDTH:0.5
G1 X170.384 Y175.527 E1.46702
M73 P10 R20
G1 X170.384 Y143.905 E1.46703
G1 X202.006 Y143.905 E1.46702
G1 X202.006 Y175.527 E1.46703
G1 X202.452 Y175.974 F27000
G1 F1800
G1 X169.938 Y175.974 E1.50843
G1 X169.938 Y143.459 E1.50844
G1 X202.452 Y143.459 E1.50844
G1 X202.452 Y175.974 E1.50844
G1 X202.899 Y176.42 F27000
G1 F1800
G1 X169.491 Y176.42 E1.54985
G1 X169.491 Y143.013 E1.54986
G1 X202.899 Y143.013 E1.54985
G1 X202.899 Y176.42 E1.54985
M204 S1000
G1 X203.345 Y176.866 F27000
; custom gcode: feature_gcode
1
; custom gcode end: feature_gcode

;TYPE:External perimeter
G1 F1800
G1 X169.045 Y176.866 E1.59127
M73 P11 R20
G1 X169.045 Y142.566 E1.59127
G1 X203.345 Y142.566 E1.59126
G1 X203.345 Y176.866 E1.59127
;WIPE_START
M204 S4000
G1 X202.998 Y176.666 F27000
;WIPE_END
; acceleration to travel
M204 S10000
G1 X201.312 Y149.539
; decel to extrusion
M204 S2000
G1 X200.97 Y144.039
; end travel
; custom gcode: feature_gcode
1
; custom gcode end: feature_gcode

;TYPE:Solid infill
;WIDTH:0.49441
G1 F3600
G1 X201.872 Y144.942 E0.05854
G1 X201.872 Y145.573 F27000
G1 F3600
G1 X200.338 Y144.039 E0.09949
G1 X199.707 Y144.039 F27000
G1 F3600
G1 X201.872 Y146.204 E0.14044
