; generated by SuperSlicer 2.5.59.13 on 2025-07-27 at 23:27:17 UTC


;
;

;
;
; 

; external perimeters extrusion width = 0.50mm
; perimeters extrusion width = 0.50mm
; infill extrusion width = 0.50mm
; solid infill extrusion width = 0.50mm
; top infill extrusion width = 0.50mm
; first layer extrusion width = 0.50mm

; external perimeters extrusion width = 0.50mm
; perimeters extrusion width = 0.50mm
; infill extrusion width = 0.50mm
; solid infill extrusion width = 0.50mm
; top infill extrusion width = 0.50mm
; first layer extrusion width = 0.50mm

; external perimeters extrusion width = 0.50mm
; perimeters extrusion width = 0.50mm
; infill extrusion width = 0.50mm
; solid infill extrusion width = 0.50mm
; top infill extrusion width = 0.50mm
; first layer extrusion width = 0.50mm

; object:{"name":"First_Layer_Patch-0","id":"First_Layer_Patch-0.25mm.stl id:0 copy 0","object_center":[190.500000,159.500000,0.000000],"boundingbox_center":[190.500000,159.500000,0.125000],"boundingbox_size":[25.000000,25.000000,0.250000]}
EXCLUDE_OBJECT_DEFINE NAME=First_Layer_Patch_0_25mm_stl_id_0_copy_0 CENTER=190.500000,159.500000 POLYGON=[[178.00,147.00],[203.00,147.00],[203.00,172.00],[178.00,172.00],[178.00,147.00]]
; object:{"name":"First_Layer_Patch-0","id":"First_Layer_Patch-0.25mm.stl id:1 copy 0","object_center":[190.500000,190.500000,0.000000],"boundingbox_center":[190.500000,190.500000,0.125000],"boundingbox_size":[25.000000,25.000000,0.250000]}
EXCLUDE_OBJECT_DEFINE NAME=First_Layer_Patch_0_25mm_stl_id_1_copy_0 CENTER=190.500000,190.500000 POLYGON=[[178.00,178.00],[203.00,178.00],[203.00,203.00],[178.00,203.00],[178.00,178.00]]
; object:{"name":"First_Layer_Patch-0","id":"First_Layer_Patch-0.25mm.stl id:2 copy 0","object_center":[159.500000,175.000001,0.000000],"boundingbox_center":[159.500000,175.000001,0.125000],"boundingbox_size":[25.000000,25.000000,0.250000]}
EXCLUDE_OBJECT_DEFINE NAME=First_Layer_Patch_0_25mm_stl_id_2_copy_0 CENTER=159.500000,175.000001 POLYGON=[[147.00,162.50],[172.00,162.50],[172.00,187.50],[147.00,187.50],[147.00,162.50]]
; plater:{"center":[175.000000,175.000000,0.000000],"boundingbox_center":[175.000000,175.000000,0.125000],"boundingbox_size":[56.000000,56.000000,0.250000]}

M73 P0 R2
M107
;TYPE:Custom
; custom gcode: start_gcode
PRINT_START  TOOL_TEMP=273 BED_TEMP=99 TOOL=0 CHAMBER=49
; custom gcode end: start_gcode

G21 ; set units to millimeters
G90 ; use absolute coordinates
M83 ; use relative distances for extrusion
; custom gcode: toolchange_gcode
0
0
; custom gcode end: toolchange_gcode
; custom gcode: start_filament_gcode
0
; custom gcode end: start_filament_gcode
M109 S273 T0 ; set temperature and wait for it to be reached
M104 S260 T0 ; set temperature
M104 S280 T1 ; set temperature
M104 S240 T2 ; set temperature
M109 S273 T0 ; set temperature and wait for it to be reached
M190 S99 ; set bed temperature and wait for it to be reached
;LAYER_CHANGE
;Z:0.25
;HEIGHT:0.25
; custom gcode: before_layer_gcode
0
; custom gcode end: before_layer_gcode

G1 Z0.25 F27000
; custom gcode: layer_gcode
0
VERIFY_TOOL_DETECTED ASYNC=1 
; custom gcode end: layer_gcode

G92 E0
M73 P12 R2
G1 E-0.5 F1800
G1 Z0.45 F27000
M204 S2000
G1 X143.715 Y159.05
M73 P13 R2
G1 Z0.25
G1 E0.5 F1800
; custom gcode: feature_gcode
0
; custom gcode end: feature_gcode

;TYPE:Skirt
;WIDTH:0.4
G1 X142.591 Y160.669 E0.07095
G1 X142.195 Y162.6 E0.07094
G1 X142.195 Y187.4 E0.89277
G1 X142.411 Y188.84 E0.05244
M73 P14 R2
G1 X143.357 Y190.57 E0.07094
G1 X144.906 Y191.787 E0.07095
G1 X175.906 Y207.287 E1.24768
G1 X178.1 Y207.805 E0.08114
G1 X202.9 Y207.805 E0.89277
M73 P15 R2
G1 X204.615 Y207.495 E0.06273
G1 X206.285 Y206.45 E0.07094
G1 X207.409 Y204.831 E0.07095
G1 X207.805 Y202.9 E0.07094
G1 X207.805 Y147.1 E2.00874
M73 P16 R2
G1 X207.495 Y145.385 E0.06273
G1 X206.45 Y143.715 E0.07094
G1 X204.831 Y142.591 E0.07095
G1 X202.9 Y142.195 E0.07094
G1 X178.1 Y142.195 E0.89278
M73 P17 R2
G1 X175.906 Y142.713 E0.08113
G1 X144.906 Y158.213 E1.24769
M73 P18 R2
G1 X143.715 Y159.05 E0.05243
G1 X144.055 Y159.207 F27000
G1 F1800
G1 X142.937 Y160.742 E0.06837
G1 X142.541 Y162.6 E0.06837
G1 X142.541 Y187.4 E0.89277
G1 X142.704 Y188.606 E0.04381
G1 X143.577 Y190.293 E0.06837
M73 P19 R2
G1 X145.061 Y191.477 E0.06836
G1 X176.061 Y206.977 E1.24769
G1 X178.1 Y207.459 E0.07541
G1 X202.9 Y207.459 E0.89277
M73 P20 R2
G1 X204.298 Y207.239 E0.05095
G1 X205.945 Y206.293 E0.06837
G1 X207.063 Y204.758 E0.06836
G1 X207.459 Y202.9 E0.06837
G1 X207.459 Y147.1 E2.00874
M73 P21 R2
G1 X207.239 Y145.702 E0.05095
G1 X206.293 Y144.055 E0.06836
G1 X204.758 Y142.937 E0.06837
G1 X202.9 Y142.541 E0.06837
G1 X178.1 Y142.541 E0.89277
M73 P22 R2
G1 X176.061 Y143.023 E0.07541
G1 X145.061 Y158.523 E1.24768
M73 P23 R2
G1 X144.055 Y159.207 E0.04381
G1 E-0.5
M204 S4000
G1 Z0.45 F27000
; printing object First_Layer_Patch-0.25mm.stl id:0 copy 0
EXCLUDE_OBJECT_START NAME=First_Layer_Patch_0_25mm_stl_id_0_copy_0
; acceleration to travel
M204 S10000
G1 X197.323 Y170.519
; decel to extrusion
M204 S1000
G1 X202.65 Y171.65
; end travel
G1 Z0.25
G1 E0.5 F1800
; custom gcode: feature_gcode
0
; custom gcode end: feature_gcode

;TYPE:External perimeter
;WIDTH:0.5
G1 X178.35 Y171.65 E1.12734
M73 P24 R1
G1 X178.35 Y147.35 E1.12734
G1 X202.65 Y147.35 E1.12734
M73 P25 R1
G1 X202.65 Y171.65 E1.12734
;WIPE_START
M204 S4000
G1 X202.304 Y171.45 F27000
;WIPE_END
; acceleration to travel
M204 S10000
G1 X201.73 Y151.523
; decel to extrusion
M204 S2000
G1 X201.614 Y147.484
; end travel
; custom gcode: feature_gcode
0
; custom gcode end: feature_gcode

;TYPE:Solid infill
;WIDTH:0.492744
G1 F3600
G1 X202.516 Y148.386 E0.05834
G1 X202.516 Y149.017 F27000
G1 F3600
G1 X200.983 Y147.484 E0.09916
G1 X200.351 Y147.484 F27000
G1 F3600
G1 X202.516 Y149.649 E0.13996
G1 X202.516 Y150.28 F27000
G1 F3600
G1 X199.72 Y147.484 E0.18078
G1 X199.089 Y147.484 F27000
G1 F3600
G1 X202.516 Y150.911 E0.2216
M73 P26 R1
G1 X202.516 Y151.542 F27000
G1 F3600
G1 X198.458 Y147.484 E0.2624
G1 X197.826 Y147.484 F27000
G1 F3600
G1 X202.516 Y152.174 E0.30322
G1 X202.516 Y152.805 F27000
G1 F3600
G1 X197.195 Y147.484 E0.34404
G1 X196.564 Y147.484 F27000
G1 F3600
G1 X202.516 Y153.436 E0.38484
G1 X202.516 Y154.067 F27000
G1 F3600
G1 X195.933 Y147.484 E0.42567
G1 X195.302 Y147.484 F27000
G1 F3600
G1 X202.516 Y154.698 E0.46647
G1 X202.516 Y155.33 F27000
G1 F3600
G1 X194.67 Y147.484 E0.50729
G1 X194.039 Y147.484 F27000
G1 F3600
G1 X202.516 Y155.961 E0.5481
M73 P27 R1
G1 X202.516 Y156.592 F27000
G1 F3600
G1 X193.408 Y147.484 E0.58892
G1 X192.777 Y147.484 F27000
G1 F3600
G1 X202.516 Y157.223 E0.62973
G1 X202.516 Y157.855 F27000
G1 F3600
G1 X192.145 Y147.484 E0.67054
G1 X191.514 Y147.484 F27000
G1 F3600
G1 X202.516 Y158.486 E0.71136
G1 X202.516 Y159.117 F27000
G1 F3600
G1 X190.883 Y147.484 E0.75217
M73 P28 R1
G1 X190.252 Y147.484 F27000
G1 F3600
G1 X202.516 Y159.748 E0.79298
G1 X202.516 Y160.38 F27000
G1 F3600
G1 X189.62 Y147.484 E0.8338
G1 X188.989 Y147.484 F27000
G1 F3600
G1 X202.516 Y161.011 E0.87461
G1 X202.516 Y161.642 F27000
G1 F3600
G1 X188.358 Y147.484 E0.91542
G1 X187.727 Y147.484 F27000
G1 F3600
G1 X202.516 Y162.273 E0.95624
M73 P29 R1
G1 X202.516 Y162.905 F27000
G1 F3600
G1 X187.095 Y147.484 E0.99705
G1 X186.464 Y147.484 F27000
G1 F3600
G1 X202.516 Y163.536 E1.03787
G1 X202.516 Y164.167 F27000
G1 F3600
G1 X185.833 Y147.484 E1.07868
M73 P30 R1
G1 X185.202 Y147.484 F27000
G1 F3600
G1 X202.516 Y164.798 E1.11949
G1 X202.516 Y165.429 F27000
G1 F3600
G1 X184.571 Y147.484 E1.16031
G1 X183.939 Y147.484 F27000
G1 F3600
G1 X202.516 Y166.061 E1.20112
G1 X202.516 Y166.692 F27000
G1 F3600
G1 X183.308 Y147.484 E1.24193
M73 P31 R1
G1 X182.677 Y147.484 F27000
G1 F3600
G1 X202.516 Y167.323 E1.28275
G1 X202.516 Y167.954 F27000
G1 F3600
G1 X182.046 Y147.484 E1.32356
G1 X181.414 Y147.484 F27000
M73 P32 R1
G1 F3600
G1 X202.516 Y168.586 E1.36437
G1 X202.516 Y169.217 F27000
G1 F3600
G1 X180.783 Y147.484 E1.40519
G1 X180.152 Y147.484 F27000
G1 F3600
G1 X202.516 Y169.848 E1.446
M73 P33 R1
G1 X202.516 Y170.479 F27000
G1 F3600
G1 X179.521 Y147.484 E1.48681
G1 X178.889 Y147.484 F27000
G1 F3600
G1 X202.516 Y171.111 E1.52763
G1 X202.29 Y171.516 F27000
G1 F3600
G1 X178.484 Y147.71 E1.53926
M73 P34 R1
G1 X178.484 Y148.341 F27000
G1 F3600
G1 X201.659 Y171.516 E1.49845
G1 X201.028 Y171.516 F27000
G1 F3600
G1 X178.484 Y148.972 E1.45763
G1 X178.484 Y149.603 F27000
M73 P35 R1
G1 F3600
G1 X200.397 Y171.516 E1.41682
G1 X199.766 Y171.516 F27000
G1 F3600
G1 X178.484 Y150.234 E1.37601
G1 X178.484 Y150.866 F27000
G1 F3600
G1 X199.134 Y171.516 E1.33519
M73 P36 R1
G1 X198.503 Y171.516 F27000
G1 F3600
G1 X178.484 Y151.497 E1.29438
G1 X178.484 Y152.128 F27000
G1 F3600
G1 X197.872 Y171.516 E1.25356
G1 X197.241 Y171.516 F27000
G1 F3600
G1 X178.484 Y152.759 E1.21276
M73 P37 R1
G1 X178.484 Y153.391 F27000
G1 F3600
G1 X196.609 Y171.516 E1.17193
G1 X195.978 Y171.516 F27000
G1 F3600
G1 X178.484 Y154.022 E1.13113
G1 X178.484 Y154.653 F27000
G1 F3600
G1 X195.347 Y171.516 E1.09031
G1 X194.716 Y171.516 F27000
G1 F3600
G1 X178.484 Y155.284 E1.0495
M73 P38 R1
G1 X178.484 Y155.916 F27000
G1 F3600
G1 X194.084 Y171.516 E1.00868
G1 X193.453 Y171.516 F27000
G1 F3600
G1 X178.484 Y156.547 E0.96787
G1 X178.484 Y157.178 F27000
G1 F3600
G1 X192.822 Y171.516 E0.92706
M73 P39 R1
G1 X192.191 Y171.516 F27000
G1 F3600
G1 X178.484 Y157.809 E0.88624
G1 X178.484 Y158.441 F27000
G1 F3600
G1 X191.559 Y171.516 E0.84543
G1 X190.928 Y171.516 F27000
G1 F3600
G1 X178.484 Y159.072 E0.80462
G1 X178.484 Y159.703 F27000
G1 F3600
G1 X190.297 Y171.516 E0.7638
G1 X189.666 Y171.516 F27000
G1 F3600
G1 X178.484 Y160.334 E0.72299
M73 P40 R1
G1 X178.484 Y160.965 F27000
G1 F3600
G1 X189.035 Y171.516 E0.68217
G1 X188.403 Y171.516 F27000
G1 F3600
G1 X178.484 Y161.597 E0.64136
G1 X178.484 Y162.228 F27000
G1 F3600
G1 X187.772 Y171.516 E0.60055
G1 X187.141 Y171.516 F27000
G1 F3600
G1 X178.484 Y162.859 E0.55973
G1 X178.484 Y163.49 F27000
G1 F3600
G1 X186.51 Y171.516 E0.51893
G1 X185.878 Y171.516 F27000
M73 P41 R1
G1 F3600
G1 X178.484 Y164.122 E0.4781
G1 X178.484 Y164.753 F27000
G1 F3600
G1 X185.247 Y171.516 E0.4373
G1 X184.616 Y171.516 F27000
G1 F3600
G1 X178.484 Y165.384 E0.39648
G1 X178.484 Y166.015 F27000
G1 F3600
G1 X183.985 Y171.516 E0.35566
G1 X183.353 Y171.516 F27000
G1 F3600
G1 X178.484 Y166.647 E0.31485
G1 X178.484 Y167.278 F27000
G1 F3600
G1 X182.722 Y171.516 E0.27404
G1 X182.091 Y171.516 F27000
G1 F3600
G1 X178.484 Y167.909 E0.23323
G1 X178.484 Y168.54 F27000
G1 F3600
G1 X181.46 Y171.516 E0.19241
G1 X180.829 Y171.516 F27000
G1 F3600
G1 X178.484 Y169.171 E0.1516
G1 X178.484 Y169.803 F27000
G1 F3600
G1 X180.197 Y171.516 E0.11078
M73 P42 R1
G1 X179.566 Y171.516 F27000
G1 F3600
G1 X178.484 Y170.434 E0.06997
G1 X178.484 Y171.065 F27000
G1 F3600
G1 X178.935 Y171.516 E0.02916
G1 E-10.000000 F1800
M204 S4000
G1 Z0.45 F27000
; custom gcode: end_filament_gcode
0
; custom gcode end: end_filament_gcode
G1 X166.626 Y145.548
M104 S260 T0 ; set temperature
; custom gcode: toolchange_gcode
0
1
; custom gcode end: toolchange_gcode
; custom gcode: start_filament_gcode
1
; custom gcode end: start_filament_gcode
M109 S293 T1 ; set temperature and wait for it to be reached
G1 E-0.5 F1800
; stop printing object First_Layer_Patch-0.25mm.stl id:0 copy 0
EXCLUDE_OBJECT_END NAME=First_Layer_Patch_0_25mm_stl_id_0_copy_0
; acceleration to travel
M204 S10000
G1 X176.664 Y147.977 F27000
; decel to extrusion
M204 S2000
G1 X176.216 Y143.332
; end travel
G1 Z0.25
G1 E0.5 F1800
; custom gcode: feature_gcode
1
; custom gcode end: feature_gcode

;TYPE:Skirt
;WIDTH:0.4
G1 X145.216 Y158.832 E1.24769
M73 P43 R1
G1 X144.395 Y159.371 E0.03537
G1 X143.283 Y160.819 E0.06569
G1 X142.888 Y162.6 E0.06569
G1 X142.888 Y187.4 E0.89277
M73 P44 R1
G1 X143.002 Y188.376 E0.03537
G1 X143.8 Y190.017 E0.06569
G1 X145.216 Y191.168 E0.06569
G1 X176.216 Y206.668 E1.24769
G1 X178.1 Y207.112 E0.06968
G1 X202.9 Y207.112 E0.89277
M73 P45 R1
G1 X203.986 Y206.97 E0.03943
G1 X205.605 Y206.129 E0.06569
G1 X206.717 Y204.681 E0.06569
G1 X207.112 Y202.9 E0.06569
G1 X207.112 Y147.1 E2.00873
M73 P46 R1
G1 X206.97 Y146.014 E0.03944
G1 X206.129 Y144.395 E0.06569
G1 X204.681 Y143.283 E0.06569
G1 X202.9 Y142.888 E0.06569
G1 X178.1 Y142.888 E0.89277
M73 P47 R1
G1 X176.216 Y143.332 E0.06967
G1 X176.371 Y143.642 F27000
G1 F1800
G1 X145.371 Y159.142 E1.24769
M73 P48 R1
G1 X143.629 Y160.898 E0.08904
G1 X143.234 Y162.6 E0.0629
G1 X143.234 Y187.4 E0.89277
G1 X144.025 Y189.743 E0.08904
G1 X145.371 Y190.858 E0.0629
G1 X176.371 Y206.358 E1.24768
M73 P49 R1
G1 X178.1 Y206.766 E0.06395
G1 X202.9 Y206.766 E0.89277
M73 P50 R1
G1 X205.267 Y205.956 E0.09006
G1 X206.371 Y204.602 E0.0629
G1 X206.766 Y202.9 E0.0629
G1 X206.766 Y147.1 E2.00873
M73 P51 R1
G1 X205.956 Y144.733 E0.09007
G1 X204.602 Y143.629 E0.06289
G1 X202.9 Y143.234 E0.0629
G1 X178.1 Y143.234 E0.89277
M73 P52 R1
G1 X176.371 Y143.642 E0.06395
G1 E-0.5
M204 S4000
G1 Z0.45 F27000
; printing object First_Layer_Patch-0.25mm.stl id:1 copy 0
EXCLUDE_OBJECT_START NAME=First_Layer_Patch_0_25mm_stl_id_1_copy_0
; acceleration to travel
M204 S10000
G1 X200.261 Y197.286
; decel to extrusion
M204 S1000
G1 X202.65 Y202.65
; end travel
G1 Z0.25
G1 E0.5 F1800
; custom gcode: feature_gcode
1
; custom gcode end: feature_gcode

;TYPE:External perimeter
;WIDTH:0.5
G1 X178.35 Y202.65 E1.12734
M73 P53 R1
G1 X178.35 Y178.35 E1.12734
G1 X202.65 Y178.35 E1.12734
M73 P54 R1
G1 X202.65 Y202.65 E1.12734
;WIPE_START
M204 S4000
G1 X202.304 Y202.45 F27000
;WIPE_END
; acceleration to travel
M204 S10000
G1 X201.73 Y182.523
; decel to extrusion
M204 S2000
G1 X201.614 Y178.484
; end travel
; custom gcode: feature_gcode
1
; custom gcode end: feature_gcode

;TYPE:Solid infill
;WIDTH:0.492744
G1 F3600
G1 X202.516 Y179.386 E0.05834
G1 X202.516 Y180.017 F27000
G1 F3600
G1 X200.983 Y178.484 E0.09916
G1 X200.351 Y178.484 F27000
G1 F3600
G1 X202.516 Y180.649 E0.13996
G1 X202.516 Y181.28 F27000
G1 F3600
G1 X199.72 Y178.484 E0.18078
M73 P55 R1
G1 X199.089 Y178.484 F27000
G1 F3600
G1 X202.516 Y181.911 E0.2216
G1 X202.516 Y182.542 F27000
G1 F3600
G1 X198.458 Y178.484 E0.2624
G1 X197.826 Y178.484 F27000
G1 F3600
G1 X202.516 Y183.174 E0.30322
G1 X202.516 Y183.805 F27000
G1 F3600
G1 X197.195 Y178.484 E0.34404
G1 X196.564 Y178.484 F27000
G1 F3600
G1 X202.516 Y184.436 E0.38484
G1 X202.516 Y185.067 F27000
G1 F3600
G1 X195.933 Y178.484 E0.42567
G1 X195.302 Y178.484 F27000
G1 F3600
G1 X202.516 Y185.698 E0.46647
G1 X202.516 Y186.33 F27000
G1 F3600
G1 X194.67 Y178.484 E0.50729
M73 P56 R1
G1 X194.039 Y178.484 F27000
G1 F3600
G1 X202.516 Y186.961 E0.5481
G1 X202.516 Y187.592 F27000
G1 F3600
G1 X193.408 Y178.484 E0.58892
G1 X192.777 Y178.484 F27000
G1 F3600
G1 X202.516 Y188.223 E0.62973
G1 X202.516 Y188.855 F27000
G1 F3600
G1 X192.145 Y178.484 E0.67054
G1 X191.514 Y178.484 F27000
G1 F3600
G1 X202.516 Y189.486 E0.71136
G1 X202.516 Y190.117 F27000
G1 F3600
G1 X190.883 Y178.484 E0.75217
M73 P57 R1
G1 X190.252 Y178.484 F27000
G1 F3600
G1 X202.516 Y190.748 E0.79298
G1 X202.516 Y191.38 F27000
G1 F3600
G1 X189.62 Y178.484 E0.8338
G1 X188.989 Y178.484 F27000
G1 F3600
G1 X202.516 Y192.011 E0.87461
G1 X202.516 Y192.642 F27000
G1 F3600
G1 X188.358 Y178.484 E0.91542
M73 P58 R1
G1 X187.727 Y178.484 F27000
G1 F3600
G1 X202.516 Y193.273 E0.95624
G1 X202.516 Y193.905 F27000
G1 F3600
G1 X187.095 Y178.484 E0.99705
G1 X186.464 Y178.484 F27000
G1 F3600
G1 X202.516 Y194.536 E1.03787
G1 X202.516 Y195.167 F27000
G1 F3600
G1 X185.833 Y178.484 E1.07868
M73 P59 R1
G1 X185.202 Y178.484 F27000
G1 F3600
G1 X202.516 Y195.798 E1.11949
G1 X202.516 Y196.429 F27000
G1 F3600
G1 X184.571 Y178.484 E1.16031
G1 X183.939 Y178.484 F27000
G1 F3600
G1 X202.516 Y197.061 E1.20112
M73 P60 R1
G1 X202.516 Y197.692 F27000
G1 F3600
G1 X183.308 Y178.484 E1.24193
G1 X182.677 Y178.484 F27000
G1 F3600
G1 X202.516 Y198.323 E1.28275
G1 X202.516 Y198.954 F27000
G1 F3600
G1 X182.046 Y178.484 E1.32356
M73 P61 R1
G1 X181.414 Y178.484 F27000
G1 F3600
G1 X202.516 Y199.586 E1.36437
G1 X202.516 Y200.217 F27000
G1 F3600
G1 X180.783 Y178.484 E1.40519
